!!!COM: Beethoven, Ludwig van
!!!CDT: 1770///-1827///
!!!ODT: 1825///-1826///
!!!OTL: String Quartet No. 13 in B-flat Major, Op. 130
!!!OPS: Op. 130
!!!OMV: Mvmt. 6
!!!OMD: Finale: Allegro
!!!PDT: 1827///
!!!PPP: Vienna
!!!ODE: Dem F&uuml;rsten Nicolaus von Galitzin gewindmet
!!!MPD: 1826/03/21/
!!!MPD: 1827/04/22/
**kern	**dynam	**kern	**dynam	**kern	**dynam	**kern	**dynam
*staff4	*staff4	*staff3	*staff3	*staff2	*staff2	*staff1	*staff1
*Icello	*Icello	*Iviola	*Iviola	*Ivioln	*Ivioln	*Ivioln	*Ivioln
*>[I,A,B,B1,B,B2,C,C1,A,B,B1,B,B2,C,C2,D]	*>[I,A,B,B1,B,B2,C,C1,A,B,B1,B,B2,C,C2,D]	*>[I,A,B,B1,B,B2,C,C1,A,B,B1,B,B2,C,C2,D]	*>[I,A,B,B1,B,B2,C,C1,A,B,B1,B,B2,C,C2,D]	*>[I,A,B,B1,B,B2,C,C1,A,B,B1,B,B2,C,C2,D]	*>[I,A,B,B1,B,B2,C,C1,A,B,B1,B,B2,C,C2,D]	*>[I,A,B,B1,B,B2,C,C1,A,B,B1,B,B2,C,C2,D]	*>[I,A,B,B1,B,B2,C,C1,A,B,B1,B,B2,C,C2,D]
*>norep[I,A,B,B2,C,C2,D]	*>norep[I,A,B,B2,C,C2,D]	*>norep[I,A,B,B2,C,C2,D]	*>norep[I,A,B,B2,C,C2,D]	*>norep[I,A,B,B2,C,C2,D]	*>norep[I,A,B,B2,C,C2,D]	*>norep[I,A,B,B2,C,C2,D]	*>norep[I,A,B,B2,C,C2,D]
*>I	*>I	*>I	*>I	*>I	*>I	*>I	*>I
*clefF4	*clefF4	*clefC3	*clefC3	*clefG2	*clefG2	*clefG2	*clefG2
*k[b-e-]	*k[b-e-]	*k[b-e-]	*k[b-e-]	*k[b-e-]	*k[b-e-]	*k[b-e-]	*k[b-e-]
*B-:	*B-:	*B-:	*B-:	*B-:	*B-:	*B-:	*B-:
*M2/4	*M2/4	*M2/4	*M2/4	*M2/4	*M2/4	*M2/4	*M2/4
*MM132	*MM132	*MM132	*MM132	*MM132	*MM132	*MM132	*MM132
=1-	=1-	=1-	=1-	=1-	=1-	=1-	=1-
2r	.	8G'\L	pp	2r	.	2r	.
.	.	8g'\	.	.	.	.	.
.	.	8G'\	.	.	.	.	.
.	.	8g'\J	.	.	.	.	.
=2	=2	=2	=2	=2	=2	=2	=2
2r	.	8G'\L	.	2r	.	2r	.
.	.	8g'\	.	.	.	.	.
.	.	8G'\	.	.	.	.	.
.	.	8g'\J	.	.	.	.	.
=3!|:	=3!|:	=3!|:	=3!|:	=3!|:	=3!|:	=3!|:	=3!|:
*>A	*>A	*>A	*>A	*>A	*>A	*>A	*>A
*clefC4	*clefC4	*	*	*	*	*	*
4r	pp	8G\L	.	4r	pp	(8g\L	pp
.	.	8g\	.	.	.	16bn\L	.
.	.	.	.	.	.	16dd\JJ)	.
8d\	.	8G\	.	8Bn/	.	8ff'\L	.
8r	.	8g\J	.	8r	.	8dd'\J	.
=4	=4	=4	=4	=4	=4	=4	=4
4r	.	8G\L	.	4r	.	(16ff\LL	.
.	.	.	.	.	.	16ee-\	.
.	.	8g\	.	.	.	16dd\	.
.	.	.	.	.	.	16cc\JJ)	.
8e-\	.	8G\	.	8c/	.	8bn'\L	.
8r	.	8g\J	.	8r	.	8cc'\J	.
=5	=5	=5	=5	=5	=5	=5	=5
4r	.	8G\L	.	4r	.	8bn'\L	.
.	.	8g\J	.	.	.	8b'\J	.
8f\	.	8G\L	.	8d/	.	(8b\L	.
8r	.	8g\J	.	8r	.	16cc\L	.
.	.	.	.	.	.	16dd\JJ)	.
=6	=6	=6	=6	=6	=6	=6	=6
4r	.	8G\L	.	4r	.	(8dd\L	.
.	.	8g\	.	.	.	16ee-\Jk)	.
.	.	.	.	.	.	16r	.
8e-\	.	8c\	.	8G/	.	4ee-\	.
8r	.	8g\J	.	8r	.	.	.
=7	=7	=7	=7	=7	=7	=7	=7
8c\	.	8A\L	.	4e-/	.	(8ff\L	.
8r	.	8f\	.	.	.	16aa\L	.
.	.	.	.	.	.	16ccc\JJ)	.
8A\	.	8F\	.	4e-/	.	8eee-'\L	.
8r	.	8f\J	.	.	.	8ccc'\J	.
=8	=8	=8	=8	=8	=8	=8	=8
8B-\	.	8B-\L	.	8d/	.	(16eee-\LL	.
.	.	.	.	.	.	16ddd\	.
8r	.	8f\	.	8r	.	16ccc\	.
.	.	.	.	.	.	16bb-\JJ)	.
8B-\	.	8G\	.	8d/	.	8aa'\L	.
8r	.	8g\J	.	8r	.	8bb-'\J	.
=9	=9	=9	=9	=9	=9	=9	=9
*clefF4	*clefF4	*	*	*	*	*	*
8r	.	8E-'/L	.	8r	.	8gg'\L	.
8E-\	.	8e-'/	.	8e-/	.	8ee-'\	.
8r	.	8F'/	.	8r	.	8ff'\	.
8F\	.	8f'/J	.	8f/	.	8ff'\J	.
=10	=10	=10	=10	=10	=10	=10	=10
8r	.	8B-'\L	.	8r	.	8b-'\L	.
8B-\	.	8b-'\	.	8B-/	.	8bb-'\	.
4r	.	8B-'\	.	4r	.	8b-'\	.
.	.	8A-'\J	.	.	.	8a-'\J	.
=11	=11	=11	=11	=11	=11	=11	=11
*clefC4	*clefC4	*	*	*	*	*	*
8r	pp	8G'\L	pp	(8G/L	pp	8g'\L	pp
(16G\LL	.	8g'\	.	16Bn/L	.	8gg'\	.
16Bn\JJ	.	.	.	16d/JJ)	.	.	.
8d'\L)	.	8G'\	.	8f'/L	.	8g'\	.
[8B\J	.	8g'\J	.	8d'/J	.	8gg'\J	.
=12	=12	=12	=12	=12	=12	=12	=12
(8B\L]	.	8G\L	.	(16f/LL	.	8g\L	.
.	.	.	.	16e-/	.	.	.
8c\)	.	8g\	.	16d/	.	8gg\	.
.	.	.	.	16c/JJ)	.	.	.
8d'\	.	8G\	.	8Bn'/L	.	8g\	.
8e-'\J	.	8g\J	.	8c'/J	.	8gg\J	.
=13	=13	=13	=13	=13	=13	=13	=13
8f\L	.	8G\L	.	8Bn'/L	.	8g\L	.
8f\	.	8g\	.	8B'/J	.	8gg\	.
8f\J	.	8G\	.	(8B/L	.	8g\	.
8Bn\	.	8g\J	.	16c/L	.	8gg\J	.
.	.	.	.	16d/JJ)	.	.	.
=14	=14	=14	=14	=14	=14	=14	=14
8Bn\L	.	8G\L	.	(8d/L	.	8g\L	.
16c\Jk	.	8g\	.	16e-/Jk)	.	8gg\	.
16r	.	.	.	16r	.	.	.
8c\L	.	8C/	.	4e-/	.	8ee-\	.
16d\L	.	8c/J	.	.	.	8eee-\J	.
16e-\JJ	.	.	.	.	.	.	.
=15	=15	=15	=15	=15	=15	=15	=15
[2e-\	.	8A/L	.	(8f/L	.	8cc\L	.
.	.	8f/	.	16a/L	.	8ccc\	.
.	.	.	.	16cc/JJ)	.	.	.
.	.	8F/	.	8ee-'\L	.	8an\	.
.	.	8f/J	.	8cc'\J	.	8aa\J	.
=16	=16	=16	=16	=16	=16	=16	=16
(16e-\LL]	.	8B-/L	.	(16ee-\LL	.	8b-\L	.
16d\	.	.	.	16dd\	.	.	.
16c\	.	8f/	.	16cc\	.	8ddd\	.
16B-\JJ)	.	.	.	16b-\JJ)	.	.	.
8d'\L	.	8G/	.	8a'/L	.	8b-\	.
[8G\J	.	8g/J	.	8b-'/J	.	8bb-\J	.
=17	=17	=17	=17	=17	=17	=17	=17
8G\L]	.	8E-/L	.	8g'/L	.	8cc\L	.
16c\L	.	8E-/J	.	8e-'/J	.	8bb-\J	.
16e-\JJ	.	.	.	.	.	.	.
8A'\L	.	8F/L	.	8f'/L	.	8cc\L	.
8c'\J	.	8F/J	.	8f'/J	.	8aa\J	.
=18	=18	=18	=18	=18	=18	=18	=18
4d\	.	8B-/L	.	4B-/	.	4bb-\	.
.	.	8f/	.	.	.	.	.
4r	.	8F/	.	8r	.	8r	.
.	.	8f/J	.	8b-'/	.	8dd'\	.
=19	=19	=19	=19	=19	=19	=19	=19
2r	.	8F/L	.	8a'/L	.	8cc'\L	.
.	.	8f/	.	8b-'/	.	8dd'\	.
.	.	8F/	.	8a'/	.	8cc'\	.
.	.	8f/J	.	8b-'/J	.	8dd'\J	.
=20!|:	=20!|:	=20!|:	=20!|:	=20!|:	=20!|:	=20!|:	=20!|:
*>B	*>B	*>B	*>B	*>B	*>B	*>B	*>B
2r	.	8F/L	.	4cc\	.	4ee-'\	.
.	.	8f/	.	.	.	.	.
.	.	8F/	.	8r	.	8r	.
.	.	8f/J	.	8cc'\	.	8ee-'\	.
=21	=21	=21	=21	=21	=21	=21	=21
2r	.	8F/L	.	8b-'\L	.	8dd'\L	.
.	.	8f/	.	8cc'\	.	8ee-'\	.
.	.	8F/	.	8b-'\	.	8dd'\	.
.	.	8En/J	.	8b-'\J	.	8gg'\J	.
=22	=22	=22	=22	=22	=22	=22	=22
2r	.	8F/L	.	(8a/L	.	(8cc\L	.
.	.	8f/	.	8b-/	.	8dd\	.
.	.	8C/	.	8g/)	.	8een\)	.
.	.	8c/J	.	8a'/J	.	8ff'\J	.
=23	=23	=23	=23	=23	=23	=23	=23
*	*	*	*	*	*	*^	*
2r	.	8C/L	.	2f/	.	8a'\L	4r	.
.	.	8c/J	.	.	.	8ff'\J	.	.
.	.	8E-/L	.	.	.	4g/	32g/LLL	.
.	.	.	.	.	.	.	32a/	.
.	.	.	.	.	.	.	32g/	.
.	.	.	.	.	.	.	32a/	.
.	.	8e-/J	.	.	.	.	32g/	.
.	.	.	.	.	.	.	32a/	.
.	.	.	.	.	.	.	32f/	.
.	.	.	.	.	.	.	32g/JJJ	.
*	*	*	*	*	*	*v	*v	*
=24	=24	=24	=24	=24	=24	=24	=24
*clefF4	*clefF4	*	*	*	*	*	*
.	.	.	.	.	.	fq/LL	.
.	.	.	.	.	.	gq/JJ	.
*	*	*	*	*	*	*^	*
8r	.	8D/L	.	8B-'/L	.	8f'/L	4r	.
8D'\L	.	8d/	.	8f'/	.	8bb-'\J	.	.
8E-'\	.	8G/	.	8e-'/	.	4cc\	32cc\LLL	.
.	.	.	.	.	.	.	32dd\	.
.	.	.	.	.	.	.	32cc\	.
.	.	.	.	.	.	.	32dd\	.
8F'\J	.	8A/J	.	8e-'/J	.	.	32cc\	.
.	.	.	.	.	.	.	32dd\	.
.	.	.	.	.	.	.	32b-\	.
.	.	.	.	.	.	.	32cc\JJJ	.
*	*	*	*	*	*	*v	*v	*
=25	=25	=25	=25	=25	=25	=25	=25
.	.	.	.	.	.	b-q/LL	.
.	.	.	.	.	.	ccq/JJ	.
8BB-\L	pp	2F/	pp	2A-/ 2d/	pp	(8b-\L	pp
8B-\	.	.	.	.	.	16dd\L	.
.	.	.	.	.	.	16ff\JJ)	.
8BB-\	.	.	.	.	.	8aa-'\L	.
8B-\J	.	.	.	.	.	8ff'\J	.
=26	=26	=26	=26	=26	=26	=26	=26
8BB-\L	.	(8E-/L	.	(8G/L	.	(16aa-\LL	.
.	.	.	.	.	.	16gg\	.
8B-\	.	16G/L	.	16e-/L	.	16ff\	.
.	.	16e-/JJ)	.	16g/JJ)	.	16ee-\JJ)	.
8BB-\	.	8f'\L	.	8a-'/L	.	8dd'\L	.
8B-\J	.	8e-'\J	.	8g'/J	.	8ee-'\J	.
=27	=27	=27	=27	=27	=27	=27	=27
8BB-\L	.	8e-'/L	.	8g'/L	.	8ee-'\L	.
8B-\	.	8G'/J	.	8g'/J	.	8ee-'\J	.
8BB-\	.	(8B-/L	.	(8g/L	.	(8ee-\L	.
8B-\J	.	16A-/L	.	16f/L	.	16ff\L	.
.	.	16G/JJ)	.	16e-/JJ)	.	16gg\JJ)	.
=28	=28	=28	=28	=28	=28	=28	=28
8BB-\L	.	(8G/L	.	(8e-/L	.	(8gg\L	.
8B-\	.	16F/Jk)	.	16d/Jk)	.	16aa-\Jk)	.
.	.	16r	.	16r	.	16r	.
8BB-\	.	4F/	.	4d/	.	4aa-\	.
8B-\J	.	.	.	.	.	.	.
=29	=29	=29	=29	=29	=29	=29	=29
8BB-\L	.	2F/	.	2A-/ 2d/	.	(8b-\L	.
8B-\	.	.	.	.	.	16dd\L	.
.	.	.	.	.	.	16ff\JJ)	.
8BB-\	.	.	.	.	.	8aa-'\L	.
8B-\J	.	.	.	.	.	8ff'\J	.
=30	=30	=30	=30	=30	=30	=30	=30
8BB-\L	.	(8E-/L	.	(8G/L	.	(16aa-\LL	.
.	.	.	.	.	.	16gg\	.
8B-\	.	16G/L	.	16e-/L	.	16ff\	.
.	.	16e-/JJ)	.	16g/JJ)	.	16ee-\JJ)	.
8BB-\	.	8f'\L	.	8a-'/L	.	8dd'\L	.
8B-\J	.	8e-'\J	.	8g'/J	.	8ee-'\J	.
=31	=31	=31	=31	=31	=31	=31	=31
8BB-\L	.	8c/L	.	8e-/L 8an/	.	8ff\L	.
8B-\	.	8c/J	.	8e-/J	.	8ff\J	.
8BB-\	.	(8c/L	.	(8e-/L	.	(8ff\L	.
8B-\J	.	16F/L	.	16d/L	.	16gg\L	.
.	.	16E-/JJ)	.	16c/JJ)	.	16aan\JJ)	.
=32	=32	=32	=32	=32	=32	=32	=32
*>B1	*>B1	*>B1	*>B1	*>B1	*>B1	*>B1	*>B1
8BB-\L	.	(8E-/L	p	(8c/L	p	(8aa\L	p
8B-\	.	16D/Jk)	.	16B-/Jk)	.	16bb-\Jk)	.
.	.	16r	.	16r	.	16r	.
8BB-\J	.	8D'/L	.	8B-'/L	.	8bb-'\L	.
8r	.	8f'\J	.	8b-'/J	.	8dd'\J	.
=33	=33	=33	=33	=33	=33	=33	=33
2r	.	8F'/L	.	8a'/L	.	8cc'\L	.
.	.	8f'/	.	8b-'/	.	8dd'\	.
.	.	8F'/	.	8a'/	.	8cc'\	.
.	.	8f'/J	.	8b-'/J	.	8dd'\J	.
=34:|!	=34:|!	=34:|!	=34:|!	=34:|!	=34:|!	=34:|!	=34:|!
*>B2	*>B2	*>B2	*>B2	*>B2	*>B2	*>B2	*>B2
8BB-'\L	.	(8E-/L	.	(8c/L	.	(8aa\L	.
8B-'\J	.	16D/Jk)	.	16B-/Jk)	.	16bb-\Jk)	.
.	.	16r	.	16r	.	16r	.
8BB-'/L	.	4D/	.	4B-/	.	4bb-\	.
8FF'/J	.	.	.	.	.	.	.
=35	=35	=35	=35	=35	=35	=35	=35
*>C	*>C	*>C	*>C	*>C	*>C	*>C	*>C
8FF/L	.	2r	.	2r	.	2r	.
8FF/J	.	.	.	.	.	.	.
(8FF/L	.	.	.	.	.	.	.
16GG/L	.	.	.	.	.	.	.
16AA/JJ)	.	.	.	.	.	.	.
=36	=36	=36	=36	=36	=36	=36	=36
(8AA/L	.	2r	.	2r	.	2r	.
16BB-/Jk)	.	.	.	.	.	.	.
16r	.	.	.	.	.	.	.
4BB-/	.	.	.	.	.	.	.
=37	=37	=37	=37	=37	=37	=37	=37
8BBn/L	.	8F/L	.	2r	.	2r	.
16C/Jk	.	8F/J	.	.	.	.	.
16r	.	.	.	.	.	.	.
4C/	.	(8F/L	.	.	.	.	.
.	.	16G/L	.	.	.	.	.
.	.	16A/JJ)	.	.	.	.	.
=38	=38	=38	=38	=38	=38	=38	=38
(8C#/L	.	(8A/L	.	2r	.	8f'/L	.
16D/Jk)	.	16B-/Jk)	.	.	.	8f'/J	.
16r	.	16r	.	.	.	.	.
4D/	.	4B-/	.	.	.	(8f/L	.
.	.	.	.	.	.	16g/L	.
.	.	.	.	.	.	16a/JJ)	.
=39	=39	=39	=39	=39	=39	=39	=39
2r	.	8d\L	.	8f/L	.	(8a/L	.
.	.	8d\J	.	8f/J	.	16b-/Jk)	.
.	.	.	.	.	.	16r	.
.	.	(8d\L	.	(8f/L	.	4b-/	.
.	.	16c\L	.	16e-/L	.	.	.
.	.	16B-\JJ)	.	16d/JJ)	.	.	.
=40	=40	=40	=40	=40	=40	=40	=40
8GG/L	.	8B-/L	.	8en/L	.	(8bn\L	.
8GG/J	.	8B-/J	.	8e/J	.	&(16cc\Jk&))	.
.	.	.	.	.	.	16r	.
(8GG/L	.	(8B-/L	.	(8e/L	.	4cc\	.
16FF/L	.	16A/L	.	16f/L	.	.	.
16EEn/JJ)	.	16G/JJ)	.	16g/JJ)	.	.	.
=41	=41	=41	=41	=41	=41	=41	=41
[2FF/	.	8C/L 8A/	.	(2f/	.	[2cc\	.
.	.	(8A/	.	.	.	.	.
.	.	8B-/	.	.	.	.	.
.	.	8A/J	.	.	.	.	.
=42	=42	=42	=42	=42	=42	=42	=42
2FF/_	.	8G/L	.	16en/LL	.	4.cc\]	.
.	.	.	.	16b-/	.	.	.
.	.	8B-/	.	16a/	.	.	.
.	.	.	.	16g/JJ	.	.	.
.	.	8c/	.	16f/LL	.	.	.
.	.	.	.	16e/	.	.	.
.	.	8B-/J	.	16d/	.	[8ccc\	.
.	.	.	.	16c/JJ	.	.	.
=43	=43	=43	=43	=43	=43	=43	=43
8FF'/L]	.	8A'/L)	.	8cc'/L)	.	8ccc\L]	.
8A'\	.	8A'/	.	8a'/	.	8aa'\	.
8F'\	.	8F'/	.	8f'/	.	8ff'\	.
8G'\J	.	8G'/J	.	8g'/J	.	8gg'\J	.
=44	=44	=44	=44	=44	=44	=44	=44
8E-'/L	.	8E-'/L	.	8e-'/L	.	8ee-'\L	.
8C'/	.	8c'/	.	8c'/	.	8cc'\	.
8AA'/	.	8A'/	.	8A'/	.	8a'\	.
8F'/J	.	8F'/J	.	8f'/J	.	8ff'\J	.
=45	=45	=45	=45	=45	=45	=45	=45
8BB-\L	.	(8d\L	.	[2f/	.	(2b-\	.
(8d\	.	8f\	.	.	.	.	.
8e-\	.	8g\	.	.	.	.	.
8d\J	.	8f\J	.	.	.	.	.
=46	=46	=46	=46	=46	=46	=46	=46
8c\L	.	8e-\	.	2f/_	.	16a\LL	.
.	.	.	.	.	.	16ee-\	.
8e-\	.	4c\	.	.	.	16dd\	.
.	.	.	.	.	.	16cc\JJ	.
8f\	.	.	.	.	.	16b-/LL	.
.	.	.	.	.	.	16a/	.
8e-\J	.	8A/	.	.	.	16g/	.
.	.	.	.	.	.	16f/JJ	.
=47	=47	=47	=47	=47	=47	=47	=47
8d'\L)	.	8B-'\L	.	8f'/L]	.	8ff'\L)	.
8D'\	.	8d'\)	.	8d'/	.	8dd'\	.
8BB-'\	.	8B-'\J	.	8B-'/	.	8b-'\	.
8C'\J	.	8C/	.	8cc'/J	.	8ccc'\J	.
=48	=48	=48	=48	=48	=48	=48	=48
8AA'/L	.	8A'/L	.	8a'/L	.	8aa'\L	.
8FF'/	.	8F'/	.	8f'/	.	8ff'\	.
8GG'/	.	8G'/	.	8g'/	.	8gg'\	.
8AA'/J	.	8A'/J	.	8a'/J	.	8aa'\J	.
=49	=49	=49	=49	=49	=49	=49	=49
(8BB-\L	.	([2F/	.	(8dd\L	.	(2bb-\	.
8D\	.	.	.	8ff\	.	.	.
8E-\	.	.	.	8gg\	.	.	.
8D\J	.	.	.	8ff\J	.	.	.
=50	=50	=50	=50	=50	=50	=50	=50
8C\L	.	8F/L]	.	8ee-\L	.	16aa\LL	.
.	.	.	.	.	.	16eee-\	.
8E-\	.	[8A/J	.	[8cc\J	.	16ddd\	.
.	.	.	.	.	.	16ccc\JJ	.
8F\	.	8A/L]	.	8cc\L]	.	16bb-\LL	.
.	.	.	.	.	.	16aa\	.
8E-\J	.	8c/J	.	8a\J	.	16gg\	.
.	.	.	.	.	.	16ff\JJ	.
=51	=51	=51	=51	=51	=51	=51	=51
8D'\L)	.	8B-'/L)	.	8b-'/L)	.	8fff'\L)	.
8D'\	.	8d'/	.	8d'/	.	8ddd'\	.
8BB-'\	.	8B-'/	.	8B-'/	.	8bb-'\	.
8AA'\J	.	8F'/J	.	8c'/J	.	8ccc'\J	.
=52	=52	=52	=52	=52	=52	=52	=52
8GG'\L	.	8D'/L	.	8B-'/L	.	8ddd'\L	.
8G'\	.	8B-'/	.	8d'/	.	8bb-'\	.
8c'\	.	8B-'/	.	8en'/	.	8gg'\	.
8C'\J	.	8B-'/J	.	8g'/J	.	8een'\J	.
=53	=53	=53	=53	=53	=53	=53	=53
4F'\	f	4A'/	f	4c'/	f	16ff\LL	f
.	.	.	.	.	.	16een\	.
.	.	.	.	.	.	16ff\	.
.	.	.	.	.	.	16gg\JJ	.
4r	.	4r	.	4r	.	16aa\LL	.
.	.	.	.	.	.	16gg\	.
.	.	.	.	.	.	16aa\	.
.	.	.	.	.	.	16ff\JJ	.
=54	=54	=54	=54	=54	=54	=54	=54
4C/	.	16En/LL	.	16g/LL	.	4ccc\	.
.	.	16D/	.	16f/	.	.	.
.	.	16E/	.	16g/	.	.	.
.	.	16F/JJ	.	16a/JJ	.	.	.
4r	.	16G/LL	.	16b-/LL	.	4r	.
.	.	16F/	.	16a/	.	.	.
.	.	16G/	.	16b-/	.	.	.
.	.	16E/JJ	.	16g/JJ	.	.	.
=55	=55	=55	=55	=55	=55	=55	=55
*k[b-]	*k[b-]	*k[b-]	*k[b-]	*k[b-]	*k[b-]	*k[b-]	*k[b-]
4D'\	f	4F'/	f	4f'/	f	16dd\LL	f
.	.	.	.	.	.	16cc#\	.
.	.	.	.	.	.	16dd\	.
.	.	.	.	.	.	16ee\JJ	.
4r	.	4r	.	4r	.	16ff\LL	.
.	.	.	.	.	.	16ee\	.
.	.	.	.	.	.	16ff\	.
.	.	.	.	.	.	16dd\JJ	.
=56	=56	=56	=56	=56	=56	=56	=56
4FF'/	f	16c\LL	f	16e-/LL	f	4aa\	f
.	.	16Bn\	.	16d/	.	.	.
.	.	16c\	.	16e-/	.	.	.
.	.	16d\JJ	.	16f/JJ	.	.	.
4r	.	16e-\LL	.	16g/LL	.	4r	.
.	.	16d\	.	16f/	.	.	.
.	.	16e-\	.	16g/	.	.	.
.	.	16c\JJ	.	16e-/JJ	.	.	.
=57	=57	=57	=57	=57	=57	=57	=57
8BB-\L	.	8F/L	.	8d/L	.	16b-\LL	.
.	.	.	.	.	.	16a\	.
8GG\	.	8B-/	.	8d/	.	16b-\	.
.	.	.	.	.	.	16ccn\JJ	.
8G\	.	8B-/	.	8d/	.	16dd\LL	.
.	.	.	.	.	.	16cc\	.
8G\J	.	8B-/J	.	8c/J	.	16dd\	.
.	.	.	.	.	.	16ee\JJ	.
=58	=58	=58	=58	=58	=58	=58	=58
8F\L	.	8A\L	.	8a/L	.	16ff\LL	.
.	.	.	.	.	.	16ee\	.
8d\	.	8f\	.	8a/	.	16ff\	.
.	.	.	.	.	.	16gg\JJ	.
8c\	.	8f\	.	8a/	.	16aa\LL	.
.	.	.	.	.	.	16gg\	.
8B-\J	.	8d\J	.	8f/J	.	16aa\	.
.	.	.	.	.	.	16bb-\JJ	.
=59	=59	=59	=59	=59	=59	=59	=59
8A\L	.	8c/L	.	8f/L	.	8ccc'\L	.
8A\J	.	8c/J	.	8f/J	.	8ddd'\	.
8G\L	.	8B-'/L	.	8c/L	.	8eee'\	.
8F\J	.	8A'/J	.	8c/J	.	8fff'\J	.
=60	=60	=60	=60	=60	=60	=60	=60
(8C\L	.	(8A-/L	.	(8Bn/L	.	(8fff\L	.
8c\J)	.	8G/J)	.	8c/J)	.	8eee\J)	.
8c'\L	.	8An'/L	.	8cc'\L	.	8fff'\L	.
8c'\J	.	8B-'/J	.	8cc'\J	.	8ggg'\J	.
=61	=61	=61	=61	=61	=61	=61	=61
4F\	p	16c\LL	p	16a/LL	p	4fff\	p
.	.	16B-\	.	16g/	.	.	.
.	.	16c\	.	16a/	.	.	.
.	.	16g\JJ	.	16b-/JJ	.	.	.
4r	.	16a\LL	.	16cc\LL	.	4r	.
.	.	16g\	.	16b-\	.	.	.
.	.	16a\	.	16cc\	.	.	.
.	.	16f\JJ	.	16ff\JJ	.	.	.
=62	=62	=62	=62	=62	=62	=62	=62
4C/	.	4cc\	.	4een\	.	16gg\LL	.
.	.	.	.	.	.	16ff\	.
.	.	.	.	.	.	16gg\	.
.	.	.	.	.	.	16aa\JJ	.
4r	.	4r	.	4r	.	16bb-\LL	.
.	.	.	.	.	.	16aa\	.
.	.	.	.	.	.	16bb-\	.
.	.	.	.	.	.	16ccc\JJ	.
=63	=63	=63	=63	=63	=63	=63	=63
4D\	.	16d\LL	.	16f/LL	.	4ff\	.
.	.	16c#\	.	16e/	.	.	.
.	.	16d\	.	16f/	.	.	.
.	.	16en\JJ	.	16g/JJ	.	.	.
4r	.	16f\LL	.	16a/LL	.	4r	.
.	.	16e\	.	16g/	.	.	.
.	.	16f\	.	16a/	.	.	.
.	.	16d\JJ	.	16dd/JJ	.	.	.
=64	=64	=64	=64	=64	=64	=64	=64
4FF/	.	4e-\	.	4cc\	.	16aa\LL	.
.	.	.	.	.	.	16gg\	.
.	.	.	.	.	.	16aa\	.
.	.	.	.	.	.	16bb-\JJ	.
4r	.	4r	.	4r	.	16ccc\LL	.
.	.	.	.	.	.	16bb-\	.
.	.	.	.	.	.	16ccc\	.
.	.	.	.	.	.	16aa\JJ	.
=65	=65	=65	=65	=65	=65	=65	=65
8BB-/	.	8d\	.	8f/	.	16ddd\LL	.
.	.	.	.	.	.	16a\	.
8r	.	8r	.	8r	.	16b-\	.
.	.	.	.	.	.	16cc\JJ	.
8GG/	.	8B-/	.	8b-\	.	16dd\LL	.
.	.	.	.	.	.	16cc\	.
8r	.	8r	.	8r	.	16dd\	.
.	.	.	.	.	.	16ee\JJ	.
=66	=66	=66	=66	=66	=66	=66	=66
8AA/	.	8c\	.	8g/	.	16ff\LL	.
.	.	.	.	.	.	16ee\	.
8r	.	8r	.	8r	.	16ff\	.
.	.	.	.	.	.	16gg\JJ	.
8FF/	.	8A\L	.	8cc\L	.	16aa\LL	.
.	.	.	.	.	.	16gg\	.
8r	.	16f\L	.	16aa\L	.	16aa\	.
.	.	16en\JJ	.	16gg\JJ	.	16bb-\JJ	.
=67	=67	=67	=67	=67	=67	=67	=67
8CC/L	f	16e\LL	f	16gg\LL	f	16ccc\LL	f
.	.	16d\	.	16ff\	.	16bbn\	.
8C/	.	16c\	.	16ee\	.	16ccc\	.
.	.	16Bn\JJ	.	16dd\JJ	.	16ddd\JJ	.
8C/	.	16B-/LL	.	16cc\LL	.	16eee\LL	.
.	.	16B-/	.	16b-\	.	16ddd\	.
8C/J	.	16G/	.	16b-\	.	16eee\	.
.	.	16F/JJ	.	16a\JJ	.	16fff\JJ	.
=68	=68	=68	=68	=68	=68	=68	=68
8C/L	.	16E/LL	.	16g/LL	.	8ggg'\L	.
.	.	16D/	.	16f/	.	.	.
8C/	.	16C/	.	16e/	.	8aaa'\	.
.	.	16F/JJ	.	16d/JJ	.	.	.
8C/	.	16E/LL	.	16c/LL	.	8bbb-'\	.
.	.	16G/J	.	16B-/J	.	.	.
8C/J	.	8g'/J	.	8b-'/J	.	8ee'\J	.
=69	=69	=69	=69	=69	=69	=69	=69
*clefC4	*clefC4	*	*	*	*	*	*
8r	.	2r	.	2r	.	2r	.
8e'\L	.	.	.	.	.	.	.
8d'\	.	.	.	.	.	.	.
8c'\J	.	.	.	.	.	.	.
=70	=70	=70	=70	=70	=70	=70	=70
(8.f\L	.	2r	.	2r	.	8r	.
.	.	.	.	.	.	8a'/L	.
16g\Jk)	.	.	.	.	.	.	.
4f\	.	.	.	.	.	8g'/	.
.	.	.	.	.	.	8f'/J	.
=71	=71	=71	=71	=71	=71	=71	=71
8r	.	4r	.	8r	.	(8.bn\L	.
8d'\L	.	.	.	8f'/L	.	.	.
.	.	.	.	.	.	16cc\Jk)	.
8c'\	.	8r	.	8e'/	.	4b-\	.
8E'\J	.	8c\	.	8g'/J	.	.	.
=72	=72	=72	=72	=72	=72	=72	=72
*clefF4	*clefF4	*	*	*	*	*	*
8G\L	.	8c\L	.	8e/L	.	8r	.
8BB-\	.	8c\	.	8g/	.	8ee'\L	.
8BB-\	.	8c\	.	8g/	.	8dd'\	.
8BB-\J	.	8c\J	.	8g/J	.	8cc'\J	.
=73	=73	=73	=73	=73	=73	=73	=73
8AA\L	.	8c/L	.	8f/L	.	(8.ff\L	.
8F'\	.	8A'/	.	8f/	.	.	.
.	.	.	.	.	.	16gg\Jk)	.
8G'\	.	8B-'/	.	8f/	.	4ff\	.
8A'\J	.	8c'/J	.	8f/J	.	.	.
=74	=74	=74	=74	=74	=74	=74	=74
8B-'\L	.	8f'\L	.	8g'/L	.	8r	.
8Bn'\	.	8f'\	.	8g'/	.	8ddd'\L	.
8c'\	.	8f'\J	.	8a'/	.	8ccc'\	.
8c'\J	.	8cc'\	.	8g'/J	.	8ee'\J	.
=75	=75	=75	=75	=75	=75	=75	=75
(4.d\	.	(4.a-\	.	(4.ff\	.	(4.bbn\	.
8c\)	.	8f\)	.	8aa-\)	.	8ccc\)	.
=76	=76	=76	=76	=76	=76	=76	=76
(8d\L	.	(8a-\L	.	(8ff\L	.	(8bbn\L	.
8c\)	.	8f\)	.	8aa-\)	.	8ccc\)	.
(8d\	.	(8a-\	.	(8ff\	.	(8bb\	.
8c\J)	.	8f\J)	.	8aa-\J)	.	8ccc\J)	.
=77	=77	=77	=77	=77	=77	=77	=77
4Bn'\	pp	4a-'\	pp	4ff'\	pp	4ddd'\	pp
4B'\	.	4a-'\	.	4ff'\	.	4ddd'\	.
=78	=78	=78	=78	=78	=78	=78	=78
4Bn'\	.	4a-'\	.	4ff'\	.	4ddd'\	.
4r	.	4a-\	.	4r	.	4r	.
=79	=79	=79	=79	=79	=79	=79	=79
2r	.	4dd-'\	.	4b-'\	.	4ee'\ 4gg'\	.
.	.	4dd-'\	.	4b-'\	.	4ee'\ 4gg'\	.
=80	=80	=80	=80	=80	=80	=80	=80
*clefC4	*clefC4	*	*	*	*	*	*
4r	.	4dd-'\	.	4b-'\	.	4ee'\ 4gg'\	.
4d-\	.	4r	.	4r	.	4r	.
=81	=81	=81	=81	=81	=81	=81	=81
*clefF4	*clefF4	*	*	*	*	*	*
(16DD-/LL	.	2r	.	2r	.	(16A/LL	.
16CC/	.	.	.	.	.	16c/	.
16DD-/	.	.	.	.	.	16A/	.
16CC/JJ	.	.	.	.	.	16c/JJ	.
16DD-/LL	.	.	.	.	.	16A/LL	.
16CC/	.	.	.	.	.	16c/	.
16DD-/	.	.	.	.	.	16A/	.
16CC/JJ)	.	.	.	.	.	16c/JJ)	.
=82	=82	=82	=82	=82	=82	=82	=82
(16DD-/LL	.	(16F/LL	.	2r	.	8A'/L	.
16CC/	.	16A/	.	.	.	.	.
16DD-/	.	16F/	.	.	.	8c'/	.
16CC/JJ	.	16A/JJ	.	.	.	.	.
16DD-/LL	.	16F/LL	.	.	.	8f'/	.
16CC/	.	16A/	.	.	.	.	.
16DD-/	.	16F/	.	.	.	8a'/J	.
16CC/JJ)	.	16A/JJ)	.	.	.	.	.
=83	=83	=83	=83	=83	=83	=83	=83
(16DD-/LL	.	(16G/LL	.	(16B-/LL	.	8cc'/L	.
16CC/	.	16B-/	.	16d-/	.	.	.
16DD-/	.	16G/	.	16B-/	.	8b-'/	.
16CC/JJ	.	16B-/JJ	.	16d-/JJ	.	.	.
16DD-/LL	.	16E/LL	.	16B-/LL	.	8g'/	.
16CC/	.	16B-/	.	16d-/	.	.	.
16DD-/	.	16G/	.	16B-/	.	8e'/J	.
16CC/JJ)	.	16B-/JJ)	.	16d-/JJ)	.	.	.
=84	=84	=84	=84	=84	=84	=84	=84
(16GG/LL	.	(16G/LL	.	(16B-/LL	.	(4.dd-\	.
16CC/	.	16B-/	.	16d-/	.	.	.
16GG/	.	16G/	.	16B-/	.	.	.
16CC/JJ	.	16B-/JJ	.	16d-/JJ	.	.	.
16GG/LL	.	16G/LL	.	16B-/LL	.	.	.
16CC/	.	16B-/	.	16d-/	.	.	.
16GG/	.	16G/	.	16B-/	.	8ee\)	.
16CC/JJ)	.	16B-/JJ)	.	16d-/JJ)	.	.	.
=85	=85	=85	=85	=85	=85	=85	=85
8F'\L	f	8f'\L	f	8ff'\L	f	16ff\LL	f
.	.	.	.	.	.	16fff\	.
8E'\	.	8e'\	.	8ee'\	.	16ff\	.
.	.	.	.	.	.	16ee\JJ	.
8Dn'\	.	8dn'\	.	8ddn'\	.	16ddn\LL	.
.	.	.	.	.	.	16dddn\	.
8C'\J	.	8c'\J	.	8cc'\J	.	16dd\	.
.	.	.	.	.	.	16cc\JJ	.
=86	=86	=86	=86	=86	=86	=86	=86
8BB-'/L	.	8B-'/L	.	8b-'/L	.	16b-\LL	.
.	.	.	.	.	.	16bb-\	.
8AA'/	.	8A'/	.	8a'/	.	16b-\	.
.	.	.	.	.	.	16a\JJ	.
8GG'/	.	8G'/	.	8g'/	.	16g\LL	.
.	.	.	.	.	.	16gg\	.
8FF'/J	.	8F'/J	.	8f'/J	.	16g\	.
.	.	.	.	.	.	16f\JJ	.
=87	=87	=87	=87	=87	=87	=87	=87
8EE'/L	.	8E'/L	.	8e'/L	.	16e/LL	.
.	.	.	.	.	.	16ee/	.
8DD'/	.	8D'/	.	8d'/	.	16e/	.
.	.	.	.	.	.	16d/JJ	.
8CC'/	.	8C'/	.	8c'/	.	16c/LL	.
.	.	.	.	.	.	16cc/	.
8BBn'/J	.	8Bn'/J	.	8Bn'/J	.	16c/	.
.	.	.	.	.	.	16Bn/JJ	.
=88	=88	=88	=88	=88	=88	=88	=88
(8BB-/L	.	16E/LL	.	16G/LL	.	16c/LL	.
.	.	16F/	.	16A/	.	16d/	.
8GG/	.	16G/	.	16B-/	.	16e/	.
.	.	16A/JJ	.	16c/JJ	.	16f/JJ	.
8FF/	.	16B-/LL	.	16d-/LL	.	16g/LL	.
.	.	16B-/	.	16c/	.	16a/	.
8EE/J)	.	16B-/	.	16c/	.	16b-/	.
.	.	16B-/JJ	.	16c/JJ	.	16cc/JJ	.
=89	=89	=89	=89	=89	=89	=89	=89
(8C/L	.	16A/LL	.	16c/LL	.	16f/LL	.
.	.	16E/	.	16c/	.	16g/	.
8AA/	.	16F/	.	16c/	.	16a/	.
.	.	16G/JJ	.	16c/JJ	.	16b-/JJ	.
8GG/	.	16A/LL	.	16c/LL	.	16cc\LL	.
.	.	16B-/	.	16f/	.	16dd\	.
8FF/J)	.	16B-/	.	16g/	.	16ee\	.
.	.	16A/JJ	.	16a/JJ	.	16ff\JJ	.
=90	=90	=90	=90	=90	=90	=90	=90
(8FF/L	.	16G/LL	.	16b-/LL	.	16cc\LL	.
.	.	16C/	.	16a/	.	16dd\	.
8EE/	.	16C/	.	16g/	.	16ee\	.
.	.	16D/JJ	.	16f/JJ	.	16ff\JJ	.
8DD/	.	16E/LL	.	16f/LL	.	16gg\LL	.
.	.	16F/	.	16f/	.	16aa\	.
8CC/J)	.	16G/	.	16e/	.	16bb-\	.
.	.	16E/JJ	.	16g/JJ	.	16ccc\JJ	.
=91	=91	=91	=91	=91	=91	=91	=91
(8FF/L	ff	[2f\	ff	[2ff\	ff	(16f/LL	ff
.	.	.	.	.	.	16a/	.
8D/	.	.	.	.	.	16d/	.
.	.	.	.	.	.	16f/JJ	.
8C/	.	.	.	.	.	16c/LL	.
.	.	.	.	.	.	16f/	.
8BB-/J	.	.	.	.	.	16B-/	.
.	.	.	.	.	.	16f/JJ	.
=92	=92	=92	=92	=92	=92	=92	=92
8AA/L	.	(4.f\]	.	(4.ff\]	.	16A/LL	.
.	.	.	.	.	.	16f/	.
8BB-/	.	.	.	.	.	16B-/	.
.	.	.	.	.	.	16f/JJ	.
8C/	.	.	.	.	.	16c/LL	.
.	.	.	.	.	.	16f/	.
8E/J)	.	8e\)	.	8ee\)	.	16e/	.
.	.	.	.	.	.	16f/JJ)	.
=93	=93	=93	=93	=93	=93	=93	=93
(8F/L	ff	[2f\	ff	[2ff\	ff	(16f/LL	ff
.	.	.	.	.	.	16a/	.
8D/	.	.	.	.	.	16d/	.
.	.	.	.	.	.	16f/JJ	.
8C/	.	.	.	.	.	16c/LL	.
.	.	.	.	.	.	16f/	.
8BB-/J	.	.	.	.	.	16B-/	.
.	.	.	.	.	.	16f/JJ	.
=94	=94	=94	=94	=94	=94	=94	=94
8AA/L	.	(4.f\]	.	(4.ff\]	.	16A/LL	.
.	.	.	.	.	.	16f/	.
8BB-/	.	.	.	.	.	16B-/	.
.	.	.	.	.	.	16f/JJ	.
8C/	.	.	.	.	.	16c/LL	.
.	.	.	.	.	.	16f/	.
8E/J)	.	8e\)	.	8ee\)	.	16e/	.
.	.	.	.	.	.	16f/JJ)	.
=95	=95	=95	=95	=95	=95	=95	=95
(8F/L	.	[2F/	.	[2f/	.	(16f/LL	.
.	.	.	.	.	.	16a/	.
8D/	.	.	.	.	.	16d/	.
.	.	.	.	.	.	16f/JJ	.
8C/	.	.	.	.	.	16c/LL	.
.	.	.	.	.	.	16f/	.
8BB-/J	.	.	.	.	.	16B-/	.
.	.	.	.	.	.	16f/JJ	.
=96	=96	=96	=96	=96	=96	=96	=96
8AA/L	.	(4.F/]	.	(4.f/]	.	16A/LL	.
.	.	.	.	.	.	16f/	.
8BB-/	.	.	.	.	.	16B-/	.
.	.	.	.	.	.	16f/JJ	.
8C/	.	.	.	.	.	16c/LL	.
.	.	.	.	.	.	16f/	.
8E/J)	.	8E/)	.	8e/)	.	16e/	.
.	.	.	.	.	.	16f/JJ)	.
=97	=97	=97	=97	=97	=97	=97	=97
(8F/L	.	[2F/	.	[2f/	.	(16f/LL	.
.	.	.	.	.	.	16a/	.
8D/	.	.	.	.	.	16d/	.
.	.	.	.	.	.	16f/JJ	.
8C/	.	.	.	.	.	16c/LL	.
.	.	.	.	.	.	16f/	.
8BB-/J	.	.	.	.	.	16B-/	.
.	.	.	.	.	.	16f/JJ	.
=98	=98	=98	=98	=98	=98	=98	=98
*>C1	*>C1	*>C1	*>C1	*>C1	*>C1	*>C1	*>C1
8AA/L	p	4.F/]	p	4.f/]	p	16A/LL	p
.	.	.	.	.	.	16f/	.
8GG/	.	.	.	.	.	16a/	.
.	.	.	.	.	.	16cc/JJ	.
8FF'/)	.	.	.	.	.	8ff'\L)	.
8FF#'/J	.	8F#'/	.	8f#'/	.	8ff#'\J	.
=99	=99	=99	=99	=99	=99	=99	=99
4GG'/	pp	8G'\L	pp	4g'/	pp	4gg'\	pp
.	.	8g'\	.	.	.	.	.
4r	.	8G'\	.	4r	.	4r	.
.	.	8g'\J	.	.	.	.	.
=100	=100	=100	=100	=100	=100	=100	=100
2r	.	8G'\L	.	2r	.	2r	.
.	.	8g'\	.	.	.	.	.
.	.	8G'\	.	.	.	.	.
.	.	8g'\J	.	.	.	.	.
=101:|!	=101:|!	=101:|!	=101:|!	=101:|!	=101:|!	=101:|!	=101:|!
*>C2	*>C2	*>C2	*>C2	*>C2	*>C2	*>C2	*>C2
(8AA/L	p	&(4.F/&)	p	4.f/	p	(16A/LL	p
.	.	.	.	.	.	16f/	.
8GG/	.	.	.	.	.	16a/	.
.	.	.	.	.	.	16cc/JJ	.
8FF/J)	.	.	.	.	.	8ff'\L)	.
8r	.	8r	.	8r	.	8aa'\J	.
=102	=102	=102	=102	=102	=102	=102	=102
*>D	*>D	*>D	*>D	*>D	*>D	*>D	*>D
2r	.	2a\	.	2cc\	.	(16f\LL	.
.	.	.	.	.	.	16cc\	.
.	.	.	.	.	.	16ff\	.
.	.	.	.	.	.	16aa\JJ	.
.	.	.	.	.	.	8ccc'\L)	.
.	.	.	.	.	.	8aa'\J	.
=103	=103	=103	=103	=103	=103	=103	=103
2r	.	[2g\	.	[2ee\	.	8bb-'\L	.
.	.	.	.	.	.	8gg'\	.
.	.	.	.	.	.	8ff'\	.
.	.	.	.	.	.	8gg'\J	.
=104	=104	=104	=104	=104	=104	=104	=104
2r	.	2g\_	.	2ee\_	.	8bb-\L	.
.	.	.	.	.	.	8gg\	.
.	.	.	.	.	.	8ff\	.
.	.	.	.	.	.	8gg\J	.
=105	=105	=105	=105	=105	=105	=105	=105
2r	.	4g\]	.	4ee\]	.	4bb-\	.
.	.	4r	.	4r	.	4r	.
=106	=106	=106	=106	=106	=106	=106	=106
2r	.	2f\	.	2a/	.	(16d/LL	.
.	.	.	.	.	.	16a/	.
.	.	.	.	.	.	16dd/	.
.	.	.	.	.	.	16ff/JJ	.
.	.	.	.	.	.	8aa'\L)	.
.	.	.	.	.	.	8ff'\J	.
=107	=107	=107	=107	=107	=107	=107	=107
2r	.	[2e\	.	2cc#\	.	8gg'\L	.
.	.	.	.	.	.	8ee'\	.
.	.	.	.	.	.	8gg'\	.
.	.	.	.	.	.	8dd'\J	.
=108	=108	=108	=108	=108	=108	=108	=108
2r	.	2e\]	.	2g/	.	8cc#\L	.
.	.	.	.	.	.	8gg\	.
.	.	.	.	.	.	8b-\	.
.	.	.	.	.	.	8a\J	.
=109	=109	=109	=109	=109	=109	=109	=109
2r	.	[2d\	.	[2f/	.	4ff\	.
.	.	.	.	.	.	4r	.
=110	=110	=110	=110	=110	=110	=110	=110
(8GG/L	.	(4d\]	.	2f/]	.	8r	.
16BBn/L	.	.	.	.	.	8ff\L	.
16D/JJ)	.	.	.	.	.	.	.
8F'\L	.	4Bn/	.	.	.	8a-\	.
8D'\J	.	.	.	.	.	8g\J	.
=111	=111	=111	=111	=111	=111	=111	=111
8E-'/L	.	4c\	.	(2e-/	.	8r	.
8C'/	.	.	.	.	.	8ee-\L	.
8BBn'/	.	4E-/)	.	.	.	8a-\	.
8C'/J	.	.	.	.	.	8g\J	.
=112	=112	=112	=112	=112	=112	=112	=112
8D-/L	.	8E-/L	.	4G/	.	8r	.
8BB-/	.	8E-/	.	.	.	8ee-\L	.
8AAn/	.	8E-/	.	[4d-/)	.	8g\	.
8BB-/J	.	8E-/J	.	.	.	8g\J	.
=113	=113	=113	=113	=113	=113	=113	=113
8D-/L	.	8E-/L	.	2d-/]	.	8r	.
8BB-/	.	8E-/	.	.	.	8ee-\L	.
8AA/	.	8E-/	.	.	.	8g\	.
8BB-/J	.	8E-/J	.	.	.	8g\J	.
=114	=114	=114	=114	=114	=114	=114	=114
*k[b-e-a-d-]	*k[b-e-a-d-]	*k[b-e-a-d-]	*k[b-e-a-d-]	*k[b-e-a-d-]	*k[b-e-a-d-]	*k[b-e-a-d-]	*k[b-e-a-d-]
([2AA-/	.	4E-/	.	(4c/	.	(2ccn\	.
.	.	(8e-\L	.	[4a-/)	.	.	.
.	.	8c\J	.	.	.	.	.
=115	=115	=115	=115	=115	=115	=115	=115
4AA-/]	.	8B-\L	.	2a-/_	.	2ee-\	.
.	.	8A-\	.	.	.	.	.
4GG-/	.	8B-\	.	.	.	.	.
.	.	8c\J	.	.	.	.	.
=116	=116	=116	=116	=116	=116	=116	=116
4FF/	.	8d-\L	.	(4a-/]	.	8dd-\L	.
.	.	8e-\	.	.	.	8ee-\	.
4GGn/	.	8d-\	.	4B-/	.	8dd-\	.
.	.	8f\J	.	.	.	8ff\J	.
=117	=117	=117	=117	=117	=117	=117	=117
4AA-/	.	8dn\L	.	4c/	.	8ddn\L	.
.	.	8e-\	.	.	.	8ee-\	.
4BBn/)	.	8f\	.	[4A-/)	.	8ff\	.
.	.	[8e-\J	.	.	.	8ee-\J)	.
=118	=118	=118	=118	=118	=118	=118	=118
(4C/	.	8e-/L])	.	4A-/]	.	(4.ee-\	.
.	.	(8E-/	.	.	.	.	.
4CC/	.	8e-/	.	[4a-/	.	.	.
.	.	8c/J	.	.	.	8cc\	.
=119	=119	=119	=119	=119	=119	=119	=119
4DD-/	.	8B-/L	.	(4a-/]	.	8b-\L	.
.	.	8A-/	.	.	.	8a-\	.
4CC/	.	8B-/	.	4e-/)	.	8b-\	.
.	.	8c/J)	.	.	.	8cc\J)	.
=120	=120	=120	=120	=120	=120	=120	=120
4DD-/	p	(8F/L	p	4r	p	(8f/L	p
.	.	8A-/	.	.	.	8a-/	.
4EE-/	.	8G/	.	4e-/	.	8g/	.
.	.	8B-/J	.	.	.	8b-/J	.
=121	=121	=121	=121	=121	=121	=121	=121
4DD-/	.	8G/L	.	4r	.	8g/L	.
.	.	8A-/	.	.	.	8a-/	.
4CC/)	.	8B-/	.	[4e-/	.	8b-/	.
.	.	8A-/J)	.	.	.	8a-/J)	.
=122	=122	=122	=122	=122	=122	=122	=122
([2AA-/	.	4c/	.	8e-/L]	.	8r	.
.	.	.	.	8e-/	.	(8ee-\L	.
.	.	([4C/	.	(8ee-\	.	8eee-\	.
.	.	.	.	8cc\J	.	8ccc\J	.
=123	=123	=123	=123	=123	=123	=123	=123
4AA-/]	.	4C/]	.	8b-\L	.	8bb-\L	.
.	.	.	.	8a-\	.	8aa-\	.
4GG-/	.	4E-/	.	8b-\	.	8bb-\	.
.	.	.	.	8cc\J	.	8ccc\J	.
=124	=124	=124	=124	=124	=124	=124	=124
4FF/	.	4A-/	.	8dd-\L	.	8ddd-\L	.
.	.	.	.	8ee-\	.	8eee-\	.
4GGn/	.	4B-/	.	8dd-\	.	8ddd-\	.
.	.	.	.	8ff\J	.	8fff\J	.
=125	=125	=125	=125	=125	=125	=125	=125
4AA-/	.	4c/	.	8ddn\L	.	8dddn\L	.
.	.	.	.	8ee-\	.	8eee-\	.
4BBn/)	.	[4A-/)	.	8ff\	.	8fff\	.
.	.	.	.	[8ee-\J	.	[8eee-\J	.
=126	=126	=126	=126	=126	=126	=126	=126
(4C/	.	4A-/]	.	8ee-\L])	.	8eee-\L])	.
.	.	.	.	(8e-/	.	(8ee-\	.
4CC/	.	(4A-/	.	8ee-\	.	8eee-\	.
.	.	.	.	8cc\J	.	8ccc\J	.
=127	=127	=127	=127	=127	=127	=127	=127
4DD-/	.	4F/	.	8b-\L	.	8bb-\L	.
.	.	.	.	8a-\	.	8aa-\	.
4CC/	.	4E-/	.	8b-\	.	8bb-\	.
.	.	.	.	8cc\J)	.	8ccc\J)	.
=128	=128	=128	=128	=128	=128	=128	=128
4DD-/	p	4D-/	p	(8f/L	p	(8ff\L	p
.	.	.	.	8a-/	.	8aa-\	.
4EE-/	.	4B-/)	.	8g/	.	8gg\	.
.	.	.	.	8b-/J	.	8bb-\J	.
=129	=129	=129	=129	=129	=129	=129	=129
4DD-/	.	(4E-/	.	8g/L	.	8gg\L	.
.	.	.	.	8a-/	.	8aa-\	.
4CC/)	.	4e-\	.	8b-/	.	8bb-\	.
.	.	.	.	8a-/J)	.	8aa-\J)	.
=130	=130	=130	=130	=130	=130	=130	=130
(4FF/	.	4A-/) 4dn/	.	(8a-/L	.	(8aa-\L	.
.	.	.	.	8f/	.	8ff\	.
4F\	.	(4A-/	.	8e-/	.	8ee-\	.
.	.	.	.	8dn/J	.	8ddn\J	.
=131	=131	=131	=131	=131	=131	=131	=131
4E-\	.	4G/	.	8f/L	.	8ff\L	.
.	.	.	.	8e-/	.	8ee-\	.
4e-\	.	8g\L	.	8dn/	.	8ddn\	.
.	.	8g-\J	.	8e-/J	.	8ee-\J	.
=132	=132	=132	=132	=132	=132	=132	=132
4d-\	.	(4f\)	.	8f/L	.	8ff\L	.
.	.	.	.	8d-/	.	8dd-\	.
4D-\	.	4F/	.	8c/	.	8cc\	.
.	.	.	.	8Bn/J	.	8bn\J	.
=133	=133	=133	=133	=133	=133	=133	=133
4C/	.	4E-/	.	8d-/L	.	8dd-\L	.
.	.	.	.	8c/	.	8cc\	.
(4F\)	.	(4An/)	.	8Bn/	.	8bn\	.
.	.	.	.	8c/J)	.	8cc\J)	.
=134	=134	=134	=134	=134	=134	=134	=134
4BB-/	.	4F/	.	(8d-/L	.	(8dd-\L	.
.	.	.	.	8B-/	.	8b-\	.
4E-\	.	4d-\	.	8A-/	.	8a-\	.
.	.	.	.	8G/J	.	8g\J	.
=135	=135	=135	=135	=135	=135	=135	=135
4AA-/	.	4c\)	.	8B-/L	.	8b-/L	.
.	.	.	.	8A-/J	.	8a-/	.
4DD-/	.	(4F/ [4A-/	.	4Bn/	.	8g/	.
.	.	.	.	.	.	8f/J	.
=136	=136	=136	=136	=136	=136	=136	=136
4CC/	p	[4E-/) 4A-/]	p	4c/	p	8e-/L	p
.	.	.	.	.	.	8a-/	.
4EE-/)	.	4E-/]	.	4d-/)	.	8g/	.
.	.	.	.	.	.	8b-/J)	.
=137	=137	=137	=137	=137	=137	=137	=137
8AA-/	.	8E-/	.	4c/	.	4a-/	.
(8E-\L	.	(8e-\L	.	.	.	.	.
8G\	.	8g\	.	(4dd-\	.	4r	.
8A-\J)	.	8a-\J)	.	.	.	.	.
=138	=138	=138	=138	=138	=138	=138	=138
(8A-\L	.	(8a-\L	.	4cc\	.	2r	.
8F\	.	8f\	.	.	.	.	.
8E-\	.	8e-\	.	4aa-\	.	.	.
8Dn\J	.	8dn\J	.	.	.	.	.
=139	=139	=139	=139	=139	=139	=139	=139
8F\L	.	8f\L	.	4gg\)	.	4r	.
8E-\	.	8e-\	.	.	.	.	.
8Dn\	.	8dn\	.	4r	.	(4bb-\	.
8E-\J	.	8e-\J	.	.	.	.	.
=140	=140	=140	=140	=140	=140	=140	=140
8F\L	.	8f\L	.	2r	.	4aa-\	.
8D-\	.	8d-\	.	.	.	.	.
8C\	.	8c\	.	.	.	4fff\	.
8BBn\J	.	8Bn\J	.	.	.	.	.
=141	=141	=141	=141	=141	=141	=141	=141
8D-\L	.	8d-\L	.	4r	.	4eee-\)	.
8C\	.	8c\	.	.	.	.	.
8BBn\	.	8Bn\	.	(4f/	.	4r	.
8C\J)	.	8c\J)	.	.	.	.	.
=142	=142	=142	=142	=142	=142	=142	=142
(8D-/L	.	(8d-/L	.	4d-/	.	2r	.
8BB-/	.	8B-/	.	.	.	.	.
8AA-/	.	8A-/	.	4dd-\	.	.	.
8GG/J	.	8G/J	.	.	.	.	.
=143	=143	=143	=143	=143	=143	=143	=143
8BB-/L	.	8B-/L	.	4cc\)	.	4r	.
8AA-/	.	8A-/	.	.	.	.	.
8GG/	.	8G/	.	[4aa-\	.	(4dd-\	.
8FF/J	.	8F/J	.	.	.	.	.
=144	=144	=144	=144	=144	=144	=144	=144
8EE-/L	p	8E-/L	p	(4aa-\]	p	4cc\	p
8AA-/	.	8A-/	.	.	.	.	.
8GG/	.	8G/	.	4ee-\)	.	4ddd-\)	.
8BB-/J)	.	8B-/J)	.	.	.	.	.
=145	=145	=145	=145	=145	=145	=145	=145
2AA-/	p	2A-/	p	4ee-\	p	(2ccc\	p
.	.	.	.	4r	.	.	.
=146	=146	=146	=146	=146	=146	=146	=146
(2GG-/	.	(8A-\L	.	2r	.	2eee-\	.
.	.	8d-\	.	.	.	.	.
.	.	8c\	.	.	.	.	.
.	.	8e-\J)	.	.	.	.	.
=147	=147	=147	=147	=147	=147	=147	=147
2FF/	.	(2d-\	.	2r	.	2aa-\	.
=148	=148	=148	=148	=148	=148	=148	=148
2DD-/)	.	2F/)	.	(8d-/L	.	2fff\)	.
.	.	.	.	8f/	.	.	.
.	.	.	.	8e-/	.	.	.
.	.	.	.	8d-/J	.	.	.
=149	=149	=149	=149	=149	=149	=149	=149
[2EE-/	.	4G/	.	8c/L	.	(8B-/L	.
.	.	.	.	8B-/	.	8d-/	.
.	.	[4D-/	.	8A-/	.	8c/	.
.	.	.	.	8G/J)	.	8B-/J	.
=150	=150	=150	=150	=150	=150	=150	=150
2EE-/_	.	2D-/_	.	[2G/	.	8e-/L	.
.	.	.	.	.	.	8d-/J	.
.	.	.	.	.	.	8B-/L	.
.	.	.	.	.	.	8G/J)	.
=151	=151	=151	=151	=151	=151	=151	=151
(4EE-/]	p	(4D-/]	p	(4G/]	p	(8B-/L	p
.	.	.	.	.	.	8c/J	.
4AA-/)	.	4C/)	.	4A-/)	.	8A-/)	.
.	.	.	.	.	.	8r	.
=152	=152	=152	=152	=152	=152	=152	=152
2r	.	(8b-\L	.	(8d-/L	.	(4gg\	.
.	.	8cc\J)	.	8e-/J)	.	.	.
.	.	8a-\	.	8c/	.	8aa-\)	.
.	.	8r	.	8r	.	8r	.
=153	=153	=153	=153	=153	=153	=153	=153
(8EE-/L	.	2r	.	2r	.	(2ccc\	.
8AA-/	.	.	.	.	.	.	.
8GG/	.	.	.	.	.	.	.
8BB-/J	.	.	.	.	.	.	.
=154	=154	=154	=154	=154	=154	=154	=154
8AA-/L	.	2r	.	2r	.	2eee-\	.
8GG-/	.	.	.	.	.	.	.
8FF/	.	.	.	.	.	.	.
8EE-/J)	.	.	.	.	.	.	.
=155	=155	=155	=155	=155	=155	=155	=155
(4DD-/	.	(8A-/L	.	4r	.	2fff\	.
.	.	8d-/	.	.	.	.	.
[4FF/	.	8c/	.	[4a-/	.	.	.
.	.	8e-/J	.	.	.	.	.
=156	=156	=156	=156	=156	=156	=156	=156
4FF/]	.	8d-/L	.	(4a-/]	.	2aaa-\	.
.	.	8c/	.	.	.	.	.
4DDn/)	.	8B-/	.	4f/)	.	.	.
.	.	8A-/J)	.	.	.	.	.
=157	=157	=157	=157	=157	=157	=157	=157
[2EE-/	.	[2G/	.	(8d-/L	.	2bb-\)	.
.	.	.	.	8f/	.	.	.
.	.	.	.	8e-/	.	.	.
.	.	.	.	8d-/J	.	.	.
=158	=158	=158	=158	=158	=158	=158	=158
2EE-/_	.	4G/]	.	8c/L	.	(8b-\L	.
.	.	.	.	8B-/	.	8dd-\	.
.	.	4E-/	.	8A-/	.	8cc\	.
.	.	.	.	8G/J)	.	8b-\J	.
=159	=159	=159	=159	=159	=159	=159	=159
2EE-/_	.	[2D-/	.	(4G/	.	8ee-\L	.
.	.	.	.	.	.	8dd-\	.
.	.	.	.	4B-/	.	8b-\	.
.	.	.	.	.	.	8g\J)	.
=160	=160	=160	=160	=160	=160	=160	=160
(4EE-/]	p	(4D-/]	p	4G/	p	(8b-\L	p
.	.	.	.	.	.	8cc\J	.
4AA-/)	.	4C/)	.	4A-/)	.	8a-/)	.
.	.	.	.	.	.	8r	.
=161	=161	=161	=161	=161	=161	=161	=161
2r	.	2r	.	4r	.	(8ee-\L	.
.	.	.	.	.	.	8dd-\	.
.	.	.	.	(8e-/L	.	8b-\	.
.	.	.	.	8d-/J	.	8g\J)	.
=162	=162	=162	=162	=162	=162	=162	=162
4r	p	(8e-\L	p	8B-/L	p	4r	p
.	.	8d-\	.	8G/J)	.	.	.
8EE-/L	.	8B-\	.	(8G/L	.	(8ee-\L	.
8E-\J	.	8G\J)	.	8B-/J	.	8dd-\J)	.
=163	=163	=163	=163	=163	=163	=163	=163
8AA-'/	.	8A-'\L	.	8c'/)	.	8cc\	.
8r	.	8a-'\J	.	8r	.	8r	.
8F'\L	.	4r	.	8c'/	.	8a-/	.
8f'\J	.	.	.	8r	.	8r	.
=164	=164	=164	=164	=164	=164	=164	=164
4r	.	8D-'/L	.	8f/	.	8ff\	.
.	.	8d-'/J	.	8r	.	8r	.
8BB-'\L	.	4r	.	8f/	.	8dd-\	.
8B-'\J	.	.	.	8r	.	8r	.
=165	=165	=165	=165	=165	=165	=165	=165
4r	pp	8C'/L	pp	4en/	pp	4cc\	pp
.	.	8c'/J	.	.	.	.	.
8C'\L	.	4r	.	4r	.	4r	.
8c'\J	.	.	.	.	.	.	.
=166	=166	=166	=166	=166	=166	=166	=166
2r	.	8C'/L	.	2r	.	2r	.
.	.	8c'/	.	.	.	.	.
.	.	8C'/	.	.	.	.	.
.	.	8c'/J	.	.	.	.	.
=167	=167	=167	=167	=167	=167	=167	=167
8En'\L	.	8C/L	.	(8c/L	.	2r	.
8E'\J	.	8c/	.	16en/L	.	.	.
.	.	.	.	16g/JJ)	.	.	.
(8E\L	.	8C/	.	8b-'/L	.	.	.
16F\L	.	8c/J	.	8g'/J	.	.	.
16G\JJ)	.	.	.	.	.	.	.
=168	=168	=168	=168	=168	=168	=168	=168
(8G\L	.	8C/L	.	(16b-/LL	.	2r	.
.	.	.	.	16a-/	.	.	.
8A-\J)	.	8c/	.	16g/	.	.	.
.	.	.	.	16f/JJ)	.	.	.
8r	.	8C/	.	8en'/L	.	.	.
8A-\	.	8c/J	.	8f'/J	.	.	.
=169	=169	=169	=169	=169	=169	=169	=169
2r	.	8C/L	.	8en'/L	.	(8cc\L	.
.	.	8c/	.	8e'/J	.	16een\L	.
.	.	.	.	.	.	16gg\JJ)	.
.	.	8C/	.	(8e/L	.	8bb-'\L	.
.	.	8c/J	.	16f/L	.	8gg'\J	.
.	.	.	.	16g/JJ)	.	.	.
=170	=170	=170	=170	=170	=170	=170	=170
2r	.	8C/L	.	(8g/L	.	(16bb-\LL	.
.	.	.	.	.	.	16aa-\	.
.	.	8c/	.	16a-/Jk)	.	16gg\	.
.	.	.	.	16r	.	16ff\JJ)	.
.	.	8C/	.	4a-/	.	8een'\L	.
.	.	8c/J	.	.	.	8ff'\J	.
=171	=171	=171	=171	=171	=171	=171	=171
(8CC/L	.	8C/L	.	8en'/L	.	2r	.
16EEn/L	.	8c/	.	8e'/J	.	.	.
16GG/JJ)	.	.	.	.	.	.	.
8BB-'/L	.	8C/	.	(8e/L	.	.	.
8GG'/J	.	8c/J	.	16f/L	.	.	.
.	.	.	.	16g/JJ)	.	.	.
=172	=172	=172	=172	=172	=172	=172	=172
(16BB-/LL	.	8C/L	.	(8g/L	.	2r	.
16AAn/	.	.	.	.	.	.	.
16GG/	.	8c/	.	16an/Jk)	.	.	.
16FF/JJ)	.	.	.	16r	.	.	.
8EEn'/L	.	8C/	.	4a/	.	.	.
8FF'/J	.	8c/J	.	.	.	.	.
=173	=173	=173	=173	=173	=173	=173	=173
*k[b-]	*k[b-]	*k[b-]	*k[b-]	*k[b-]	*k[b-]	*k[b-]	*k[b-]
(16BB-/LL	f	(16B-/LL	f	(16b-/LL	f	(16bb-\LL	f
16AAn/	.	16An/	.	16an/	.	16aan\	.
16GG/	.	16G/	.	16g/	.	16gg\	.
16FF/JJ)	.	16F/JJ)	.	16f/JJ)	.	16ff\JJ)	.
8EE'/L	.	8E'/L	.	8e'/L	.	8ee'\L	.
8FF'/J	.	8F'/J	.	8f'/J	.	8ff'\J	.
=174	=174	=174	=174	=174	=174	=174	=174
(16E\LL	p	(16G/LL	p	(16bb-\LL	p	(16ddd\LL	p
16F\	.	16A/	.	16aa\	.	16ccc\	.
16G\	.	16B-/	.	16gg\	.	16bb-\	.
16A\JJ)	.	16c/JJ)	.	16ff\JJ)	.	16aa\JJ)	.
8B-'\L	.	8d'\L	.	8ee'\L	.	8gg'\L	.
8A'\J	.	8c'\J	.	8ff'\J	.	8aa'\J	.
=175	=175	=175	=175	=175	=175	=175	=175
2r	.	2r	.	8e/L	p	16ccc'\LL	p
.	.	.	.	.	.	16bb-'\	.
.	.	.	.	8e/J	.	16aa'\	.
.	.	.	.	.	.	16gg'\JJ	.
.	.	.	.	(8e/L	.	16gg'\LL	.
.	.	.	.	.	.	16gg'\	.
.	.	.	.	16f/L	.	16aa'\	.
.	.	.	.	16g/JJ)	.	16bb-'\JJ	.
=176	=176	=176	=176	=176	=176	=176	=176
2r	.	2r	.	8f/L	.	16bb-\LL	.
.	.	.	.	.	.	16aa\	.
.	.	.	.	8f/J	.	16gg\	.
.	.	.	.	.	.	16ff\JJ	.
.	.	.	.	(8f/L	.	16ff\LL	.
.	.	.	.	.	.	16ff\	.
.	.	.	.	16g/L	.	16ee\	.
.	.	.	.	16a/JJ)	.	16ff\JJ	.
=177	=177	=177	=177	=177	=177	=177	=177
2r	.	4r	p	8g/L	.	16ff\LL	.
.	.	.	.	.	.	16ee\	.
.	.	.	.	8g/J	.	16dd\	.
.	.	.	.	.	.	16cc\JJ	.
.	.	16a'\LL	.	(8g/L	.	16ccc\LL	.
.	.	16g'\	.	.	.	16bb-\	.
.	.	16f'\	.	16a/L	.	16aa\	.
.	.	16e'\JJ	.	16b-/JJ)	.	16gg\JJ	.
=178	=178	=178	=178	=178	=178	=178	=178
2r	.	16f\LL	.	4a/	.	16ff\LL	.
.	.	16e\	.	.	.	16ccc\	.
.	.	16d\	.	.	.	16bb-\	.
.	.	16c\JJ	.	.	.	16aa\JJ	.
.	.	16B-/LL	.	4r	.	16gg\LL	.
.	.	16A/	.	.	.	16ff\	.
.	.	16G/	.	.	.	16ee\	.
.	.	16F/JJ	.	.	.	16ff\JJ	.
=179	=179	=179	=179	=179	=179	=179	=179
2r	.	8E/L	.	16cc'/LL	.	8gg\L	.
.	.	.	.	16b-'/	.	.	.
.	.	8E/J	.	16a'/	.	8gg\J	.
.	.	.	.	16g'/JJ	.	.	.
.	.	(8E/L	.	16g'/LL	.	(8gg\L	.
.	.	.	.	16b-'/	.	.	.
.	.	16F/L	.	16b-'/	.	16aa\L	.
.	.	16G/JJ)	.	16b-'/JJ	.	16bb-\JJ)	.
=180	=180	=180	=180	=180	=180	=180	=180
2r	.	8F/L	.	16b-/LL	.	8aa\L	.
.	.	.	.	16a/	.	.	.
.	.	8F/J	.	16g/	.	8aa\J	.
.	.	.	.	16f/JJ	.	.	.
.	.	(8F/L	.	16f/LL	.	(8aa\L	.
.	.	.	.	16f/	.	.	.
.	.	16G/L	.	16f/	.	16bb-\L	.
.	.	16A/JJ)	.	16f/JJ	.	16ccc\JJ)	.
=181	=181	=181	=181	=181	=181	=181	=181
2r	.	8G/L	.	16f/LL	.	8bb-\L	.
.	.	.	.	16e/	.	.	.
.	.	8G/J	.	16d/	.	8bb-\J	.
.	.	.	.	16c/JJ	.	.	.
.	.	(8G/L	.	16a/LL	.	(8bb-\L	.
.	.	.	.	16g/	.	.	.
.	.	16A/L	.	16f/	.	16ccc\L	.
.	.	16B-/JJ)	.	16e/JJ	.	16ddd\JJ)	.
=182	=182	=182	=182	=182	=182	=182	=182
2r	.	4A/	.	16f/LL	.	4ccc\	.
.	.	.	.	16cc/	.	.	.
.	.	.	.	16b-/	.	.	.
.	.	.	.	16a/JJ	.	.	.
.	.	4r	.	16g/LL	.	4r	.
.	.	.	.	16f/	.	.	.
.	.	.	.	16e/	.	.	.
.	.	.	.	16f/JJ	.	.	.
=183	=183	=183	=183	=183	=183	=183	=183
8AA/L	p	16f'\LL	.	4e-/	.	2r	.
.	.	16e-'\	.	.	.	.	.
8AA/J	.	16d'\	.	.	.	.	.
.	.	16c'\JJ	.	.	.	.	.
(8AA/L	.	16c'\LL	.	4r	.	.	.
.	.	16c'\	.	.	.	.	.
16BB-/L	.	16d'\	.	.	.	.	.
16C/JJ)	.	16e-'\JJ	.	.	.	.	.
=184	=184	=184	=184	=184	=184	=184	=184
8BB-/L	.	16e-\LL	.	2r	.	2r	.
.	.	16d\	.	.	.	.	.
8BB-/J	.	16c\	.	.	.	.	.
.	.	16B-\JJ	.	.	.	.	.
(8BB-/L	.	16B-/LL	.	.	.	.	.
.	.	16B-/	.	.	.	.	.
16C/L	.	16A/	.	.	.	.	.
16D/JJ)	.	16B-/JJ	.	.	.	.	.
=185	=185	=185	=185	=185	=185	=185	=185
8C/L	.	16B-/LL	.	2r	.	2r	.
.	.	16A/	.	.	.	.	.
8C/J	.	16G/	.	.	.	.	.
.	.	16F/JJ	.	.	.	.	.
(8C/L	.	16f\LL	.	.	.	.	.
.	.	16e-\	.	.	.	.	.
16D/L	.	16d\	.	.	.	.	.
16E-/JJ)	.	16c\JJ	.	.	.	.	.
=186	=186	=186	=186	=186	=186	=186	=186
16D\LL	.	16c/LL	.	4r	.	2r	.
16A-\	.	16B-/	.	.	.	.	.
16G\	.	16B-/	.	.	.	.	.
16F\JJ	.	16B-/JJ	.	.	.	.	.
16E-\LL	.	16B-/LL	.	8f/L	.	.	.
16D\	.	16B-/	.	.	.	.	.
16D\	.	16Bn/	.	8f/J	.	.	.
16D\JJ	.	16B/JJ	.	.	.	.	.
=187	=187	=187	=187	=187	=187	=187	=187
(8D/L	.	(8Bn\L	.	(8f/L	.	8ff\L	.
16C/L	.	16c\L	.	16e-/L	.	8ff\J	.
16BBn/JJ)	.	16d\JJ)	.	16d/JJ)	.	.	.
8GG/L	.	(8f\L	.	(8d/L	.	(8ff\L	.
8GG/J	.	16e-\L	.	16c/L	.	16gg\L	.
.	.	16d\JJ)	.	16Bn/JJ)	.	16aa-\JJ)	.
=188	=188	=188	=188	=188	=188	=188	=188
*k[b-e-a-]	*k[b-e-a-]	*k[b-e-a-]	*k[b-e-a-]	*k[b-e-a-]	*k[b-e-a-]	*k[b-e-a-]	*k[b-e-a-]
4r	.	(8c/L	.	(8g/L	.	8ee-\L	.
.	.	16A-/L	.	16f/L	.	8ee-\J	.
.	.	16G/JJ)	.	16e-/JJ)	.	.	.
8g\L	.	(8G/L	.	(8e-/L	.	(8ee-\L	.
8g\J	.	16F/L	.	16d/L	.	16ff\L	.
.	.	16E-/JJ)	.	16c/JJ)	.	16gg\JJ)	.
=189	=189	=189	=189	=189	=189	=189	=189
4r	.	(8A-/L	.	8Bn/L	.	8dd\L	.
.	.	16G/L	.	8B/J	.	8dd\J	.
.	.	16F/JJ)	.	.	.	.	.
8GG/L	.	(8F/L	.	(8B/L	.	(8dd\L	.
8GG/J	.	16E-/L	.	16c/L	.	16ee-\L	.
.	.	16D/JJ)	.	16d/JJ)	.	16ff\JJ)	.
=190	=190	=190	=190	=190	=190	=190	=190
8C/L	.	16E-'/LL	.	8e-'/L	.	8ee-\L	.
.	.	16G'/	.	.	.	.	.
8C/J	.	16F'/	.	8g'/	.	8ee-\J	.
.	.	16E-'/JJ	.	.	.	.	.
(8C/L	.	16D'/LL	.	8g'/	.	(8ee-\L	.
.	.	16C'/	.	.	.	.	.
16D/L	.	16c'/	.	8cc'/J	.	16ff\L	.
16E-/JJ)	.	16c'/JJ	.	.	.	16gg\JJ)	.
=191	=191	=191	=191	=191	=191	=191	=191
8FF#/L	.	16An\LL	.	8cc/L	.	8eee-\L	.
.	.	16cc\	.	.	.	.	.
8FF#/J	.	16b-\	.	8c/J	.	8eee-\J	.
.	.	16an\JJ	.	.	.	.	.
(8FF#/L	.	16a\LL	.	(8c/L	.	(8eee-\L	.
.	.	16a\	.	.	.	.	.
16GG/L	.	16b-\	.	16B-/L	.	16ddd\L	.
16AAn/JJ)	.	16cc\JJ	.	16An/JJ)	.	16ccc\JJ)	.
=192	=192	=192	=192	=192	=192	=192	=192
8GG/L	.	16cc\LL	.	8B-/L	.	8bb-\L	.
.	.	16b-\	.	.	.	.	.
8GG/J	.	16an\	.	8B-/J	.	8bb-\J	.
.	.	16g\JJ	.	.	.	.	.
(8GG/L	.	16g\LL	.	(8B-/L	.	(8bb-\L	.
.	.	16g\	.	.	.	.	.
16AAn/L	.	16f#\	.	16c/L	.	16aan\L	.
16BB-/JJ)	.	16g\JJ	.	16d/JJ)	.	16gg\JJ)	.
=193	=193	=193	=193	=193	=193	=193	=193
8AAn/L	.	16g\LL	.	8c'/L	.	8ff#\L	.
.	.	16f#\	.	.	.	.	.
8AA/J	.	16e-\	.	8cc'/J	.	8ff#\J	.
.	.	16d\JJ	.	.	.	.	.
(8AA/L	.	16c/LL	.	(16cc/LL	.	(8ff#\L	.
.	.	16F#/	.	16c/	.	.	.
16BB-/L	.	16F#/	.	16d/	.	16ee-\L	.
16C/JJ)	.	16F#/JJ	.	16e-/JJ)	.	16dd\JJ)	.
=194	=194	=194	=194	=194	=194	=194	=194
*k[b-e-]	*k[b-e-]	*k[b-e-]	*k[b-e-]	*k[b-e-]	*k[b-e-]	*k[b-e-]	*k[b-e-]
8BB-/L	.	8G/L	.	4d/	.	16gg'\LL	.
.	.	.	.	.	.	16ddd'\	.
8GG/J	.	8g\J	.	.	.	16ccc'\	.
.	.	.	.	.	.	16bb-'\JJ	.
4r	.	(8g\L	.	4r	.	16aa'\LL	.
.	.	.	.	.	.	16gg'\	.
.	.	16a\L	.	.	.	16ff#'\	.
.	.	16b-\JJ)	.	.	.	16gg'\JJ	.
=195	=195	=195	=195	=195	=195	=195	=195
2r	.	(8a\L	.	2r	.	16gg\LL	.
.	.	.	.	.	.	16ff#\	.
.	.	16b-\L	.	.	.	16ee-\	.
.	.	16cc\JJ)	.	.	.	16dd\JJ	.
.	.	(8bn\L	.	.	.	16gg\LL	.
.	.	.	.	.	.	16ffn\	.
.	.	16cc\L	.	.	.	16ee-\	.
.	.	16dd\JJ)	.	.	.	16ff\JJ	.
=196	=196	=196	=196	=196	=196	=196	=196
8r	.	16g'\LL	.	8cc\L	.	4ee-\	.
.	.	16g'\	.	.	.	.	.
8CC/	.	16f'\	.	8cc\J	.	.	.
.	.	16e-'\JJ	.	.	.	.	.
4r	.	16d'\LL	.	(8cc\L	.	4r	.
.	.	16c'\	.	.	.	.	.
.	.	16Bn'\	.	16dd\L	.	.	.
.	.	16c'\JJ	.	16ee-\JJ)	.	.	.
=197	=197	=197	=197	=197	=197	=197	=197
2r	.	16c/LL	.	(8dd\L	.	8g'\L	.
.	.	16Bn/	.	.	.	.	.
.	.	16A-/	.	16ee-\L	.	8dd'\J	.
.	.	16G/JJ	.	16ff\JJ)	.	.	.
.	.	16c/LL	.	(8een\L	.	(8cc\L	.
.	.	16B-/	.	.	.	.	.
.	.	16An/	.	16ff\L	.	16dd\L	.
.	.	16G/JJ	.	16gg\JJ)	.	16een\JJ)	.
=198	=198	=198	=198	=198	=198	=198	=198
8r	.	8A/L	.	16cc'\LL	.	8ff\L	.
.	.	.	.	16ccc'\	.	.	.
8FF/	.	8A/J	.	16bb-'\	.	8ff\J	.
.	.	.	.	16aa'\JJ	.	.	.
4r	.	(8A/L	.	16gg'\LL	.	(8ff\L	.
.	.	.	.	16ff'\	.	.	.
.	.	16G/L	.	16een'\	.	16gg\L	.
.	.	16F/JJ)	.	16ff'\JJ	.	16aa\JJ)	.
=199	=199	=199	=199	=199	=199	=199	=199
2r	.	(8B-/L	.	16ff\LL	.	(8gg\L	.
.	.	.	.	16een\	.	.	.
.	.	16A/L	.	16dd\	.	16aa\L	.
.	.	16G/JJ)	.	16cc\JJ	.	16bb-\JJ)	.
.	.	(8c/L	.	16ff\LL	.	(8aa\L	.
.	.	.	.	16ee-\	.	.	.
.	.	16B-/L	.	16dd\	.	16bb-\L	.
.	.	16A/JJ)	.	16cc\JJ	.	16ccc\JJ)	.
=200	=200	=200	=200	=200	=200	=200	=200
*clefC4	*clefC4	*	*	*	*	*	*
8B-\L	.	4f\	.	8dd\L	.	16ddd'\LL	.
.	.	.	.	.	.	16fff'\	.
8B-\J	.	.	.	8dd\J	.	16eee-'\	.
.	.	.	.	.	.	16ddd'\JJ	.
(8B-\L	.	4r	.	(8dd\L	.	16ccc'\LL	.
.	.	.	.	.	.	16bb-'\	.
16c\L	.	.	.	16ee-\L	.	16aa'\	.
16d\JJ)	.	.	.	16ff\JJ)	.	16bb-'\JJ	.
=201	=201	=201	=201	=201	=201	=201	=201
(8c\L	.	2r	.	(8ee-\L	.	16bb-\LL	.
.	.	.	.	.	.	16aa\	.
16d\L	.	.	.	16ff\L	.	16aa\	.
16e-\JJ)	.	.	.	16gg-\JJ)	.	16aa\JJ	.
(8d\L	.	.	.	(8ff\L	.	16bb-\LL	.
.	.	.	.	.	.	16aa-\	.
16e-\L	.	.	.	16ggn\L	.	16gg\	.
16f\JJ)	.	.	.	16aa-\JJ)	.	16ff\JJ	.
=202	=202	=202	=202	=202	=202	=202	=202
(8e-\L	f	4r	f	4gg\	f	16gg\LL	f
.	.	.	.	.	.	16bb-\	.
16f\L	.	.	.	.	.	16aa-\	.
16g\JJ)	.	.	.	.	.	16gg\JJ	.
(8c\L	.	(8e-\L	.	4r	.	16aa-\LL	.
.	.	.	.	.	.	16gg\	.
16d\L	.	16f\L	.	.	.	16ff\	.
16e-\JJ)	.	16g\JJ)	.	.	.	16ee-\JJ	.
=203	=203	=203	=203	=203	=203	=203	=203
(8d\L	.	(8f\L	.	4r	f	16ff\LL	.
.	.	.	.	.	.	16aa-\	.
16e-\L	.	16g\L	.	.	.	16gg\	.
16f\JJ)	.	16a-\JJ)	.	.	.	16ff\JJ	.
(8Bn\L	.	(8d\L	.	16ee-\LL	.	16gg\LL	.
.	.	.	.	16dd\	.	16ff\	.
16c\L	.	16e-\L	.	16cc\	.	16ee-\	.
16d\JJ)	.	16f\JJ)	.	16bn\JJ	.	16dd\JJ	.
=204	=204	=204	=204	=204	=204	=204	=204
8c\	.	16e-'\LL	.	(8cc\L	.	4ee-\	.
.	.	16g'\	.	.	.	.	.
8r	.	16f'\	.	16dd\L	.	.	.
.	.	16e-'\JJ	.	16ee-\JJ)	.	.	.
*clefF4	*clefF4	*	*	*	*	*	*
4F\	.	16f'\LL	.	(8an\L	.	4r	.
.	.	16e-'\	.	.	.	.	.
.	.	16d'\	.	16b-\L	.	.	.
.	.	16c'\JJ	.	16cc\JJ)	.	.	.
=205	=205	=205	=205	=205	=205	=205	=205
4B-\	.	16d\LL	.	(8b-\L	.	2r	.
.	.	16f\	.	.	.	.	.
.	.	16e-\	.	16cc\L	.	.	.
.	.	16d\JJ	.	16dd\JJ)	.	.	.
16c\LL	.	16e-\LL	.	(8g/L	.	.	.
16B-\	.	16d\	.	.	.	.	.
16An\	.	16c\	.	16an/L	.	.	.
16G\JJ	.	16B-\JJ	.	16b-/JJ)	.	.	.
=206	=206	=206	=206	=206	=206	=206	=206
(8A\L	.	16f#/LL	.	16a'/LL	.	16ccc\LL	.
.	.	16F#/	.	16cc'/	.	16eee-\	.
16B-\L	.	16G/	.	16b-'/	.	16ddd\	.
16c\JJ)	.	16An/JJ	.	16a'/JJ	.	16ccc\JJ	.
(8F#\L	.	(8A/L	.	16b-'/LL	.	16ddd\LL	.
.	.	.	.	16a'/	.	16ccc\	.
16G\L	.	16B-/L	.	16g'/	.	16bb-\	.
16A\JJ)	.	16c/JJ)	.	16f#'/JJ	.	16aan\JJ	.
=207	=207	=207	=207	=207	=207	=207	=207
(8G\L	.	(8B-/L	.	16g/LL	.	16bb-\LL	.
.	.	.	.	16g/	.	16ddd-\	.
16A-\L	.	16c/L	.	16g/	.	16ccc\	.
16B-\JJ)	.	16d-/JJ)	.	16g/JJ	.	16bb-\JJ	.
(8En\L	.	(8G/L	.	16g/LL	.	16ccc\LL	.
.	.	.	.	16g/	.	16bb-\	.
16Fn\L	.	16A-/L	.	16fn/	.	16aa-\	.
16G\JJ)	.	16B-/JJ)	.	16en/JJ	.	16gg\JJ	.
=208	=208	=208	=208	=208	=208	=208	=208
16A-\LL	.	16c\LL	.	16f/LL	.	(8ff\L	.
16c\	.	16e-\	.	16a-/	.	.	.
16B-\	.	16dn\	.	16g/	.	16gg\L	.
16A-\JJ	.	16c\JJ	.	16f/JJ	.	16aa-\JJ)	.
16B-\LL	.	16d/LL	.	16g/LL	.	(8ddn\L	.
16A-\	.	16c/	.	16f/	.	.	.
16G\	.	16B-/	.	16e-/	.	16ee-\L	.
16F\JJ	.	16A-/JJ	.	16d/JJ	.	16ff\JJ)	.
=209	=209	=209	=209	=209	=209	=209	=209
16G\LL	.	16B-/LL	.	16e-/LL	.	(8ee-\L	.
16B-\	.	16B-/	.	16g/	.	.	.
16A-\	.	16c/	.	16f/	.	16ff\L	.
16G\JJ	.	16B-/JJ	.	16e-/JJ	.	16gg\JJ)	.
16A-\LL	.	16c/LL	.	16f/LL	.	(8cc\L	.
16G\	.	16B-/	.	16e-/	.	.	.
16F\	.	16A-/	.	16d/	.	16dd\L	.
16E-\JJ	.	16G/JJ	.	16c/JJ	.	16ee-\JJ)	.
=210	=210	=210	=210	=210	=210	=210	=210
16F\LL	ff	16A-\LL	ff	16d/LL	ff	(8dd\L	ff
16A-\	.	16c\	.	16ff\	.	.	.
16G\	.	16B-\	.	16ee-\	.	16ee-\L	.
16F\JJ	.	16a-\JJ	.	16dd\JJ	.	16ff\JJ)	.
16G\LL	.	16g\LL	.	16ee-\LL	.	(8bn\L	.
16F\	.	16A-\	.	16dd\	.	.	.
16E-\	.	16G\	.	16cc\	.	16cc\L	.
16D\JJ	.	16F\JJ	.	16bn\JJ	.	16dd\JJ)	.
=211	=211	=211	=211	=211	=211	=211	=211
16E-/LL	.	16G/LL	.	16cc/LL	.	(8cc\L	.
16D/	.	16G/	.	16f/	.	.	.
16C/	.	16G/	.	16e-/	.	16dd\L	.
16BBn/JJ	.	16G/JJ	.	16d/JJ	.	16ee-\JJ)	.
16C/LL	.	16G/LL	.	16e-/LL	.	(8cc\L	.
16BB-/	.	16C/	.	16d/	.	.	.
16AAn/	.	16C/	.	16c/	.	16dd\L	.
16GG/JJ	.	16C/JJ	.	16c/JJ	.	16ee-\JJ)	.
=212	=212	=212	=212	=212	=212	=212	=212
8FF#'/L	ff	8F#'/L	ff	8f#'/L	ff	8f#'\L	ff
8E-'\	.	8e-'\	.	8e-'/	.	8ee-'\	.
8F#'\	.	8f#'\	.	8f#'/	.	8ff#'\	.
8An'\J	.	8an'\J	.	8an'/J	.	8aan'\J	.
=213	=213	=213	=213	=213	=213	=213	=213
8c\L	.	8cc\L	.	8cc/L	.	8ccc\L	.
8e-\	.	8ee-\	.	8ee-/	.	8eee-\	.
8c\	.	8cc\	.	8cc/	.	8ccc\	.
8A\J	.	8a\J	.	8a/J	.	8aa\J	.
=214	=214	=214	=214	=214	=214	=214	=214
8F#\L	.	8f#\L	.	8f#/L	.	8ff#\L	.
8A\	.	8a\	.	8a/	.	8aa\	.
8C\	.	8c\	.	8c/	.	8cc\	.
8D\J	.	8d\J	.	8d/J	.	8dd\J	.
=215	=215	=215	=215	=215	=215	=215	=215
8E-/L	.	8e-/L	.	8e-/L	.	8ee-\L	.
8AA/	.	8A/	.	8A/	.	8a\	.
8BB-/	.	8B-/	.	8B-/	.	8b-\	.
8AA/J	.	8A/J	.	8A/J	.	8a\J	.
=216	=216	=216	=216	=216	=216	=216	=216
8C/L	.	8c/L	.	8c/L	.	8cc/L	.
8AA/	.	8A/	.	8A/	.	8a/	.
8FF#/	.	8F#/	.	8f#/	.	8f#/	.
8DD/J	.	8D/J	.	8d/J	.	8d/J	.
=217	=217	=217	=217	=217	=217	=217	=217
8EE-/L	.	8E-/L	.	8e-/L	.	8e-/L	.
8CC/	.	8C/	.	8c/	.	8c/	.
8DD/	.	8D/	.	8d/	.	8d/	.
8CC/J	.	8C/J	.	8c/J	.	8c/J	.
=218	=218	=218	=218	=218	=218	=218	=218
8EE-/L	.	8E-/L	.	8e-/L	.	8ee-\L	.
8CC/	.	8C/	.	8c/	.	8cc\	.
8DD/	.	8D/	.	8d/	.	8dd\	.
8CC/J	.	8C/J	.	8c/J	.	8cc\J	.
=219	=219	=219	=219	=219	=219	=219	=219
8EE-/L	f	8E-/L	f	8e-/L	f	8ee-\L	f
8CC/	.	8C/	.	8c/	.	8cc\	.
8DD/	.	8D/	.	8d/	.	8dd\	.
8CC/J	.	8C/J	.	8c/J	.	8cc\J	.
=220	=220	=220	=220	=220	=220	=220	=220
8EE-/L	f	8E-/L	f	8e-/L	f	8ee-\L	f
8CC#/	.	8C#/	.	8c#/	.	8cc#\	.
8DD/	.	8D/	.	8d/	.	8dd\	.
8CC#/J	.	8C#/J	.	8c#/J	.	8cc#\J	.
=221	=221	=221	=221	=221	=221	=221	=221
8EE-/L	f	8E-/L	f	8e-/L	f	8ee-\L	f
8CC#/	.	8C#/	.	8c#/	.	8cc#\	.
8DD/	.	8D/	.	8d/	.	8dd\	.
8CC#/J	.	8C#/J	.	8c#/J	.	8cc#\J	.
=222	=222	=222	=222	=222	=222	=222	=222
8EE-/L	f	8E-/L	f	8e-/L	f	8ee-\L	f
8CC#/	.	8C#/	.	8c#/	.	8cc#\	.
8DD/	.	8D/	.	8d/	.	8dd\	.
8CC#/J	.	8C#/J	.	8c#/J	.	8cc#\J	.
=223	=223	=223	=223	=223	=223	=223	=223
8EE-/L	f	8E-/L	f	8e-/L	f	8ee-\L	f
8CC#/	.	8C#/	.	8c#/	.	8cc#\	.
8DD/	.	8D/	.	8d/	.	8dd\	.
8CC#/J	.	8C#/J	.	8c#/J	.	8cc#\J	.
=224	=224	=224	=224	=224	=224	=224	=224
8EEn'/L	.	8En'/L	.	8en'/L	.	8een'\L	.
8CC#'/	.	8C#'/	.	8c#'/	.	8cc#'\	.
8DD'/	.	8D'/	.	8d'/	.	8dd'\	.
8CC#'/J	.	8C#'/J	.	8c#'/J	.	8cc#'\J	.
=225	=225	=225	=225	=225	=225	=225	=225
8EEn/L	.	8En/L	.	8en/L	.	8een\L	.
8CCn/	.	8Cn/	.	8cn/	.	8ccn\	.
8DD/	.	8D/	.	8d/	.	8dd\	.
8CC/J	.	8C/J	.	8c/J	.	8cc\J	.
=226	=226	=226	=226	=226	=226	=226	=226
8EEn/L	p	8En/L	p	8en/L	p	8een\L	p
8CC/	.	8C/	.	8c/	.	8cc\	.
8EE-/	.	8E-/	.	8e-/	.	8ee-\	.
8CC/J	.	8C/J	.	8c/J	.	8cc\J	.
=227	=227	=227	=227	=227	=227	=227	=227
8EE-/L	p	8E-/L	p	8e-/L	p	8ee-\L	p
8CC/	.	8C/	.	8c/	.	8cc\	.
8EE-/	.	8E-/	.	8e-/	.	8ee-\	.
8CC#/J	.	8C#/J	.	8c#/J	.	8cc#\J	.
=228	=228	=228	=228	=228	=228	=228	=228
8DD/L	pp	8D/L	pp	8d'/L	pp	8dd/L	pp
8D/J	.	8d/J	.	8dd'/J	.	8d/J	.
4r	.	4r	.	8d'/L	.	4r	.
.	.	.	.	8dd'/J	.	.	.
=229	=229	=229	=229	=229	=229	=229	=229
2r	.	2r	.	8d'/L	.	2r	.
.	.	.	.	8dd'/	.	.	.
.	.	.	.	8d'/	.	.	.
.	.	.	.	8dd'/J	.	.	.
=230	=230	=230	=230	=230	=230	=230	=230
(2F#\	pp	(2A/	pp	8d/L	pp	(8dd\L	pp
.	.	.	.	8dd/	.	16ff#\L	.
.	.	.	.	.	.	16aa\JJ)	.
.	.	.	.	8d/	.	8ccc'\L	.
.	.	.	.	8dd/J	.	8aa'\J	.
=231	=231	=231	=231	=231	=231	=231	=231
2G\	.	2B-/	.	8d/L	.	(16ccc\LL	.
.	.	.	.	.	.	16bb-\	.
.	.	.	.	8dd/	.	16aa\	.
.	.	.	.	.	.	16gg\JJ)	.
.	.	.	.	8d/	.	8ff#'\L	.
.	.	.	.	8dd/J	.	8gg'\J	.
=232	=232	=232	=232	=232	=232	=232	=232
2A\	.	2c\	.	8d/L	.	8ff#'\L	.
.	.	.	.	8dd/	.	8ff#'\J	.
.	.	.	.	8d/	.	(8ff#\L	.
.	.	.	.	8dd/J	.	16gg\L	.
.	.	.	.	.	.	16aa\JJ)	.
=233	=233	=233	=233	=233	=233	=233	=233
2G\)	.	2B-/)	.	8d/L	.	(8aa\L	.
.	.	.	.	8dd/	.	16bb-\Jk)	.
.	.	.	.	.	.	16r	.
.	.	.	.	8d/	.	4bb-\	.
.	.	.	.	8dd/J	.	.	.
=234	=234	=234	=234	=234	=234	=234	=234
2Fn\	.	(2A-/	.	8d/L	.	(8bb-\L	.
.	.	.	.	8dd/	.	16ddd\L	.
.	.	.	.	.	.	16fffn\JJ)	.
.	.	.	.	8d/	.	8aaa-'\L	.
.	.	.	.	8dd/J	.	8fff'\J	.
=235	=235	=235	=235	=235	=235	=235	=235
2E-\	.	2G/)	.	8e-/L	.	(16aaa-\LL	.
.	.	.	.	.	.	16ggg\	.
.	.	.	.	8ee-/	.	16fff\	.
.	.	.	.	.	.	16eee-\JJ)	.
.	.	.	.	8e-/	.	8ddd'\L	.
.	.	.	.	8ee-/J	.	8eee-'\J	.
=236	=236	=236	=236	=236	=236	=236	=236
8AA-/	.	2F/	.	8e-/L	.	8ccc'\L	.
8r	.	.	.	8ee-/	.	8aa-'\	.
8BB-/	.	.	.	8d/	.	8bb-'\	.
8r	.	.	.	8dd/J	.	8bb-'\J	.
=237	=237	=237	=237	=237	=237	=237	=237
4EE-/	pp	8E-'\L	pp	4e-/	pp	8ee-'\L	pp
.	.	8g'\	.	.	.	8ggg'\	.
4r	.	8G'\	.	4r	.	8gg'\	.
.	.	8g'\J	.	.	.	8ggg'\J	.
=238	=238	=238	=238	=238	=238	=238	=238
*clefC4	*clefC4	*	*	*	*	*	*
(8G\L	.	8G\L	.	(2d/ 2bn/	.	8gg\L	.
16Bn\L	.	8g\	.	.	.	8ggg\	.
16d\JJ)	.	.	.	.	.	.	.
8f'\L	.	8G\	.	.	.	8gg\	.
8d'\J	.	8g\J	.	.	.	8ggg\J	.
=239	=239	=239	=239	=239	=239	=239	=239
(16f\LL	.	8G\L	.	&(2e-/&)) 2cc/	.	8gg\L	.
16e-\	.	.	.	.	.	.	.
16d\	.	8g\	.	.	.	8ggg\	.
16c\JJ)	.	.	.	.	.	.	.
8Bn'\L	.	8G\	.	.	.	8gg\	.
8c'\J	.	8g\J	.	.	.	8ggg\J	.
=240	=240	=240	=240	=240	=240	=240	=240
8Bn'\L	.	8G\L	.	(8g\L	.	8gg\L	.
8B'\J	.	8g\	.	16bn\L	.	8ggg\	.
.	.	.	.	16dd\JJ)	.	.	.
(8B\L	.	8G\	.	8ff'\L	.	8gg\	.
16c\L	.	8g\J	.	8dd'\J	.	8ggg\J	.
16d\JJ)	.	.	.	.	.	.	.
=241	=241	=241	=241	=241	=241	=241	=241
(8d\L	.	8G\L	.	(16ff\LL	.	8gg\L	.
.	.	.	.	16ee-\	.	.	.
16e-\Jk)	.	8g\	.	16dd\	.	8ggg\	.
16r	.	.	.	16cc\JJ)	.	.	.
[4e-\	.	8G\	.	8bn'\L	.	8gg\	.
.	.	8c\J	.	8cc'\J	.	8eee-\J	.
=242	=242	=242	=242	=242	=242	=242	=242
8e-\L]	.	8An/L	.	(4.cc\	.	(8ff\L	.
(8An\	.	8f/	.	.	.	16aan\L	.
.	.	.	.	.	.	16ccc\JJ)	.
8c\	.	8F/	.	.	.	8eee-'\L	.
8e-\J)	.	8f/J	.	8an/	.	8ccc'\J	.
=243	=243	=243	=243	=243	=243	=243	=243
2d\	.	8B-/L	.	2b-\)	.	(16eee-\LL	.
.	.	.	.	.	.	16ddd\	.
.	.	8f/	.	.	.	16ccc\	.
.	.	.	.	.	.	16bb-\JJ)	.
.	.	8G/	.	.	.	8aa'\L	.
.	.	8g/J	.	.	.	8bb-'\J	.
=244	=244	=244	=244	=244	=244	=244	=244
8c'\L	.	8E-'/L	.	8b-'/L	.	8gg'\L	.
8c'\	.	8e-'/	.	8b-'/	.	8ee-'\	.
8c'\	.	8F'/	.	8a'/	.	8ff'\	.
8c'\J	.	8F'/J	.	8a'/J	.	8ff'\J	.
=245	=245	=245	=245	=245	=245	=245	=245
4d\	.	8B-/L	.	4d/	.	4b-\	.
.	.	8f/	.	.	.	.	.
4r	.	8F/	.	8r	.	8r	.
.	.	8f/J	.	8b-'\	.	8dd'\	.
=246	=246	=246	=246	=246	=246	=246	=246
2r	.	8F/L	.	8a'/L	.	8cc'\L	.
.	.	8f/	.	8b-'/	.	8dd'\	.
.	.	8F/	.	8a'/	.	8cc'\	.
.	.	8f/J	.	8b-'/J	.	8dd'\J	.
=247	=247	=247	=247	=247	=247	=247	=247
2r	.	8F/L	.	4cc\	.	4ee-\	.
.	.	8f/	.	.	.	.	.
.	.	8F/	.	8r	.	8r	.
.	.	8f/J	.	8cc'\	.	8ee-'\	.
=248	=248	=248	=248	=248	=248	=248	=248
2r	.	8F/L	.	8b-'\L	.	8dd'\L	.
.	.	8f/	.	8cc'\	.	8ee-'\	.
.	.	8F/	.	8b-'\	.	8dd'\	.
.	.	8En/J	.	8b-'\J	.	8gg'\J	.
=249	=249	=249	=249	=249	=249	=249	=249
2r	.	8F/L	.	8a/L	.	(8cc\L	.
.	.	8f/	.	8b-/	.	8dd\	.
.	.	8C/	.	8g'/ 8b-'/	.	8een\)	.
.	.	8c/J	.	8f'/J 8a'/	.	8ff'\J	.
=250	=250	=250	=250	=250	=250	=250	=250
*	*	*	*	*	*	*^	*
2r	.	8C/L	.	[2f/	.	8a'\L	4r	.
.	.	8c/	.	.	.	8ff'\J	.	.
.	.	8E-/	.	.	.	4g/	32g/LLL	.
.	.	.	.	.	.	.	32a/	.
.	.	.	.	.	.	.	32g/	.
.	.	.	.	.	.	.	32a/	.
.	.	8e-/J	.	.	.	.	32g/	.
.	.	.	.	.	.	.	32a/	.
.	.	.	.	.	.	.	32f/	.
.	.	.	.	.	.	.	32g/JJJ	.
*	*	*	*	*	*	*v	*v	*
=251	=251	=251	=251	=251	=251	=251	=251
*clefF4	*clefF4	*	*	*	*	*	*
.	.	.	.	.	.	fq/LL	.
.	.	.	.	.	.	gq/JJ	.
*	*	*	*	*	*	*^	*
8r	.	8D/L	.	8f/]	.	8f'/L	4r	.
8D'\L	.	8F'/	.	8f'/L	.	8bb-'\J	.	.
8E-'\	.	8G'/	.	8e-'/	.	4cc\	32cc\LLL	.
.	.	.	.	.	.	.	32dd\	.
.	.	.	.	.	.	.	32cc\	.
.	.	.	.	.	.	.	32dd\	.
8F'\J	.	8A'/J	.	8e-'/J	.	.	32cc\	.
.	.	.	.	.	.	.	32dd\	.
.	.	.	.	.	.	.	32b-\	.
.	.	.	.	.	.	.	32cc\JJJ	.
*	*	*	*	*	*	*v	*v	*
=252	=252	=252	=252	=252	=252	=252	=252
.	.	.	.	.	.	b-q/LL	.
.	.	.	.	.	.	ccq/JJ	.
8BB-\L	.	2F/	.	2A-/ 2d/	.	(8b-\L	.
8B-\	.	.	.	.	.	16dd\L	.
.	.	.	.	.	.	16ff\JJ)	.
8BB-\	.	.	.	.	.	8aa-'\L	.
8B-\J	.	.	.	.	.	8ff'\J	.
=253	=253	=253	=253	=253	=253	=253	=253
8BB-\L	.	(8E-/L	.	(8G/L	.	(16aa-\LL	.
.	.	.	.	.	.	16gg\	.
8B-\	.	16G/L	.	16e-/L	.	16ff\	.
.	.	16e-/JJ)	.	16g/JJ)	.	16ee-\JJ)	.
8BB-\	.	8f'\L	.	8a-'/L	.	8dd'\L	.
8B-\J	.	8e-'\J	.	8g'/J	.	8ee-'\J	.
=254	=254	=254	=254	=254	=254	=254	=254
8BB-\L	.	8e-'/L	.	8g'/L	.	8ee-'\L	.
8B-\	.	8G'/J	.	8g'/J	.	8ee-'\J	.
8BB-\	.	(8B-/L	.	(8g/L	.	(8ee-\L	.
8B-\J	.	16A-/L	.	16f/L	.	16ff\L	.
.	.	16G/JJ)	.	16e-/JJ)	.	16gg\JJ)	.
=255	=255	=255	=255	=255	=255	=255	=255
8BB-\L	.	(8G/L	.	(8e-/L	.	(8gg\L	.
8B-\	.	16F/Jk)	.	16d/Jk)	.	16aa-\Jk)	.
.	.	16r	.	16r	.	16r	.
8BB-\	.	4F/	.	4d/	.	4aa-\	.
8B-\J	.	.	.	.	.	.	.
=256	=256	=256	=256	=256	=256	=256	=256
8BB-\L	.	2F/	.	2A-/ 2d/	.	(8b-\L	.
8B-\	.	.	.	.	.	16dd\L	.
.	.	.	.	.	.	16ff\JJ)	.
8BB-\	.	.	.	.	.	8aa-'\L	.
8B-\J	.	.	.	.	.	8ff'\J	.
=257	=257	=257	=257	=257	=257	=257	=257
8BB-\L	.	(8E-/L	.	(8G/L	.	(16aa-\LL	.
.	.	.	.	.	.	16gg\	.
8B-\	.	16G/L	.	16e-/L	.	16ff\	.
.	.	16e-/JJ)	.	16g/JJ)	.	16ee-\JJ)	.
8BB-\	.	8f'\L	.	8a-'/L	.	8dd'\L	.
8B-\J	.	8e-'\J	.	8g'/J	.	8ee-'\J	.
=258	=258	=258	=258	=258	=258	=258	=258
8BB-\L	.	8c/L	.	8e-/L 8an/	.	8ff\L	.
8B-\	.	8c/J	.	8e-/J	.	8ff\J	.
8BB-\	.	(8c/L	.	(8e-/L	.	(8ff\L	.
8B-\J	.	16F/L	.	16d/L	.	16gg\L	.
.	.	16E-/JJ)	.	16c/JJ)	.	16aan\JJ)	.
=259	=259	=259	=259	=259	=259	=259	=259
8BB-\L	p	(8E-/L	p	(8c/L	p	(8aa\L	p
8B-\	.	16D/Jk)	.	16B-/Jk)	.	16bb-\Jk)	.
.	.	16r	.	16r	.	16r	.
8BB-\J	.	8D'/L	.	8B-'/L	.	8bb-'\L	.
*clefC4	*clefC4	*	*	*	*	*	*
8d'\	.	8B-'/J	.	8f'/J	.	8ff'\J	.
=260	=260	=260	=260	=260	=260	=260	=260
8c'\L	.	8A'/L	.	8f'/L	.	8ff'\L	.
8d'\	.	8B-'/J	.	8ff'/	.	8fff'\J	.
8c'\	.	8A'/L	.	8f'/	.	8ff'\L	.
8d'\J	.	8B-'/J	.	8ff'/J	.	8fff'\J	.
=261	=261	=261	=261	=261	=261	=261	=261
4e-\	.	4c\	.	8f'/L	.	8ff'\L	.
.	.	.	.	8ff'/	.	8fff'\J	.
8r	.	8r	.	8f'/	.	8ff'\L	.
8e-'\	.	8c'\	.	8ff'/J	.	8fff'\J	.
=262	=262	=262	=262	=262	=262	=262	=262
8d'\L	.	8B-'/L	.	8f'/L	.	8ff'\L	.
8e-'\	.	8c'/	.	8ff'/	.	8fff'\J	.
8d'\	.	8B-'/	.	8f'/	.	8ff'\L	.
8g'\J	.	8G'/J	.	8b-'/J	.	8bb-'\J	.
=263	=263	=263	=263	=263	=263	=263	=263
(8c\L	.	(8En/L	.	8B-/L	.	8b-\L	.
8d\	.	8F/	.	8b-/	.	8bb-\	.
8en\)	.	8G/)	.	8b-/	.	8bb-\	.
8f\J	.	8F/J	.	8a/J	.	8aa\J	.
=264	=264	=264	=264	=264	=264	=264	=264
*^	*	*	*	*	*	*	*
(8f\L	4r	.	8C/L	.	8a/L	.	8aa\L	.
16A\L	.	.	8c/	.	8ff/	.	8fff\	.
16a\JJ)	.	.	.	.	.	.	.	.
4g\	32g\LLL	.	8C/	.	8en/	.	8een\	.
.	32a\	.	.	.	.	.	.	.
.	32g\	.	.	.	.	.	.	.
.	32a\	.	.	.	.	.	.	.
.	32g\	.	8B-/J	.	8een/J	.	8eeen\J	.
.	32a\	.	.	.	.	.	.	.
.	32f\	.	.	.	.	.	.	.
.	32g\JJJ	.	.	.	.	.	.	.
*v	*v	*	*	*	*	*	*	*
=265	=265	=265	=265	=265	=265	=265	=265
*	*	*	*	*	*	*^	*
[2f\	.	8F/ 8A/	.	8ff\	.	8fff\L	4r	.
.	.	8D'/L	.	8f'/L	.	(16b-\L	.	.
.	.	.	.	.	.	16bb-\JJ)	.	.
.	.	8E-'/	.	8G'/	.	4cc\	32cc\LLL	.
.	.	.	.	.	.	.	32dd\	.
.	.	.	.	.	.	.	32cc\	.
.	.	.	.	.	.	.	32dd\	.
.	.	8F'/J	.	8A'/J	.	.	32cc\	.
.	.	.	.	.	.	.	32dd\	.
.	.	.	.	.	.	.	32b-\	.
.	.	.	.	.	.	.	32cc\JJJ	.
*	*	*	*	*	*	*v	*v	*
=266	=266	=266	=266	=266	=266	=266	=266
8f\L]	pp	(4.F/	pp	(4.A-/ 4.d/	pp	(8b-\L	pp
8b-\	.	.	.	.	.	16dd\L	.
.	.	.	.	.	.	16ff\JJ)	.
8B-\	.	.	.	.	.	8aa-'\L	.
8b-\J	.	16G/LL	.	16e-/LL	.	8ff'\J	.
.	.	16A-/JJ)	.	16f/JJ)	.	.	.
=267	=267	=267	=267	=267	=267	=267	=267
8B-\L	.	8G'/L	.	8e-'/L	.	(16aa-\LL	.
.	.	.	.	.	.	16gg\	.
8b-\	.	8G'/J	.	8e-'/J	.	16ff\	.
.	.	.	.	.	.	16ee-\JJ)	.
8B-\	.	(8G/L	.	(8e-/L	.	8dd'\L	.
8b-\J	.	16A-/L	.	16f/L	.	8ee-'\J	.
.	.	16B-/JJ)	.	16g/JJ)	.	.	.
=268	=268	=268	=268	=268	=268	=268	=268
8B-\L	.	8G'/L	.	8g'/L	.	8ee-'\L	.
8b-\	.	8g'\J	.	8e-'/J	.	8ee-'\J	.
8B-\	.	(8g\L	.	(8b-/L	.	(8ee-\L	.
8b-\J	.	16f\L	.	16a-/L	.	16ff\L	.
.	.	16e-\JJ)	.	16g/JJ)	.	16gg\JJ)	.
=269	=269	=269	=269	=269	=269	=269	=269
8B-\L	.	(8e-/L	.	(8g/L	.	(8gg\L	.
8b-\	.	16A-/L	.	16f/L	.	16aa-\Jk)	.
.	.	16G/JJ	.	16e-/JJ	.	16r	.
8B-\	.	16F/LL	.	16d/LL	.	4aa-\	.
.	.	16G/	.	16e-/	.	.	.
8b-\J	.	16F/	.	16f/	.	.	.
.	.	16E-/JJ)	.	16g/JJ)	.	.	.
=270	=270	=270	=270	=270	=270	=270	=270
8B-\L	.	8D/	.	8a-/	.	(8b-\L	.
8b-\	.	(4F/	.	(4d/	.	16dd\L	.
.	.	.	.	.	.	16ff\JJ)	.
8B-\	.	.	.	.	.	8aa-'\L	.
8b-\J	.	16G/LL	.	16e-/LL	.	8ff'\J	.
.	.	16A-/JJ)	.	16f/JJ)	.	.	.
=271	=271	=271	=271	=271	=271	=271	=271
8B-\	.	8G/	.	8e-/L	.	(16aa-\LL	.
.	.	.	.	.	.	16gg\	.
*clefF4	*clefF4	*	*	*	*	*	*
8GG/L	.	8B-/L	.	8e-/	.	16ff\	.
.	.	.	.	.	.	16ee-\JJ)	.
8GG/	.	8B-/J	.	8e-/	.	8dd'\L	.
8GG-/J	.	8B-/	.	8e-/J	.	8ee-'\J	.
=272	=272	=272	=272	=272	=272	=272	=272
8FF/L	.	(8An/L	.	8e-/L 8cc/	.	8ff\L	.
8F/	.	16c/L	.	(16e-/L	.	8ff\J	.
.	.	16B-/JJ)	.	16d/JJ	.	.	.
8FF/	.	(8E-/L	.	8c/L	.	(8ff\L	.
8F/J	.	16D/L	.	16B-/L	.	16gg\L	.
.	.	16C/JJ)	.	16An/JJ)	.	16aan\JJ)	.
=273	=273	=273	=273	=273	=273	=273	=273
8BB-\L	.	(8E-/L	.	(8c/L	.	(8aa\L	.
8B-\	.	16D/Jk)	.	16B-/Jk)	.	16bb-\Jk)	.
.	.	16r	.	16r	.	16r	.
8BB-\J	.	4D/	.	4B-/	.	4bb-\	.
8FF/	.	.	.	.	.	.	.
=274	=274	=274	=274	=274	=274	=274	=274
8FF/L	.	2r	.	2r	.	2r	.
8FF/J	.	.	.	.	.	.	.
(8FF/L	.	.	.	.	.	.	.
16GG/L	.	.	.	.	.	.	.
16AA/JJ)	.	.	.	.	.	.	.
=275	=275	=275	=275	=275	=275	=275	=275
(8AA/L	.	2r	.	2r	.	2r	.
16BB-/Jk)	.	.	.	.	.	.	.
16r	.	.	.	.	.	.	.
4BB-/	.	.	.	.	.	.	.
=276	=276	=276	=276	=276	=276	=276	=276
(8BBn/L	.	8F/L	.	2r	.	2r	.
16C/Jk)	.	8F/J	.	.	.	.	.
16r	.	.	.	.	.	.	.
4C/	.	(8F/L	.	.	.	.	.
.	.	16G/L	.	.	.	.	.
.	.	16A/JJ)	.	.	.	.	.
=277	=277	=277	=277	=277	=277	=277	=277
(8C#/L	.	(8A/L	.	8f/L	.	2r	.
16D/Jk)	.	16B-/Jk)	.	8f/J	.	.	.
16r	.	16r	.	.	.	.	.
4D\	.	4B-/	.	(8f/L	.	.	.
.	.	.	.	16g/L	.	.	.
.	.	.	.	16a-/JJ)	.	.	.
=278	=278	=278	=278	=278	=278	=278	=278
(8D\L	.	4r	.	(8a-/L	.	8b-\L	.
16E-\Jk)	.	.	.	16g/Jk)	.	8b-\J	.
16r	.	.	.	16r	.	.	.
4E-\	.	(8f\L	.	4g/	.	(8b-\L	.
.	.	16e-\Jk)	.	.	.	16cc\L	.
.	.	16r	.	.	.	16dd\JJ)	.
=279	=279	=279	=279	=279	=279	=279	=279
2r	.	8e-\L	.	8g/L	.	(8dd\L	.
.	.	8e-\J	.	8g/J	.	16ee-\Jk)	.
.	.	.	.	.	.	16r	.
.	.	(8e-\L	.	(8g/L	.	4ee-\	.
.	.	16f\L	.	16a-/L	.	.	.
.	.	16g\JJ)	.	16b-/JJ)	.	.	.
=280	=280	=280	=280	=280	=280	=280	=280
2r	.	(8g\L	.	8B-/L	.	(8een\L	.
.	.	16a-\Jk)	.	8B-/J	.	16ff\Jk)	.
.	.	16r	.	.	.	16r	.
.	.	4a-\	.	(8B-/L	.	4ff\	.
.	.	.	.	16c/L	.	.	.
.	.	.	.	16d/JJ)	.	.	.
=281	=281	=281	=281	=281	=281	=281	=281
8EE-/L	.	(8A-/L	.	(8d/L	.	(8ff#\L	.
8EE-/J	.	16G/Jk)	.	16e-/Jk)	.	16gg\Jk)	.
.	.	16r	.	16r	.	16r	.
(8EE-/L	.	4G/	.	[4e-/	.	4gg\	.
16FF/L	.	.	.	.	.	.	.
16GG/JJ)	.	.	.	.	.	.	.
=282	=282	=282	=282	=282	=282	=282	=282
8GG-/L	.	4An/	.	4e-/]	.	(8bn\L	.
16FF/Jk	.	.	.	.	.	16cc\Jk)	.
16r	.	.	.	.	.	16r	.
*	*	*	*	*^	*	*	*
[4FF/	.	4E-/	.	(8g-/L	4An\	.	4cc\	.
.	.	.	.	16f/Jk)	.	.	.	.
.	.	.	.	16r	.	.	.	.
*	*	*	*	*v	*v	*	*	*
=283	=283	=283	=283	=283	=283	=283	=283
2FF/]	.	(8E-/L	.	(8A/L	.	(8cc#\L	.
.	.	16D/Jk)	.	16B-/Jk)	.	16dd\Jk)	.
.	.	16r	.	16r	.	16r	.
*	*	*	*	*^	*	*	*
.	.	(8En/L	.	(8gn/L	4B-\	.	(8cc#\L	.
.	.	16F/Jk)	.	16f/Jk)	.	.	16dd\Jk)	.
.	.	16r	.	16r	.	.	16r	.
*	*	*	*	*v	*v	*	*	*
=284	=284	=284	=284	=284	=284	=284	=284
(8FF/L	.	[2F/	.	[2f/	.	(2bb-\	.
8DD/	.	.	.	.	.	.	.
8EE-/	.	.	.	.	.	.	.
8DD/J	.	.	.	.	.	.	.
=285	=285	=285	=285	=285	=285	=285	=285
8CC/L	.	2F/_	.	2f/_	.	16aa\LL	.
.	.	.	.	.	.	16eee-\	.
8EE-/	.	.	.	.	.	16ddd\	.
.	.	.	.	.	.	16cccn\JJ	.
8FF/	.	.	.	.	.	16bb-\LL	.
.	.	.	.	.	.	16aa\	.
8EE-/J	.	.	.	.	.	16gg\	.
.	.	.	.	.	.	16ff\JJ	.
=286	=286	=286	=286	=286	=286	=286	=286
8DD'/L)	.	8F/L]	.	8f/L]	.	8fff'\L)	.
8D'/	.	8d'/	.	8dd'/	.	8ddd'\	.
8BB-'/	.	8B-'/	.	8b-'/	.	8bb-'\	.
8C'/J	.	8c'/J	.	8cc'/J	.	8ccc'\J	.
=287	=287	=287	=287	=287	=287	=287	=287
8AA-'/L	.	8A-'/L	.	8a-'/L	.	8aa-'\L	.
8FF'/	.	8F'/	.	8f'/	.	8ff'\	.
8DD'/	.	8D'/	.	8d'/	.	8dd'\	.
8BB-'/J	.	8B-'/J	.	8b-'/J	.	8bb-'\J	.
=288	=288	=288	=288	=288	=288	=288	=288
8GG\L	.	(2e-\	.	[2b-\	.	[2bb-\	.
(8G\	.	.	.	.	.	.	.
8A-\	.	.	.	.	.	.	.
8G\J	.	.	.	.	.	.	.
=289	=289	=289	=289	=289	=289	=289	=289
8F\L	.	16d\LL	.	2b-\_	.	2bb-\_	.
.	.	16a-\	.	.	.	.	.
8A-\	.	16g\	.	.	.	.	.
.	.	16f\JJ	.	.	.	.	.
8B-\	.	16e-\LL	.	.	.	.	.
.	.	16d\	.	.	.	.	.
8A-\J	.	16c\	.	.	.	.	.
.	.	[16B-\JJ)	.	.	.	.	.
=290	=290	=290	=290	=290	=290	=290	=290
8G\L)	.	8B-/L]	.	8b-\L]	.	8bb-\L]	.
8GG'/	.	8G'/	.	8gg'\	.	8g'/	.
8EE-'/	.	8E-'/	.	8ee-'\	.	8e-'/	.
8FF'/J	.	8F'/J	.	8ff'\J	.	8f'/J	.
=291	=291	=291	=291	=291	=291	=291	=291
8EE-'/L	.	8E-'/L	.	8ee-'\L	.	8e-'/L	.
8CC'/	.	8C'/	.	8cc'\	.	8c'/	.
8AAn'/	.	8An'/	.	8an'\	.	8An'/	.
8FF'/J	.	8F'/J	.	8ff'\J	.	8f'/J	.
=292	=292	=292	=292	=292	=292	=292	=292
(8BB-/L	.	([2F/	.	(8dd\L	.	(2bb-\	.
8D/	.	.	.	8ff\	.	.	.
8E-/	.	.	.	8gg\	.	.	.
8D/J	.	.	.	8ff\J	.	.	.
=293	=293	=293	=293	=293	=293	=293	=293
8C/L	.	8F/L]	.	8ee-\	.	16aan\LL	.
.	.	.	.	.	.	16eee-\	.
8E-/	.	8A/	.	4cc\)	.	16ddd\	.
.	.	.	.	.	.	16ccc\JJ	.
8F/	.	8c/	.	.	.	16bb-\LL	.
.	.	.	.	.	.	16aa\	.
8E-/J	.	8A/J)	.	8cc\	.	16gg\	.
.	.	.	.	.	.	16ff\JJ	.
=294	=294	=294	=294	=294	=294	=294	=294
8D'/L)	.	8B-'/L	.	8b-'\L	.	8fff'\L)	.
8D'/	.	8d'/	.	8dd'\	.	8ddd'\	.
8BB-'/	.	8B-'/	.	8b-'\	.	8bb-'\	.
8C'/J	.	8c'/J	.	8cc'\J	.	8ccc'\J	.
=295	=295	=295	=295	=295	=295	=295	=295
8AA'/L	.	8A'/L	.	8a'/L	.	8aa'\L	.
8FF'/	.	8F'/	.	8f'/ 8a'/	.	8aa'\	.
8GG'/	.	8En'/	.	8f'/ 8b-'/	.	8bb-'\	.
8AA'/J	.	8E-'/J	.	8f'/J 8cc'/	.	8ccc'\J	.
=296	=296	=296	=296	=296	=296	=296	=296
4BB-/	f	4D/	f	4f/ 4dd/	f	16ddd\LL	f
.	.	.	.	.	.	16a\	.
.	.	.	.	.	.	16b-\	.
.	.	.	.	.	.	16cc\JJ	.
4r	.	4r	.	4r	.	16dd\LL	.
.	.	.	.	.	.	16cc\	.
.	.	.	.	.	.	16dd\	.
.	.	.	.	.	.	16b-\JJ	.
=297	=297	=297	=297	=297	=297	=297	=297
4FF'/	.	16A/LL	.	16a/LL	.	4ff\	.
.	.	16G/	.	16en/	.	.	.
.	.	16A/	.	16f/	.	.	.
.	.	16B-/JJ	.	16g/JJ	.	.	.
4r	.	16c/LL	.	16a/LL	.	4r	.
.	.	16B-/	.	16g/	.	.	.
.	.	16c/	.	16a/	.	.	.
.	.	16A/JJ	.	16f/JJ	.	.	.
=298	=298	=298	=298	=298	=298	=298	=298
4G'\	f	4B-/	f	4d/	f	16g/LL	f
.	.	.	.	.	.	16f#/	.
.	.	.	.	.	.	16g/	.
.	.	.	.	.	.	16a/JJ	.
4r	.	4r	.	4r	.	16b-/LL	.
.	.	.	.	.	.	16a/	.
.	.	.	.	.	.	16b-/	.
.	.	.	.	.	.	16g/JJ	.
=299	=299	=299	=299	=299	=299	=299	=299
4BB-'/	f	16A-/LL	f	16f/LL	f	4dd\	f
.	.	16G/	.	16en/	.	.	.
.	.	16A-/	.	16f/	.	.	.
.	.	16En/JJ	.	16g/JJ	.	.	.
4r	.	16F/LL	.	16a-/LL	.	4r	.
.	.	16E/	.	16g/	.	.	.
.	.	16F/	.	16a-/	.	.	.
.	.	16A-/JJ	.	16f/JJ	.	.	.
=300	=300	=300	=300	=300	=300	=300	=300
8C/	.	8G/	.	8e-/	.	16ee-\LL	.
.	.	.	.	.	.	16dd\	.
8r	.	8r	.	8r	.	16ee-\	.
.	.	.	.	.	.	16ffn\JJ	.
8FF/	.	8c\	.	8e-/	.	16gg\LL	.
.	.	.	.	.	.	16ff\	.
8r	.	8r	.	8r	.	16gg\	.
.	.	.	.	.	.	16aa\JJ	.
=301	=301	=301	=301	=301	=301	=301	=301
8BB-/	.	8F/	.	8d/	.	16bb-\LL	.
.	.	.	.	.	.	16aa\	.
8r	.	8r	.	8r	.	16bb-\	.
.	.	.	.	.	.	16ccc\JJ	.
8FF/	.	8B-/	.	8d/	.	16ddd\LL	.
.	.	.	.	.	.	16ccc\	.
8r	.	8r	.	8r	.	16ddd\	.
.	.	.	.	.	.	16eee-\JJ	.
=302	=302	=302	=302	=302	=302	=302	=302
8DD'/L	.	8B-\L	.	8b-\L	.	8fff'\L	.
8D'/	.	8f'\	.	8b-\	.	8fff'\	.
8E-'/	.	8g'\	.	8b-\	.	8eee-'\	.
8En'/J	.	8g'\J	.	8b-\J	.	8ddd'\J	.
=303	=303	=303	=303	=303	=303	=303	=303
8F\L	.	8B-/L	.	8b-\L	.	8ddd\L	.
8F\J	.	8e-/	.	8a\	.	8ccc\	.
8f\L	.	8d'/	.	8b-'\	.	8ddd'\	.
8f\J	.	8A'/J	.	8cc'\J	.	8eee-'\J	.
=304	=304	=304	=304	=304	=304	=304	=304
16f\LL	p	16B-/LL	p	16b-\LL	p	4ddd\	p
16c\	.	16e-/	.	16a\	.	.	.
16B-\	.	16d/	.	16b-\	.	.	.
16A\JJ	.	16c/JJ	.	16cc\JJ	.	.	.
8B-\L	.	16B-/LL	.	16dd\LL	.	4r	.
.	.	16A/	.	16cc\	.	.	.
8F\J	.	16B-/	.	16dd\	.	.	.
.	.	16G/JJ	.	16b-\JJ	.	.	.
=305	=305	=305	=305	=305	=305	=305	=305
4F\	.	4A/	.	4ff\	.	16a/LL	.
.	.	.	.	.	.	16g/	.
.	.	.	.	.	.	16a/	.
.	.	.	.	.	.	16b-/JJ	.
4r	.	4r	.	4r	.	16cc\LL	.
.	.	.	.	.	.	16b-\	.
.	.	.	.	.	.	16cc\	.
.	.	.	.	.	.	16a\JJ	.
=306	=306	=306	=306	=306	=306	=306	=306
4G\	.	16b-\LL	.	16g/LL	.	4d/	.
.	.	16a\	.	16f#/	.	.	.
.	.	16b-\	.	16g/	.	.	.
.	.	16cc\JJ	.	16a/JJ	.	.	.
4r	.	16dd\LL	.	16b-/LL	.	4r	.
.	.	16cc\	.	16a/	.	.	.
.	.	16dd\	.	16b-/	.	.	.
.	.	16b-\JJ	.	16g/JJ	.	.	.
=307	=307	=307	=307	=307	=307	=307	=307
4BB-/	.	16f\LL	.	4dd\	.	16aa-\LL	.
.	.	16en\	.	.	.	16gg\	.
.	.	16f\	.	.	.	16aa-\	.
.	.	16g\JJ	.	.	.	16bb-\JJ	.
4r	.	16a-\LL	.	4r	.	16ccc\LL	.
.	.	16g\	.	.	.	16bb-\	.
.	.	16a-\	.	.	.	16ccc\	.
.	.	16f\JJ	.	.	.	16aa-\JJ	.
=308	=308	=308	=308	=308	=308	=308	=308
8C/	.	8e-\	.	8g/	.	16gg\LL	.
.	.	.	.	.	.	16dd\	.
8r	.	8r	.	8r	.	16ee-\	.
.	.	.	.	.	.	16ff\JJ	.
8FF/	.	8f\	.	8cc\	.	16gg\LL	.
.	.	.	.	.	.	16ff\	.
8r	.	8r	.	8r	.	16gg\	.
.	.	.	.	.	.	16aan\JJ	.
=309	=309	=309	=309	=309	=309	=309	=309
8D\	.	8F/	.	8fn/	.	16bb-\LL	.
.	.	.	.	.	.	16aa\	.
8r	.	8r	.	8r	.	16bb-\	.
.	.	.	.	.	.	16ccc\JJ	.
8BB-/	.	16D/LL	.	16f\LL	.	16ddd\LL	.
.	.	16e-\	.	16g\	.	16ccc\	.
8r	.	16e-\	.	16gg\	.	16ddd\	.
.	.	16d\JJ	.	16ff\JJ	.	16eee-\JJ	.
=310	=310	=310	=310	=310	=310	=310	=310
8FF/L	f	16c\LL	f	16ee-\LL	f	16fff\LL	f
.	.	16b-\	.	16dd-\	.	16een\	.
8F/	.	16a\	.	16cc\	.	16ff\	.
.	.	16g\JJ	.	16b-\JJ	.	16gg\JJ	.
8F/	.	16f\LL	.	16a\LL	.	16aa\LL	.
.	.	16en\	.	16b-\	.	16gg\	.
8F/J	.	16e-\	.	16cc\	.	16aa\	.
.	.	16d\JJ	.	16ff\JJ	.	16bb-\JJ	.
=311	=311	=311	=311	=311	=311	=311	=311
8F/L	.	16c/LL	.	16ee-\LL	.	8ccc'\L	.
.	.	16B-/	.	16ddn\	.	.	.
8FF/	.	16A/	.	16cc\	.	8ddd'\	.
.	.	16G/JJ	.	16b-\JJ	.	.	.
8FF/	.	16F/LL	.	16a/LL	.	8eee-'\	.
.	.	16E-/	.	16g/	.	.	.
8FF/J	.	16D/	.	16f/	.	8a'\J	.
.	.	16C/JJ	.	16e-/JJ	.	.	.
=312	=312	=312	=312	=312	=312	=312	=312
2r	.	2r	.	8r	.	2r	.
.	.	.	.	8a'/L	.	.	.
.	.	.	.	8g'/	.	.	.
.	.	.	.	8f'/J	.	.	.
=313	=313	=313	=313	=313	=313	=313	=313
2r	.	2r	.	(8.b-\L	.	8r	.
.	.	.	.	.	.	8dd'\L	.
.	.	.	.	16cc\Jk)	.	.	.
.	.	.	.	4b-\	.	8cc'\	.
.	.	.	.	.	.	8b-'\J	.
=314	=314	=314	=314	=314	=314	=314	=314
4r	.	4r	.	8r	.	(8.een\L	.
.	.	.	.	8g'/L	.	.	.
.	.	.	.	.	.	16ff\Jk)	.
8r	.	8r	.	8f'/	.	4ee-\	.
8F\	.	8c\	.	8A'/J	.	.	.
=315	=315	=315	=315	=315	=315	=315	=315
8c\L	.	8f\L	.	8a\L	.	8r	.
8E-\	.	8f\	.	8cc\	.	8aa'\L	.
8E-\	.	8f\	.	8cc\	.	8gg'\	.
8E-\J	.	8f\J	.	8cc\J	.	8ff'\J	.
=316	=316	=316	=316	=316	=316	=316	=316
8D\L	.	8f\L	.	8b-\L	.	(8.bb-\L	.
8B-'\	.	8d'\	.	8b-\	.	.	.
.	.	.	.	.	.	16ccc\Jk)	.
8c'\	.	8e-'\	.	8b-\	.	4bb-\	.
8d'\J	.	8f'\J	.	8b-\J	.	.	.
=317	=317	=317	=317	=317	=317	=317	=317
*clefC4	*clefC4	*	*	*	*	*	*
8e-'\L	.	8g'\L	.	8b-'\L	.	8r	.
8en'\	.	8b-'\	.	8cc'\	.	8gg'\L	.
8f'\	.	8b-'\	.	8dd'\	.	8ff'\	.
8f'\J	.	8f'\J	.	8ee-'\J	.	8a'\J	.
=318	=318	=318	=318	=318	=318	=318	=318
(4.g\	.	(4.dd-\	.	(4.b-\	.	(4.een\	.
8f\)	.	8b-\)	.	8dd-\)	.	8ff\)	.
=319	=319	=319	=319	=319	=319	=319	=319
(8g\L	.	(8dd-\L	.	(8b-\L	.	(8een\L	.
8f\)	.	8b-\)	.	8dd-\)	.	8ff\)	.
(8g\	.	(8dd-\	.	(8b-\	.	(8ee\	.
8f\J)	.	8b-\J)	.	8dd-\J)	.	8ff\J)	.
=320	=320	=320	=320	=320	=320	=320	=320
4en'\	pp	4b-'\	pp	4dd-'\	pp	4gg'\	pp
4e'\	.	4b-'\	.	4dd-'\	.	4gg'\	.
=321	=321	=321	=321	=321	=321	=321	=321
4en'\	.	4b-'\	.	4dd-'\	.	4gg'\	.
4r	.	4dd-\	.	4r	.	4r	.
=322	=322	=322	=322	=322	=322	=322	=322
4e-'\	pp	4a'\	pp	4g-'/	pp	4cc'\	pp
4e-'\	.	4a'\	.	4g-'/	.	4cc'\	.
=323	=323	=323	=323	=323	=323	=323	=323
4e-'\	.	4a'\	.	4g-'/	.	4cc'\	.
4g-\	.	4e-\	.	4a/ 4cc/	.	4r	.
=324	=324	=324	=324	=324	=324	=324	=324
*clefF4	*clefF4	*	*	*	*	*	*
(16GG-/LL	pp	(16D/LL	pp	2r	.	(16d/LL	pp
16FF/	.	16F/	.	.	.	16f/	.
16GG-/	.	16D/	.	.	.	16d/	.
16FF/JJ	.	16F/JJ	.	.	.	16f/JJ	.
16GG-/LL	.	16D/LL	.	.	.	16d/LL	.
16FF/	.	16F/	.	.	.	16f/	.
16GG-/	.	16D/	.	.	.	16d/	.
16FF/JJ)	.	16F/JJ)	.	.	.	16f/JJ)	.
=325	=325	=325	=325	=325	=325	=325	=325
(16GG-/LL	.	8D'/L	.	(16B-/LL	pp	8d'/L	.
16FF/	.	.	.	16d/	.	.	.
16GG-/	.	8F'/	.	16B-/	.	8f'/	.
16FF/JJ	.	.	.	16d/JJ	.	.	.
16GG-/LL	.	8B-'/	.	16B-/LL	.	8b-'/	.
16FF/	.	.	.	16d/	.	.	.
16GG-/	.	8d'/J	.	16B-/	.	8dd'/J	.
16FF/JJ)	.	.	.	16d/JJ)	.	.	.
=326	=326	=326	=326	=326	=326	=326	=326
(16GG-/LL	.	8f'\L	.	(16A/LL	.	8ff'\L	.
16FF/	.	.	.	16e-/	.	.	.
16GG-/	.	8e-'\	.	16A/	.	8ee-'\	.
16FF/JJ	.	.	.	16e-/JJ)	.	.	.
16GG-/LL	.	8c'\	.	(16e-/LL	.	8cc'\	.
16FF/	.	.	.	16g-/	.	.	.
16GG-/	.	8A'\J	.	16e-/	.	8a'\J	.
16FF/JJ)	.	.	.	16g-/JJ)	.	.	.
=327	=327	=327	=327	=327	=327	=327	=327
(16C/LL	.	(16c\LL	.	(16e-/LL	.	(4.gg-\	.
16FF/	.	16e-\	.	16g-/	.	.	.
16C/	.	16c\	.	16e-/	.	.	.
16FF/JJ	.	16e-\JJ	.	16g-/JJ	.	.	.
16C/LL	.	16c\LL	.	16e-/LL	.	.	.
16FF/	.	16e-\	.	16g-/	.	.	.
16C/	.	16c\	.	16e-/	.	8aa\)	.
16FF/JJ)	.	16e-\JJ)	.	16g-/JJ)	.	.	.
=328	=328	=328	=328	=328	=328	=328	=328
8BB-'\L	f	8B-'\L	f	8b-'\L	f	16b-\LL	f
.	.	.	.	.	.	16bb-\	.
8A'\	.	8a'\	.	8aa-'\	.	16b-\	.
.	.	.	.	.	.	16a\JJ	.
8Gn'\	.	8gn'\	.	8ggn'\	.	16gn/LL	.
.	.	.	.	.	.	16ggn/	.
8F'\J	.	8f'\J	.	8ff'\J	.	16g/	.
.	.	.	.	.	.	16f/JJ	.
=329	=329	=329	=329	=329	=329	=329	=329
8E-'/L	.	8e-'\L	.	8ee-'\L	.	16e-/LL	.
.	.	.	.	.	.	16ee-/	.
8D'/	.	8d'\	.	8dd'\	.	16e-/	.
.	.	.	.	.	.	16d/JJ	.
8C'/	.	8c'\	.	8cc'\	.	16cc\LL	.
.	.	.	.	.	.	16ccc\	.
8BB-'/J	.	8B-'\J	.	8b-'\J	.	16cc\	.
.	.	.	.	.	.	16b-\JJ	.
=330	=330	=330	=330	=330	=330	=330	=330
8AA'/L	.	8A'/L	.	8a'/L	.	16a\LL	.
.	.	.	.	.	.	16aa\	.
8GG'/	.	8G'/	.	8g'/	.	16a\	.
.	.	.	.	.	.	16g\JJ	.
8FF'/	.	8F'/	.	8f'/	.	16f/LL	.
.	.	.	.	.	.	16ff/	.
8EEn'/J	.	8En'/J	.	8en'/J	.	16f/	.
.	.	.	.	.	.	16en/JJ	.
=331	=331	=331	=331	=331	=331	=331	=331
(8EE-/L	.	16A/LL	.	16e-/LL	.	16f/LL	.
.	.	16B-/	.	16d/	.	16g/	.
8CC/	.	16c/	.	16e-/	.	16a/	.
.	.	16d/JJ	.	16f/JJ	.	16b-/JJ	.
8BB-/	.	16c/LL	.	16e-/LL	.	16cc\LL	.
.	.	16F/	.	16f/	.	16dd\	.
8AA/J)	.	16F/	.	16g-/	.	16ee-\	.
.	.	16F/JJ	.	16f/JJ	.	16ff\JJ	.
=332	=332	=332	=332	=332	=332	=332	=332
(8F/L	.	16d\LL	.	16f/LL	.	16b-\LL	.
.	.	16e-\	.	16b-/	.	16cc\	.
8D/	.	16f\	.	16b-/	.	16dd\	.
.	.	16g\JJ	.	16b-/JJ	.	16ee-\JJ	.
8C/	.	16a\LL	.	16ee-/LL	.	16ff\LL	.
.	.	16b-\	.	16dd/	.	16gg\	.
8BB-/J)	.	16cc\	.	16e-/	.	16aa\	.
.	.	16dd\JJ	.	16d/JJ	.	16bb-\JJ	.
=333	=333	=333	=333	=333	=333	=333	=333
(8BB-/L	.	16ee-\LL	.	16c/LL	.	16ff\LL	.
.	.	16F/	.	16cc/	.	16gg\	.
8AA/	.	16F/	.	16cc/	.	16aa\	.
.	.	16G/JJ	.	16b-/JJ	.	16bb-\JJ	.
8GG/	.	16A/LL	.	16b-/LL	.	16ccc\LL	.
.	.	16B-/	.	16a/	.	16ddd\	.
8FF/J)	.	16c/	.	16gn/	.	16eee-\	.
.	.	16c/JJ	.	16a/JJ	.	16fff\JJ	.
=334	=334	=334	=334	=334	=334	=334	=334
(8BB-/L	ff	[2B-/	ff	[2b-\ [2bb-\	ff	(16b-/LL	ff
.	.	.	.	.	.	16dd/	.
8GG/	.	.	.	.	.	16g/	.
.	.	.	.	.	.	16b-/JJ	.
8FF/	.	.	.	.	.	16f/LL	.
.	.	.	.	.	.	16b-/	.
8EE-/J	.	.	.	.	.	16e-/	.
.	.	.	.	.	.	16b-/JJ	.
=335	=335	=335	=335	=335	=335	=335	=335
8DD/L	.	(4.B-/]	.	(4.b-\] 4.bb-\]	.	16d/LL	.
.	.	.	.	.	.	16b-/	.
8EE-/	.	.	.	.	.	16e-/	.
.	.	.	.	.	.	16b-/JJ	.
8FF/	.	.	.	.	.	16f/LL	.
.	.	.	.	.	.	16b-/	.
8AA/J)	.	8A/)	.	8a\) 8aa\	.	16a/	.
.	.	.	.	.	.	16b-/JJ)	.
=336	=336	=336	=336	=336	=336	=336	=336
(8BB-/L	ff	[2B-/	ff	[2b-\ [2bb-\	ff	(16b-/LL	ff
.	.	.	.	.	.	16dd/	.
8GG/	.	.	.	.	.	16g/	.
.	.	.	.	.	.	16b-/JJ	.
8FF/	.	.	.	.	.	16f/LL	.
.	.	.	.	.	.	16b-/	.
8EE-/J	.	.	.	.	.	16e-/	.
.	.	.	.	.	.	16b-/JJ	.
=337	=337	=337	=337	=337	=337	=337	=337
8DD/L	.	(4.B-/]	.	(4.b-\] 4.bb-\]	.	16d/LL	.
.	.	.	.	.	.	16b-/	.
8EE-/	.	.	.	.	.	16e-/	.
.	.	.	.	.	.	16b-/JJ	.
8FF/	.	.	.	.	.	16f/LL	.
.	.	.	.	.	.	16b-/	.
8AA/J)	.	8A/)	.	8a\) 8aa\	.	16a/	.
.	.	.	.	.	.	16b-/JJ)	.
=338	=338	=338	=338	=338	=338	=338	=338
(8BB-/L	.	[2B-/	.	[2b-\ [2bb-\	.	(16b-/LL	.
.	.	.	.	.	.	16dd/	.
8GG/	.	.	.	.	.	16g/	.
.	.	.	.	.	.	16b-/JJ	.
8FF/	.	.	.	.	.	16f/LL	.
.	.	.	.	.	.	16b-/	.
8EE-/J	.	.	.	.	.	16e-/	.
.	.	.	.	.	.	16b-/JJ	.
=339	=339	=339	=339	=339	=339	=339	=339
8DD/L	.	(4.B-/]	.	(4.b-\] 4.bb-\]	.	16d/LL	.
.	.	.	.	.	.	16b-/	.
8EE-/	.	.	.	.	.	16e-/	.
.	.	.	.	.	.	16b-/JJ	.
8FF/	.	.	.	.	.	16f/LL	.
.	.	.	.	.	.	16b-/	.
8AA/J)	.	8A/)	.	8a\) 8aa\	.	16a/	.
.	.	.	.	.	.	16b-/JJ)	.
=340	=340	=340	=340	=340	=340	=340	=340
(8BB-/L	.	[2B-/	.	[2b-\ [2bb-\	.	(16b-/LL	.
.	.	.	.	.	.	16dd/	.
8GG/	.	.	.	.	.	16g/	.
.	.	.	.	.	.	16b-/JJ	.
8FF/	.	.	.	.	.	16f/LL	.
.	.	.	.	.	.	16b-/	.
8EE-/J	.	.	.	.	.	16e-/	.
.	.	.	.	.	.	16b-/JJ	.
=341	=341	=341	=341	=341	=341	=341	=341
8DD/L	p	4.B-/]	p	4.b-\] 4.bb-\]	p	16d/LL	p
.	.	.	.	.	.	16f/	.
8CC/	.	.	.	.	.	16b-/	.
.	.	.	.	.	.	16dd/JJ	.
8BB-/J)	.	.	.	.	.	8ff'\L)	.
8r	.	8r	.	8r	.	8bb-'\J	.
=342	=342	=342	=342	=342	=342	=342	=342
2r	.	(4b-\	.	(4dd\	.	16d'\LL	.
.	.	.	.	.	.	(16ff\	.
.	.	.	.	.	.	16bb-\	.
.	.	.	.	.	.	16ddd\JJ	.
.	.	4dd\)	.	4bb-\)	.	8fff'\L)	.
.	.	.	.	.	.	8ddd'\J	.
=343	=343	=343	=343	=343	=343	=343	=343
2r	.	[2cc\	.	[2aa\	.	8eee-'\L	.
.	.	.	.	.	.	8ccc'\	.
.	.	.	.	.	.	8bbn'\	.
.	.	.	.	.	.	8ccc'\J	.
=344	=344	=344	=344	=344	=344	=344	=344
2r	.	2cc\_	.	2aa\_	.	8eee-\L	.
.	.	.	.	.	.	8ccc\	.
.	.	.	.	.	.	8bbn\	.
.	.	.	.	.	.	8ccc\J	.
=345	=345	=345	=345	=345	=345	=345	=345
2r	.	4cc\]	.	4aa\]	.	4eee-\	.
.	.	4r	.	4r	.	4r	.
=346	=346	=346	=346	=346	=346	=346	=346
2r	.	2b-\	.	4dd\	.	16d/LL	.
.	.	.	.	.	.	(16dd\	.
.	.	.	.	.	.	16gg\	.
.	.	.	.	.	.	16bb-\JJ	.
.	.	.	.	[4gg\	.	8ddd'\L)	.
.	.	.	.	.	.	8bb-'\J	.
=347	=347	=347	=347	=347	=347	=347	=347
2r	.	[2a\	.	4gg\]	.	8ccc'\L	.
.	.	.	.	.	.	8aa'\	.
.	.	.	.	[4ff#\	.	8ccc'\	.
.	.	.	.	.	.	8ff#'\J	.
=348	=348	=348	=348	=348	=348	=348	=348
2r	.	2a\]	.	2ff#\]	.	8ccc\L	.
.	.	.	.	.	.	8ee-\	.
.	.	.	.	.	.	8ccc\	.
.	.	.	.	.	.	8dd\J	.
=349	=349	=349	=349	=349	=349	=349	=349
2r	.	2g\	.	4gg\	.	4bb-\	.
.	.	.	.	[4b-\	.	4r	.
=350	=350	=350	=350	=350	=350	=350	=350
(8C\L	.	2en\	.	(4b-\]	.	8r	.
16En\L	.	.	.	.	.	8bb-\L	.
16G\JJ)	.	.	.	.	.	.	.
8B-'\L	.	.	.	4g/	.	8dd-\	.
8G'\J	.	.	.	.	.	8cc\J	.
=351	=351	=351	=351	=351	=351	=351	=351
8A-'\L	.	[2c\	.	4f/	.	8r	.
8F'\J	.	.	.	.	.	8aa-\L	.
8En'\L	.	.	.	[4a-/)	.	8dd-\	.
8F'\J	.	.	.	.	.	8cc\J	.
=352	=352	=352	=352	=352	=352	=352	=352
8A-'\L	.	(2c\]	.	2a-/_	.	8r	.
8F'\	.	.	.	.	.	8aa-\L	.
8En'\	.	.	.	.	.	8dd-\	.
8F'\J	.	.	.	.	.	8cc\J	.
=353	=353	=353	=353	=353	=353	=353	=353
8A-'\L	.	2B-/)	.	2a-/]	.	8r	.
8F'\	.	.	.	.	.	8aa-\	.
8En'\	.	.	.	.	.	8dd\L	.
8F'\J	.	.	.	.	.	8dd\J	.
=354	=354	=354	=354	=354	=354	=354	=354
8B-'\L	.	2B-/	.	2g/	.	8r	.
8G'\	.	.	.	.	.	8bb-\L	.
8F#'\	.	.	.	.	.	8ee-\	.
8G'\J	.	.	.	.	.	8ee-\J	.
=355	=355	=355	=355	=355	=355	=355	=355
2r	.	[2E-/ [2G/	.	[2B-/ [2g/	.	8e-'/L	.
.	.	.	.	.	.	8B-'/J	.
.	.	.	.	.	.	8An'/L	.
.	.	.	.	.	.	8B-'/J	.
=356	=356	=356	=356	=356	=356	=356	=356
*clefC4	*clefC4	*	*	*	*	*	*
8g'\L	.	2E-/_ 2G/_	.	2B-/_ 2g/_	.	2r	.
8e-'\J	.	.	.	.	.	.	.
8d'\L	.	.	.	.	.	.	.
8e-'\J	.	.	.	.	.	.	.
=357	=357	=357	=357	=357	=357	=357	=357
2r	.	2E-/_ 2G/_	.	2B-/_ 2g/_	.	8b-/L	.
.	.	.	.	.	.	8g/J	.
.	.	.	.	.	.	8f#/L	.
.	.	.	.	.	.	8g/J	.
=358	=358	=358	=358	=358	=358	=358	=358
*clefC4	*clefG2	*	*	*	*	*	*
*k[b-e-a-]	*k[b-e-a-]	*k[b-e-a-]	*k[b-e-a-]	*k[b-e-a-]	*k[b-e-a-]	*k[b-e-a-]	*k[b-e-a-]
8r	.	2E-/_ 2G/_	.	2B-/_ 2g/_	.	([2bb-\	.
(8g\L	.	.	.	.	.	.	.
8b-\	.	.	.	.	.	.	.
8g\J	.	.	.	.	.	.	.
=359	=359	=359	=359	=359	=359	=359	=359
8f\L	.	4E-/] 4G/]	.	4B-/] 4g/]	.	8bb-\L]	.
8e-\	.	.	.	.	.	8ee-\	.
8f\	.	(4D-/	.	(4B-/ 4e-/	.	8ff\	.
8g\J	.	.	.	.	.	8gg\J	.
=360	=360	=360	=360	=360	=360	=360	=360
8a-\L	.	4C/	.	4A-/ 4e-/	.	8aa-\L	.
8b-\	.	.	.	.	.	8bb-\	.
8a-\	.	4Dn/	.	4f/	.	8aa-\	.
8cc\J	.	.	.	.	.	8ccc\J	.
=361	=361	=361	=361	=361	=361	=361	=361
8an\L	.	4E-/	.	4G/ 4g/	.	8aan\L	.
8b-\	.	.	.	.	.	8bb-\	.
8cc\	.	4F#/	.	[4e-/)	.	8ccc\	.
8b-\J)	.	.	.	.	.	8bb-\J)	.
=362	=362	=362	=362	=362	=362	=362	=362
4b-\	.	4G/)	.	4e-/]	.	(8bb-\L	.
.	.	.	.	.	.	8b-\	.
(8b-\L	.	(4G/	.	[4B-/	.	8bb-\	.
8g\J	.	.	.	.	.	8gg\J	.
=363	=363	=363	=363	=363	=363	=363	=363
8f\L	.	4A-/	.	(4B-/]	.	8ff\L	.
8e-\	.	.	.	.	.	8ee-\	.
8f\	.	4G/)	.	4e-/)	.	8ff\	.
8g\J)	.	.	.	.	.	8gg\J)	.
=364	=364	=364	=364	=364	=364	=364	=364
(8c\L	p	(4Fn/	p	(4cc\	p	[2aa-\	p
8e-\	.	.	.	.	.	.	.
8d\	.	4B-/	.	[4a-/)	.	.	.
8f\J	.	.	.	.	.	.	.
=365	=365	=365	=365	=365	=365	=365	=365
8d\L	.	4E-/	.	(4a-/]	.	(4aa-\]	.
8e-\	.	.	.	.	.	.	.
8f\	.	[4B-/)	.	[4g/)	.	[4gg\)	.
[8e-\J	.	.	.	.	.	.	.
=366	=366	=366	=366	=366	=366	=366	=366
*k[b-e-]	*k[b-e-]	*k[b-e-]	*k[b-e-]	*k[b-e-]	*k[b-e-]	*k[b-e-]	*k[b-e-]
8e-\L])	.	4B-/]	.	(8g/L]	.	(8gg\L]	.
&(8d\J&)	.	.	.	8f/J)	.	8ff\J)	.
*clefF4	*clefF4	*	*	*	*	*	*
[4BB-/	.	(8D/L	.	[4f/	.	(8ff\L	.
.	.	8F/J	.	.	.	8dd\J	.
=367	=367	=367	=367	=367	=367	=367	=367
(4BB-/]	.	8E-/L	.	4f/]	.	8cc\L	.
.	.	8D/	.	.	.	8b-\	.
4AA-/	.	8E-/	.	[4B-/	.	8cc\	.
.	.	8F/J	.	.	.	8dd\J	.
=368	=368	=368	=368	=368	=368	=368	=368
4GG/	.	8G/L	.	2B-/_	.	8ee-\L	.
.	.	8F/	.	.	.	8ff\	.
4CC/	.	8G/	.	.	.	8ee-\	.
.	.	8E-/J	.	.	.	8gg\J	.
=369	=369	=369	=369	=369	=369	=369	=369
4CC#/	.	8G/L	.	2B-/_	.	8een\L	.
.	.	8F/	.	.	.	8ff\	.
[4DD/)	.	8En/	.	.	.	8gg\	.
.	.	8F/J)	.	.	.	8ff\J)	.
=370	=370	=370	=370	=370	=370	=370	=370
4DD/]	.	8F/L	.	(4B-/]	.	(8ff\L	.
.	.	(8F/	.	.	.	8f\	.
(4DD/	.	8B-/	.	[4f/)	.	8ff\	.
.	.	8F/J	.	.	.	8dd\J	.
=371	=371	=371	=371	=371	=371	=371	=371
4EE-/	.	8A/L	.	(4f/]	.	8cc\L	.
.	.	8F/	.	.	.	8b-\	.
4DD/	.	8f/	.	4B-/)	.	8cc\	.
.	.	8F/J)	.	.	.	8dd\J)	.
=372	=372	=372	=372	=372	=372	=372	=372
4EE-/	p	(8E-/L	p	(4G/	p	(8g\L	p
.	.	8D/	.	.	.	8b-\	.
4FF/	.	8C/	.	4c/	.	8a\	.
.	.	8E-/J	.	.	.	8cc\J	.
=373	=373	=373	=373	=373	=373	=373	=373
4EE-/	.	8C/L	.	4f/	.	8a\L	.
.	.	8F/	.	.	.	8b-\	.
4DD/	.	8D/	.	4B-/)	.	8cc\	.
.	.	8F/J	.	.	.	8b-\J)	.
=374	=374	=374	=374	=374	=374	=374	=374
4GG/)	.	4B-/) 4en/	.	(8b-/L	.	(8bb-\L	.
.	.	.	.	8g/	.	8gg\	.
*clefC4	*clefC4	*	*	*	*	*	*
(4g\	.	(4b-\	.	8f/	.	8ff\	.
.	.	.	.	8en/J	.	8een\J	.
=375	=375	=375	=375	=375	=375	=375	=375
4F/	.	8A\L	.	8g/L	.	8gg\L	.
.	.	8a\J	.	8f/	.	8ff\	.
4f\	.	4a-\	.	8en/	.	8een\	.
.	.	.	.	8f/J	.	8ff\J	.
=376	=376	=376	=376	=376	=376	=376	=376
4e-\	.	4g\	.	8g/L	.	8gg\L	.
.	.	.	.	8e-/	.	8ee-\	.
4E-/	.	4G/	.	8d/	.	8dd\	.
.	.	.	.	8c#/J	.	8cc#\J	.
=377	=377	=377	=377	=377	=377	=377	=377
*clefF4	*clefF4	*	*	*	*	*	*
4D\	.	4F#/	.	8e-/L	.	8ee-\L	.
.	.	.	.	8d/	.	8dd\	.
4BBn/	.	4Fn/	.	8c#/	.	8cc#\	.
.	.	.	.	8d/J)	.	8dd\J)	.
=378	=378	=378	=378	=378	=378	=378	=378
4C/	.	4E-/	.	(8e-/L	.	(8ee-\L	.
.	.	.	.	8cn/	.	8ccn\	.
4FF/)	.	4e-\)	.	8B-/	.	8b-\	.
.	.	.	.	8A/J	.	8a\J	.
=379	=379	=379	=379	=379	=379	=379	=379
(4GG/	.	(4D/	.	8c/L	.	8cc\L	.
.	.	.	.	[8B-/J)	.	8b-\	.
4CC/	.	4En/	.	4B-/_	.	8a\	.
.	.	.	.	.	.	8g\J	.
=380	=380	=380	=380	=380	=380	=380	=380
4DD/	p	8F/L	p	8B-/L]	p	8f\L	p
.	.	8D/	.	(8B-/	.	8b-\	.
4FF/	.	8C/	.	8A/	.	8a\	.
.	.	8E-/J)	.	8c/J	.	8cc\J	.
=381	=381	=381	=381	=381	=381	=381	=381
8BB-\L)	.	(8D/L	.	4d/)	.	4b-\)	.
(8F\	.	8f\	.	.	.	.	.
8A\	.	8g\	.	(4ee-\	.	4r	.
8B-\J)	.	8b-\J)	.	.	.	.	.
=382	=382	=382	=382	=382	=382	=382	=382
(8B-\L	.	(8b-\L	.	4dd\	.	2r	.
8G\	.	8g\	.	.	.	.	.
8F\	.	8f\	.	4bb-\	.	.	.
8En\J	.	8en\J	.	.	.	.	.
=383	=383	=383	=383	=383	=383	=383	=383
8G\L	.	8g\L	.	4aa\)	.	4r	.
8F\	.	8f\	.	.	.	.	.
8En\	.	8en\	.	4r	.	(4ccc\	.
8F\J	.	8f\J	.	.	.	.	.
=384	=384	=384	=384	=384	=384	=384	=384
8G\L	.	8g\L	.	2r	.	4bb-\	.
8E-\	.	8e-\	.	.	.	.	.
8D\	.	8d\	.	.	.	4ggg\	.
8C#\J	.	8c#\J	.	.	.	.	.
=385	=385	=385	=385	=385	=385	=385	=385
8E-\L	.	8e-\L	.	4r	.	4fff\)	.
8D\	.	8d\	.	.	.	.	.
8C#\	.	8c#\	.	(4g/	.	4r	.
8D\J)	.	8d\J)	.	.	.	.	.
=386	=386	=386	=386	=386	=386	=386	=386
(8E-/L	.	(8e-/L	.	4f/	.	2r	.
8Cn/	.	8cn/	.	.	.	.	.
8BB-/	.	8B-/	.	4ee-\	.	.	.
8AA/J	.	8A/J	.	.	.	.	.
=387	=387	=387	=387	=387	=387	=387	=387
8C/L	.	8c/L	.	4dd\)	.	4r	.
8BB-/	.	8B-/	.	.	.	.	.
8AA/	.	8A/	.	4r	.	(4ee-\	.
8GG/J	.	8G/J	.	.	.	.	.
=388	=388	=388	=388	=388	=388	=388	=388
8FF/L	p	8F/L	p	4r	p	4dd\)	p
8BB-/	.	8B-/	.	.	.	.	.
8AA/	.	8A/	.	[4f/	.	(4eee-\	.
8C/J)	.	8c/J)	.	.	.	.	.
=389	=389	=389	=389	=389	=389	=389	=389
(2BB-/	.	2B-/	.	(2f/]	.	(2ddd\)	.
=390	=390	=390	=390	=390	=390	=390	=390
2AA-/	.	(8B-\L	.	2d/	.	2fff\	.
.	.	8e-\	.	.	.	.	.
.	.	8d\	.	.	.	.	.
.	.	8f\J	.	.	.	.	.
=391	=391	=391	=391	=391	=391	=391	=391
2GG/	.	2e-\)	.	2B-/)	.	2ggg\	.
=392	=392	=392	=392	=392	=392	=392	=392
2EE-/)	.	2G/	.	(8e-/L	.	2bbb-\)	.
.	.	.	.	8g/	.	.	.
.	.	.	.	8f/	.	.	.
.	.	.	.	8e-/J	.	.	.
=393	=393	=393	=393	=393	=393	=393	=393
[2FF/	.	[2E-/	.	8d/L	.	(8c/L	.
.	.	.	.	8c/	.	8e-/	.
.	.	.	.	8B-/	.	8d/	.
.	.	.	.	8A/J)	.	8c/J	.
=394	=394	=394	=394	=394	=394	=394	=394
2FF/_	.	2E-/_	.	[2A/	.	8f/L	.
.	.	.	.	.	.	8e-/	.
.	.	.	.	.	.	8c/	.
.	.	.	.	.	.	8A/J)	.
=395	=395	=395	=395	=395	=395	=395	=395
(4FF/]	p	(4E-/]	p	(4A/]	p	(8c/L	p
.	.	.	.	.	.	8d/J	.
4BB-/)	.	4D/)	.	4B-/)	.	8B-/)	.
.	.	.	.	.	.	8r	.
=396	=396	=396	=396	=396	=396	=396	=396
2r	.	(8cc\L	.	(8ee-\L	.	(4aa\	.
.	.	8dd\J)	.	8ff\J)	.	.	.
.	.	8b-\	.	8dd\	.	8bb-\)	.
.	.	8r	.	8r	.	8r	.
=397	=397	=397	=397	=397	=397	=397	=397
(8FF/L	.	2r	.	(2f/	.	(2ddd\	.
8BB-/	.	.	.	.	.	.	.
8AA/	.	.	.	.	.	.	.
8C/J	.	.	.	.	.	.	.
=398	=398	=398	=398	=398	=398	=398	=398
8BB-/L	.	2r	.	2B-/ 2d/	.	2fff\	.
8AA-/	.	.	.	.	.	.	.
8GG/	.	.	.	.	.	.	.
8FF/J)	.	.	.	.	.	.	.
=399	=399	=399	=399	=399	=399	=399	=399
(4EE-/	.	(8B-\L	.	2b-\	.	2ggg\	.
.	.	8e-\	.	.	.	.	.
[4GG/	.	8d\	.	.	.	.	.
.	.	8f\J	.	.	.	.	.
=400	=400	=400	=400	=400	=400	=400	=400
4GG/]	.	8e-\L	.	4B-/)	.	2bbb-\)	.
.	.	8d\	.	.	.	.	.
4EEn/)	.	8c\	.	4g/	.	.	.
.	.	8B-\J)	.	.	.	.	.
=401	=401	=401	=401	=401	=401	=401	=401
[2FF/	.	2A/	.	(8e-/L	.	2c/	.
.	.	.	.	8g/	.	.	.
.	.	.	.	8f/	.	.	.
.	.	.	.	8e-/J	.	.	.
=402	=402	=402	=402	=402	=402	=402	=402
2FF/_	.	[2E-/	.	8d/L	.	(8cc\L	.
.	.	.	.	8c/	.	8ee-\	.
.	.	.	.	8B-/	.	8dd\	.
.	.	.	.	8A/J)	.	8cc\J	.
=403	=403	=403	=403	=403	=403	=403	=403
2FF/_	.	2E-/_	.	[2A/	.	8ff\L	.
.	.	.	.	.	.	8ee-\	.
.	.	.	.	.	.	8cc\	.
.	.	.	.	.	.	8a\J)	.
=404	=404	=404	=404	=404	=404	=404	=404
(4FF/]	p	(4E-/]	p	(4A/]	p	(8cc\L	p
.	.	.	.	.	.	8dd\J	.
4BB-/)	.	4D/)	.	4B-/)	.	8b-\)	.
.	.	.	.	.	.	8r	.
=405	=405	=405	=405	=405	=405	=405	=405
2r	.	2r	.	4r	.	(8ff\L	.
.	.	.	.	.	.	8ee-\	.
.	.	.	.	(8ff\L	.	8cc\	.
.	.	.	.	8ee-\J	.	8a\J)	.
=406	=406	=406	=406	=406	=406	=406	=406
4r	.	(8f\L	.	8cc\L	.	2r	.
.	.	8e-\	.	8a\J)	.	.	.
(8F\L	.	8c\	.	4r	.	.	.
8E-\J	.	8A\J)	.	.	.	.	.
=407	=407	=407	=407	=407	=407	=407	=407
8C\L	p	(8A/L	p	2r	.	(8ff\L	p
8AA\)	.	8c/J	.	.	.	8ee-\	.
8BB-'\	.	8F'/L)	.	.	.	8dd\)	.
8B-'\J	.	8b-'\J	.	.	.	8ddd'\J	.
=408	=408	=408	=408	=408	=408	=408	=408
4r	.	8G'/L	.	2r	.	8r	.
.	.	8g'/J	.	.	.	8bb-\	.
8E-'\L	.	4r	.	.	.	8r	.
8e-'\J	.	.	.	.	.	8gg\	.
=409	=409	=409	=409	=409	=409	=409	=409
4r	.	8C'/L	.	2r	.	8r	.
.	.	8c'/J	.	.	.	8ee-\	.
8AA'\L	.	4r	.	.	.	8r	.
8A'\J	.	.	.	.	.	8cc\	.
=410	=410	=410	=410	=410	=410	=410	=410
4r	.	8F'/L	.	2r	.	8r	.
.	.	8f'/J	.	.	.	8a/	.
8D'\L	.	4r	.	.	.	8r	.
8d'\J	.	.	.	.	.	8b-\	.
=411	=411	=411	=411	=411	=411	=411	=411
(8F\L	p	(8A/L	p	(8cc\L	p	2r	.
8E-\J	.	8c/J	.	8a\J	.	.	.
8D\L)	.	8F/L)	.	8b-\L)	.	.	.
8d'\J	.	8f'/J	.	8bb-'\J	.	.	.
=412	=412	=412	=412	=412	=412	=412	=412
8r	.	8r	.	4r	.	8g'\L	.
8B-\	.	8d\	.	.	.	8gg'\J	.
8r	.	8r	.	8e-'/L	.	4r	.
8G\	.	8B-/	.	8ee-'/J	.	.	.
=413	=413	=413	=413	=413	=413	=413	=413
8r	.	8r	.	4r	.	8c'/L	.
8E-\	.	8G/	.	.	.	8cc'/J	.
8r	.	8r	.	8A'/L	.	4r	.
8C/	.	8E-/	.	8a'/J	.	.	.
=414	=414	=414	=414	=414	=414	=414	=414
8r	.	8r	.	4r	.	8f'/L	.
8AA/	.	8C/	.	.	.	8ff'/J	.
8r	.	8r	.	8d'/L	.	4r	.
8BB-/	.	8D/	.	8dd'/J	.	.	.
=415	=415	=415	=415	=415	=415	=415	=415
4FF/	.	8c\L	.	8A/L	.	8f/L	.
.	.	8cc\J	.	8a/J	.	8ff/J	.
8F/L	.	4r	.	4r	.	4r	.
8FF/J	.	.	.	.	.	.	.
=416	=416	=416	=416	=416	=416	=416	=416
4r	.	8A\L	.	8c/L	.	8f/L	.
.	.	8a\J	.	8cc/J	.	8ff/J	.
8F/L	.	4r	.	4r	.	4r	.
8FF/J	.	.	.	.	.	.	.
=417	=417	=417	=417	=417	=417	=417	=417
4r	.	8c\L	.	8A/L	.	8g-\L	.
.	.	8cc\J	.	8a/J	.	8gg-\J	.
8E-/L	.	4r	.	4r	.	4r	.
8FF/J	.	.	.	.	.	.	.
=418	=418	=418	=418	=418	=418	=418	=418
4r	.	8c\L	.	8g-\L	.	8a\L	.
.	.	8cc\J	.	8gg-\J	.	8aa\J	.
8E-/L	.	4r	.	4r	.	4r	.
8FF/J	.	.	.	.	.	.	.
=419	=419	=419	=419	=419	=419	=419	=419
8D/L	pp	(8F/L	pp	2r	pp	8b-\L	pp
8FF/	.	16B-/L	.	.	.	8bb-\	.
.	.	16d/JJ)	.	.	.	.	.
8D/	.	8f'\L	.	.	.	8b-\	.
8FF/J	.	8d'\J	.	.	.	8bb-\J	.
=420	=420	=420	=420	=420	=420	=420	=420
8AA/L	.	2e-\	.	(8f/L	.	8cc\L	.
8FF/	.	.	.	16a/L	.	8ccc\	.
.	.	.	.	16cc/JJ)	.	.	.
8AA/	.	.	.	8ee-'\L	.	8cc\	.
8FF/J	.	.	.	8cc'\J	.	8ccc\J	.
=421	=421	=421	=421	=421	=421	=421	=421
8AA/L	.	(8F/L	.	2ee-\	.	8cc\L	.
8FF/	.	16A/L	.	.	.	8ccc\	.
.	.	16c/JJ)	.	.	.	.	.
8AA/	.	8e-'\L	.	.	.	8cc\	.
8FF/J	.	8c'\J	.	.	.	8ccc\J	.
=422	=422	=422	=422	=422	=422	=422	=422
8BB-/L	.	2d\	.	(8f/L	.	8dd\L	.
8FF/	.	.	.	16b-/L	.	8ddd\	.
.	.	.	.	16dd/JJ)	.	.	.
8BB-/	.	.	.	8ff'\L	.	8dd\	.
8FF/J	.	.	.	8dd'\J	.	8ddd\J	.
=423	=423	=423	=423	=423	=423	=423	=423
8BB-/L	.	8F'/L	.	8dd'/L	.	8ddd\L	.
8FF/	.	(16B-/L	.	(16b-/L	.	8fff\	.
.	.	16d/JJ	.	16f/JJ	.	.	.
8BB-/	.	8f'/L)	.	8d'/L)	.	8ff\	.
8FF/J	.	(16d/L	.	(16f/L	.	8fff\J	.
.	.	16B-/JJ	.	16b-/JJ	.	.	.
=424	=424	=424	=424	=424	=424	=424	=424
8C/L	.	8F'/L)	.	8ee-'/L)	.	8ff\L	.
8FF/	.	(16c/L	.	(16cc/L	.	8fff\	.
.	.	16e-/JJ	.	16a/JJ	.	.	.
8C/	.	8f'/L)	.	8e-'/L)	.	8ff\	.
8FF/J	.	(16e-/L	.	(16a/L	.	8fff\J	.
.	.	16c/JJ	.	16cc/JJ	.	.	.
=425	=425	=425	=425	=425	=425	=425	=425
8C/L	.	8F'/L)	.	8ee-'/L)	.	8ff\L	.
8FF/	.	(16c/L	.	(16cc/L	.	8fff\	.
.	.	16e-/JJ	.	16a/JJ	.	.	.
8C/	.	8f'/L)	.	8e-'/L)	.	8ff\	.
8FF/J	.	(16e-/L	.	(16a/L	.	8fff\J	.
.	.	16c/JJ	.	16cc/JJ	.	.	.
=426	=426	=426	=426	=426	=426	=426	=426
8BB-/L	.	8F'/L)	.	8dd'/L)	.	8ff\L	.
8FF/	.	(16Bn/L	.	(16b-/L	.	8fff\	.
.	.	16d/JJ	.	16f/JJ	.	.	.
8BB-/	.	8f'/L)	.	8d'/L)	.	8ff\	.
8FF/J	.	(16d/L	.	(16f/L	.	8fff\J	.
.	.	16B/JJ	.	16b-/JJ	.	.	.
=427	=427	=427	=427	=427	=427	=427	=427
(8A-\L	.	8f'/L)	.	8dd'/L)	.	8bn'\L	.
16F\L	.	(16d/L	.	(16bn/L	.	(16dd\L	.
16D\JJ)	.	16Bn/JJ	.	16f/JJ	.	16ff\JJ	.
8FF'/L	.	8A-'/L)	.	8Bn'/L)	.	8aa-'\L)	.
8A-'\J	.	8B'/J	.	8f'/J	.	(16ff\L	.
.	.	.	.	.	.	16dd\JJ	.
=428	=428	=428	=428	=428	=428	=428	=428
(8B-\L	.	(8d-/L	.	(8g/L	.	8dd-'\L)	.
16G\L	.	16B-/L	.	16en/L	.	(16een\L	.
16En\JJ)	.	16G/JJ)	.	16d-/JJ)	.	16gg\JJ	.
8FF'/L	.	8G'/L	.	8d-'/L	.	8bb-'\L)	.
8B-'\J	.	8d-'/J	.	8e'/J	.	(16gg\L	.
.	.	.	.	.	.	16ee\JJ	.
=429	=429	=429	=429	=429	=429	=429	=429
(8B-\L	.	(8d-/L	.	(8g/L	.	8dd-'\L)	.
16G\L	.	16B-/L	.	16en/L	.	(16een\L	.
16En\JJ)	.	16G/JJ)	.	&(16d-/JJ&))	.	16gg\JJ	.
8FF'/L	.	8G'/L	.	8d-'/L	.	8bb-'\L)	.
8B-'\J	.	8d-'/J	.	8e'/J	.	(16gg\L	.
.	.	.	.	.	.	16ee\JJ	.
=430	=430	=430	=430	=430	=430	=430	=430
(8c\L	.	(8e-\L	.	(8an/L	.	8ee-'\L)	.
16An\L	.	16c\L	.	16g-/L	.	(16gg-\L	.
16G-\JJ)	.	16An\JJ)	.	16e-/JJ)	.	16aan\JJ	.
8FF'/L	.	8A'\L	.	8e-'/L	.	8ccc'\L)	.
8c'\J	.	8g-'\J	.	8e-'/J 8a'/	.	(16aa\L	.
.	.	.	.	.	.	16gg-\JJ	.
=431	=431	=431	=431	=431	=431	=431	=431
(8c\L	f	(8e-/L	f	(8a/L	f	8ee-'\L)	f
16A\L	.	16c/L	.	16g-/L	.	(16gg-\L	.
16G-\JJ)	.	16A/JJ)	.	16e-/JJ)	.	16aa\JJ	.
8FF'/L	.	8A'\L	.	8e-'/L	.	8ccc'\L)	.
8c'\J	.	8g-'\J	.	8e-'/J 8a'/	.	(16aa\L	.
.	.	.	.	.	.	16gg-\JJ	.
=432	=432	=432	=432	=432	=432	=432	=432
(8dn\L	f	(8f\L	.	(8cc-/L	f	8ff'\L)	f
16c-\L	.	16dn\L	.	16a-/L	.	(16aa-\L	.
16A-\JJ)	.	16Bn\JJ)	.	16f/JJ)	.	16ccc-\JJ	.
8FF'/L	.	8A-'\L	.	8dn'/L	.	8dddn'\L)	.
8d'\J	.	8a-'\J	.	8f'/J 8cc-'/	.	(16ccc-\L	.
.	.	.	.	.	.	16aa-\JJ	.
=433	=433	=433	=433	=433	=433	=433	=433
(8en\L	.	(8gn\L	.	(8dd-/L	.	8ggn'\L)	.
16d-\L	.	16en\L	.	16b-/L	.	(16bb-\L	.
16B-\JJ)	.	16d-\JJ)	.	16gn/JJ)	.	16ddd-\JJ	.
8FF'/L	.	8d-'\L	.	8B-'/L 8g'/	.	8eeen'\L)	.
8e'\J	.	8g'\J	.	8dd-'/J	.	(16ddd-\L	.
.	.	.	.	.	.	16bb-\JJ	.
=434	=434	=434	=434	=434	=434	=434	=434
(8g-\L	ff	(8an\L	ff	(8ee-\L	ff	8aan'\L)	ff
16e-\L	.	16g-\L	.	16ccn\L	.	(16cccn\L	.
16cn\JJ)	.	16e-\JJ)	.	16an\JJ)	.	16eee-\JJ	.
8FF'/L	.	8cn'\L	.	8a'\L	.	8ggg-'\L)	.
8g-\J	.	8a'\J	.	8ee-'\J	.	(16eee-\L	.
.	.	.	.	.	.	16ccc\JJ)	.
=435	=435	=435	=435	=435	=435	=435	=435
8FF'/L	.	(8a-\L	.	(8ddn/L	.	(8aa-\L	.
8f'\J	.	16dn\L	.	16a-/L	.	16ddd\L	.
.	.	16A-\JJ)	.	16f/JJ)	.	16fff\JJ)	.
8FF/L	.	(8d/L	.	(8f/L	.	8aaa-'\L	.
8BB-/J	.	16A-/L	.	16dn/L	.	8fff'\J	.
.	.	16F/JJ)	.	16A-/JJ)	.	.	.
=436	=436	=436	=436	=436	=436	=436	=436
8FF/L	.	8G/L	.	8B-/L	.	(16aaa-\LL	.
.	.	.	.	.	.	16gggn\	.
8BB-/J	.	(16G/L	.	(16B-/L	.	16fff\	.
.	.	16B-/JJ)	.	16g/JJ)	.	16eee-\JJ)	.
8EE-/L	.	8G/L	.	8B-/L	.	8ddd'\L	.
8BB-/J	.	(16G/L	.	(16B-/L	.	8eee-'\J	.
.	.	16B-/JJ)	.	16g/JJ)	.	.	.
=437	=437	=437	=437	=437	=437	=437	=437
8EE-/L	.	8G/L	.	8B-/L	.	8eee-\L	.
8BB-/J	.	(16G/L	.	(16B-/L	.	8eee-\J	.
.	.	16B-/JJ)	.	16g/JJ)	.	.	.
8EE-/L	.	8G/L	.	8B-/L	.	(8eee-\L	.
8BB-/J	.	(16G/L	.	(16B-/L	.	16fff\L	.
.	.	16B-/JJ)	.	16g/JJ)	.	16ggg\JJ)	.
=438	=438	=438	=438	=438	=438	=438	=438
8EE-/L	.	8F/L	.	8B-/L	.	(8ggg\L	.
8BB-/J	.	(16F/L	.	(16B-/L	.	16aaa-\Jk)	.
.	.	16B-/JJ)	.	16a-/JJ)	.	16r	.
8DD/L	.	8F/L	.	8B-/L	.	4aaa-\	.
8BB-/J	.	(16F/L	.	(16B-/L	.	.	.
.	.	16B-/JJ)	.	16a-/JJ)	.	.	.
=439	=439	=439	=439	=439	=439	=439	=439
8DD/L	.	8F/L	.	8B-/L	.	(8aa-\L	.
8BB-/J	.	(16F/L	.	(16B-/L	.	16ddd\L	.
.	.	16B-/JJ)	.	16a-/JJ)	.	16fff\JJ)	.
8DD/L	.	8F/L	.	8B-/L	.	8aaa-'\L	.
8BB-/J	.	(16F/L	.	(16B-/L	.	8fff'\J	.
.	.	16B-/JJ)	.	16a-/JJ)	.	.	.
=440	=440	=440	=440	=440	=440	=440	=440
8EE-/L	.	8G/L	.	8B-/L	.	(16aaa-\LL	.
.	.	.	.	.	.	16ggg\	.
8BB-/J	.	(16G/L	.	(16B-/L	.	16fff\	.
.	.	16B-/JJ)	.	16g/JJ)	.	16eee-\JJ)	.
8GG/L	.	8E-/L 8G/	.	8B-/L	.	8ddd'\L	.
8GG-/J	.	(16E-/L	.	(16B-/L	.	8eee-'\J	.
.	.	16B-/JJ)	.	16e-/JJ)	.	.	.
=441	=441	=441	=441	=441	=441	=441	=441
8FF/L	.	8D/L	.	8B-/L	.	8fff\L	.
8C/	.	(16F/L	.	(16d/L	.	8fff\J	.
.	.	16d/JJ)	.	16f/JJ)	.	.	.
8FF/	.	8c\L 8e-\	.	8f/L	.	(8fff\L	.
8C/J	.	(16e-\L	.	(16f/L	.	16ggg\L	.
.	.	16f\JJ)	.	16ee-/JJ)	.	16aaan\JJ)	.
=442	=442	=442	=442	=442	=442	=442	=442
8FF/L	.	8e-\L	.	8f/L	.	(8aaa\L	.
8F/J	.	(16e-\L	.	(16f/L	.	8bbb-\J)	.
.	.	16f\JJ)	.	16ee-/JJ)	.	.	.
8BB-'\L	.	[4f\	.	[4dd\	.	[4bbb-\	.
8B-\J	.	.	.	.	.	.	.
=443	=443	=443	=443	=443	=443	=443	=443
(8AA/L	.	2f\_	.	2dd\_	.	2bbb-\_	.
16BB-/Jk)	.	.	.	.	.	.	.
16r	.	.	.	.	.	.	.
4BB-/	.	.	.	.	.	.	.
=444	=444	=444	=444	=444	=444	=444	=444
(8C#/L	.	2f\]	.	2dd\]	.	2bbb-\_	.
16D/Jk)	.	.	.	.	.	.	.
16r	.	.	.	.	.	.	.
4D\	.	.	.	.	.	.	.
=445	=445	=445	=445	=445	=445	=445	=445
(8F\L	.	(8f\L	.	(8ff\L	.	2bbb-\]	.
16F#\Jk)	.	16f#\Jk)	.	16ff#\Jk)	.	.	.
16r	.	16r	.	16r	.	.	.
4F#\	.	4f#\	.	4ff#\	.	.	.
=446	=446	=446	=446	=446	=446	=446	=446
8GG'\L	pp	8G'\L	pp	8g'\L	pp	(8gg\L	pp
8G'\	.	8g'\	.	8gg'\	.	16bbn\L	.
.	.	.	.	.	.	16ddd\JJ)	.
8GG'\	.	8G'\	.	8g'\	.	8fff'\L	.
8G'\J	.	8g'\J	.	8gg'\J	.	8ddd'\J	.
=447	=447	=447	=447	=447	=447	=447	=447
2r	.	2r	.	(8cc/L	.	(16fff\LL	.
.	.	.	.	.	.	16eee-\	.
.	.	.	.	16g/L	.	16ddd\	.
.	.	.	.	16e-/JJ)	.	16ccc\JJ)	.
.	.	.	.	8c'/L	.	8bbn'\L	.
.	.	.	.	8cc'/J	.	8ccc'\J	.
=448	=448	=448	=448	=448	=448	=448	=448
(8g\L	.	2r	.	2r	.	8bbn\L	.
16d\L	.	.	.	.	.	8bb\J	.
16Bn\JJ)	.	.	.	.	.	.	.
8G'\L	.	.	.	.	.	(8bb\L	.
8g'\J	.	.	.	.	.	16ccc\L	.
.	.	.	.	.	.	16ddd\JJ)	.
=449	=449	=449	=449	=449	=449	=449	=449
2r	.	(8c/L	.	2r	.	(8ddd\L	.
.	.	16G/L	.	.	.	16eee-\Jk)	.
.	.	16E-/JJ)	.	.	.	16r	.
.	.	8C'/L	.	.	.	4eee-\	.
.	.	8c'/J	.	.	.	.	.
=450	=450	=450	=450	=450	=450	=450	=450
8FF'/L	.	8F'/L	.	8f'/L	.	(8ff\L	.
8F'/J	.	8f'/J	.	8ff'/J	.	16aa\L	.
.	.	.	.	.	.	16ccc\JJ)	.
8FF'/L	.	8F'/L	.	8f'/L	.	8eee-'\L	.
8F'/J	.	8f'/J	.	8ff'/J	.	8ccc'\J	.
=451	=451	=451	=451	=451	=451	=451	=451
2r	.	4r	.	(8b-/L	.	(16eee-\LL	.
.	.	.	.	.	.	16ddd\	.
.	.	.	.	16f/L	.	16ccc\	.
.	.	.	.	16d/JJ)	.	16bb-\JJ)	.
.	.	(8B-/L	.	8d/L	.	8aa'\L	.
.	.	16F/L	.	8d/J 8f/	.	8bb-'\J	.
.	.	16D/JJ)	.	.	.	.	.
=452	=452	=452	=452	=452	=452	=452	=452
(8BB-/L	.	8E-'/L	.	8g'/L	.	8gg'\L	.
16GG/L	.	8E-'/	.	8e-'/	.	8ee-'\	.
16EE-/JJ)	.	.	.	.	.	.	.
8FF'/L	.	8F'/	.	8f'/	.	8ff'\	.
8FF'/J	.	8F'/J	.	8f'/J	.	8ff'\J	.
=453	=453	=453	=453	=453	=453	=453	=453
8BB-/	.	8B-/	.	8B-/	pp	(16b-\LL	pp
.	.	.	.	.	.	16bb-\	.
8r	.	8r	.	8r	.	16ccc\	.
.	.	.	.	.	.	16ddd\JJ	.
4r	.	4r	.	8aa'\L	.	16eee-\LL	.
.	.	.	.	.	.	16ddd\	.
.	.	.	.	8bb-'\J	.	16eee-\	.
.	.	.	.	.	.	16ddd\JJ)	.
=454	=454	=454	=454	=454	=454	=454	=454
2r	.	2r	.	8gg\L	.	(16ccc\LL	.
.	.	.	.	.	.	16bb-\	.
.	.	.	.	8ee-\J	.	16ccc\	.
.	.	.	.	.	.	16bb-\JJ)	.
.	.	.	.	8ff\L	.	(16bb-\LL	.
.	.	.	.	.	.	16aa\	.
.	.	.	.	8ff\J	.	16bb-\	.
.	.	.	.	.	.	16aa\JJ)	.
=455	=455	=455	=455	=455	=455	=455	=455
2r	.	4r	.	8dd\L	.	(16aa\LL	.
.	.	.	.	.	.	16bb-\	.
.	.	.	.	8dd\J	.	16aa\	.
.	.	.	.	.	.	16bb-\JJ)	.
.	.	8d'\L	.	8f/L	.	(16aa-\LL	.
.	.	.	.	.	.	16gg\	.
.	.	8e-'\J	.	8g/J	.	16aa-\	.
.	.	.	.	.	.	16gg\JJ)	.
=456	=456	=456	=456	=456	=456	=456	=456
2r	.	8c/L	.	8e-/L	.	(16gg\LL	.
.	.	.	.	.	.	16aa-\	.
.	.	8A-/J	.	8e-/J	.	16gg\	.
.	.	.	.	.	.	16aa-\JJ)	.
.	.	8B-/L	.	(16e-/LL	.	(16gg\LL	.
.	.	.	.	16d/	.	16ff\	.
.	.	8B-/J	.	16e-/	.	16gg\	.
.	.	.	.	16d/JJ)	.	16ff\JJ)	.
=457	=457	=457	=457	=457	=457	=457	=457
4r	.	8G/L	.	8b-\L	.	(16ff\LL	.
.	.	.	.	.	.	16ee-\	.
.	.	8G/J	.	8b-\	.	16ff\	.
.	.	.	.	.	.	16ee-\JJ)	.
8D'\L	.	8B-/L	.	8b-\	.	(16ff\LL	.
.	.	.	.	.	.	16gg\)	.
8E-'\J	.	8G/J	.	8b-\J	.	(16gg\	.
.	.	.	.	.	.	16eee-\JJ	.
=458	=458	=458	=458	=458	=458	=458	=458
8C/L	.	8G/L	.	8cc\L	.	16gg\LL	.
.	.	.	.	.	.	16eee-\)	.
8AAn/J	.	8c/J	.	8cc\J	.	(16ff\	.
.	.	.	.	.	.	16eee-\JJ	.
8BB-/L	.	8c/L	.	8f/L	.	16ff\LL	.
.	.	.	.	.	.	16eee-\	.
8BB-/J	.	8B-/J	.	8f/J	.	16ff\	.
.	.	.	.	.	.	16ddd\JJ)	.
=459	=459	=459	=459	=459	=459	=459	=459
8EE-/L	.	8G/L	.	8g/L	.	(16gg\LL	.
.	.	.	.	.	.	16ddd\	.
8EE-/J	.	8E-/J	.	8g/	.	16gg\	.
.	.	.	.	.	.	16ccc\JJ)	.
8FF/L	.	8D/L	.	8g/	.	(16gg\LL	.
.	.	.	.	.	.	16ccc\	.
8FF/J	.	8D/J	.	8g/J	.	16gg\	.
.	.	.	.	.	.	16bbn\JJ)	.
=460	=460	=460	=460	=460	=460	=460	=460
8EE-/L	.	8C/L	.	8g/L	.	(16gg\LL	.
.	.	.	.	.	.	16bbn\	.
8EE-/	.	8c/	.	8G/	.	16gg\	.
.	.	.	.	.	.	16ccc\JJ)	.
8EEn/	.	8c/J	.	8G/J	.	(16gg\LL	.
.	.	.	.	.	.	16ccc\	.
8EE/J	.	8C/	.	8g/	.	16gg\	.
.	.	.	.	.	.	16bb-\JJ)	.
=461	=461	=461	=461	=461	=461	=461	=461
8FF/L	.	8C/L	.	8c/	.	(16gg\LL	.
.	.	.	.	.	.	16bb-\	.
8FF/J	.	8C/J	.	8f/L	.	16ff\	.
.	.	.	.	.	.	16aa\JJ)	.
(8FF/L	.	(8A/L	.	8f/	.	(16ee-\LL	.
.	.	.	.	.	.	16ccc\	.
16GG/L	.	16B-/L	.	8f/J	.	16ee-\	.
16AA/JJ)	.	16c/JJ)	.	.	.	16ccc\JJ)	.
=462	=462	=462	=462	=462	=462	=462	=462
(8AA/L	.	(8c/L	.	(8f/L	.	(16ee-\LL	.
.	.	.	.	.	.	16ccc\	.
16BB-/Jk)	.	16F/Jk)	.	16f/Jk)	.	16ddd\	.
16r	.	16r	.	16r	.	16ccc\JJ)	.
4BB-/	.	4F/	.	4f/	.	(16ee-\LL	.
.	.	.	.	.	.	16ccc\	.
.	.	.	.	.	.	16dd\	.
.	.	.	.	.	.	16bb-\JJ)	.
=463	=463	=463	=463	=463	=463	=463	=463
2r	.	8a\L	.	8ff\L	.	(16e-/LL	.
.	.	.	.	.	.	16cc/	.
.	.	8a\J	.	8ff\J	.	16dd/	.
.	.	.	.	.	.	16cc/JJ)	.
.	.	(8a\L	.	(8ff\L	.	(16e-/LL	.
.	.	.	.	.	.	16cc/	.
.	.	16b-\L	.	16gg\L	.	16e-/	.
.	.	16cc\JJ)	.	16aa\JJ)	.	16cc/JJ)	.
=464	=464	=464	=464	=464	=464	=464	=464
4r	.	(8cc\L	.	(8aa\L	.	(16e-/LL	.
.	.	.	.	.	.	16cc/	.
.	.	16f\Jk) 16dd\	.	16bb-\Jk)	.	16d/	.
.	.	16r	.	16r	.	16b-/JJ)	.
*clefC4	*clefC4	*	*	*	*	*	*
(8g\L	.	4f\ 4dd\	.	4bb-\	.	(16d/LL	.
.	.	.	.	.	.	16b-/	.
16f\Jk)	.	.	.	.	.	16cc/	.
16r	.	.	.	.	.	16b-/JJ)	.
=465	=465	=465	=465	=465	=465	=465	=465
8e-\L	.	8f\L	.	8cc'\L	.	16a\LL	.
.	.	.	.	.	.	(16ccc\	.
8e-\J	.	8f\	.	8aa'\J	.	16ddd\	.
.	.	.	.	.	.	16ccc\JJ	.
(8e-\L	.	8f\	.	(8aa\L	.	16ddd\LL	.
.	.	.	.	.	.	16ccc\	.
16d\L	.	8f\J	.	16bb-\L	.	16ddd\	.
16c\JJ)	.	.	.	16ccc\JJ)	.	16eee-\JJ)	.
=466	=466	=466	=466	=466	=466	=466	=466
(8c/L	p	8f\L	p	(8a\L	p	(16eee-\LL	p
.	.	.	.	.	.	16a\	.
8B-/	.	8f\J	.	8dd\	.	16ddd\	.
.	.	.	.	.	.	16bb-\JJ	.
8A-/	.	8B-/L	.	8ff\	.	16fff\LL	.
.	.	.	.	.	.	16bb-\	.
8G/J	.	8B-/J	.	8ee-\J)	.	16eee-\	.
.	.	.	.	.	.	16bb-\JJ)	.
=467	=467	=467	=467	=467	=467	=467	=467
8G-/L	.	(8B-\L	.	(8ee-\L	.	(16eee-\LL	.
.	.	.	.	.	.	16bb-\	.
8F/)	.	8b-\J	.	8dd\J)	.	16ddd\	.
.	.	.	.	.	.	16bb-\JJ	.
8F/	.	8A\L	.	4cc\	.	16ccc\LL	.
.	.	.	.	.	.	16bb-\	.
8F/J	.	8e-\J)	.	.	.	16ccc\	.
.	.	.	.	.	.	16aa\JJ)	.
=468	=468	=468	=468	=468	=468	=468	=468
*clefF4	*clefF4	*	*	*	*	*	*
.	.	.	.	b-q/LL	.	.	.
.	.	.	.	ccq/JJ	.	.	.
8FF/L	.	8E-/L	.	8A/L	.	(16ee-\LL	.
.	.	.	.	.	.	16ccc\	.
8FF/J	.	8E-/	.	8A/J	.	16ddd\	.
.	.	.	.	.	.	16ccc\JJ)	.
(8FF/L	.	8E-/	.	(8A/L	.	(16ee-\LL	.
.	.	.	.	.	.	16ccc\	.
16GGn/L	.	8E-/J	.	16B-/L	.	16ee-\	.
16AAn/JJ)	.	.	.	16c/JJ)	.	16ccc\JJ)	.
=469	=469	=469	=469	=469	=469	=469	=469
(8AA/L	.	8F/L	.	(8c/L	.	(16ee-\LL	.
.	.	.	.	.	.	16ccc\	.
16BB-/Jk)	.	16F/Jk	.	16d/Jk)	.	16dd\	.
16r	.	16r	.	16r	.	16bb-\JJ)	.
4BB-/	.	4F/	.	4d/	.	(16dd\LL	.
.	.	.	.	.	.	16bb-\	.
.	.	.	.	.	.	16ccc\	.
.	.	.	.	.	.	16bb-\JJ)	.
=470	=470	=470	=470	=470	=470	=470	=470
8FF/L	.	8c/L	.	8a/L	.	(16ff\LL	.
.	.	.	.	.	.	16eee-\	.
8FF/J	.	8c/J	.	8a/J	.	16fff\	.
.	.	.	.	.	.	16eee-\JJ	.
(8FF/L	.	(8c/L	.	(8a/L	.	16fff\LL	.
.	.	.	.	.	.	16eee-\	.
16GG/L	.	16B-/L	.	16b-/L	.	16ff\	.
16AA/JJ)	.	16G-/JJ)	.	16cc/JJ)	.	16eee-\JJ)	.
=471	=471	=471	=471	=471	=471	=471	=471
(8AA/L	.	8F/L	.	(8cc/L	.	(16ff\LL	.
.	.	.	.	.	.	16eee-\	.
16BB-/Jk)	.	16F/Jk	.	16d/Jk) 16f/	.	16ff\	.
16r	.	16r	.	16r	.	16ddd\JJ)	.
4BB-/	.	4F/	.	4d/ 4f/	.	(16ff\LL	.
.	.	.	.	.	.	16ddd\	.
.	.	.	.	.	.	16eee-\	.
.	.	.	.	.	.	16ddd\JJ)	.
=472	=472	=472	=472	=472	=472	=472	=472
8FF/L	.	8e-\L	.	8a/L	.	(16ff\LL	.
.	.	.	.	.	.	16ccc\	.
8FF/J	.	8e-\J	.	8a/J	.	16ddd\	.
.	.	.	.	.	.	16ccc\JJ	.
(8FF/L	.	(8e-\L	.	(8a/L	.	16ddd\LL	.
.	.	.	.	.	.	16ccc\	.
16GG/L	.	16d\L	.	16b-/L	.	16ff\	.
16AA/JJ)	.	16c\JJ)	.	16cc/JJ)	.	16ccc\JJ)	.
=473	=473	=473	=473	=473	=473	=473	=473
(8BB-/L	f	(8B-\L	f	(8b-\L	f	(8bb-\L	f
16C/L	.	16c\L	.	16cc\L	.	16ccc\L	.
16D/JJ)	.	16d\JJ)	.	16dd\JJ)	.	16ddd\JJ)	.
8E-'\L	.	8e-'\L	.	8ee-'\L	.	8eee-'\L	.
8C'\J	.	8c'\J	.	8cc'\J	.	8ccc'\J	.
=474	=474	=474	=474	=474	=474	=474	=474
(8AA/L	.	(8A/L	.	(8a\L	.	(8aa\L	.
16BB-/L	.	16B-/L	.	16b-\L	.	16bb-\L	.
16C/JJ)	.	16c/JJ)	.	16cc\JJ)	.	16ccc\JJ)	.
8D'/L	.	8d'\L	.	8dd'\L	.	8ddd'\L	.
8BB-'/J	.	8B-'\J	.	8b-'\J	.	8bb-'\J	.
=475	=475	=475	=475	=475	=475	=475	=475
(8GG/L	f	(8G/L	f	(8g/L	f	(8gg\L	f
16AA-/L	.	16A-/L	.	16a-/L	.	16aa-\L	.
16BB-/JJ)	.	16B-/JJ)	.	16b-/JJ)	.	16bb-\JJ)	.
8C'/L	.	8c'/L	.	8cc'/L	.	8ccc'\L	.
8AA-'/J	.	8A-'/J	.	8a-'/J	.	8aa-'\J	.
=476	=476	=476	=476	=476	=476	=476	=476
(8FF/L	f	(8F/L	f	(8f/L	f	(8ff\L	f
16GG/L	.	16G/L	.	16g/L	.	16gg\L	.
16AA-/JJ)	.	16A-/JJ)	.	16a-/JJ)	.	16aa-\JJ)	.
8BB-'/L	.	8B-'/L	.	8b-'/L	.	8bb-'\L	.
8GG'/J	.	8G'/J	.	8g'/J	.	8gg'\J	.
=477	=477	=477	=477	=477	=477	=477	=477
(8EE-/L	f	(8E-/L	f	(8e-/L	f	(8ee-\L	f
16FF/L	.	16F/L	.	16f/L	.	16ff\L	.
16GG/JJ)	.	16G/JJ)	.	16g/JJ)	.	16gg\JJ)	.
8AA-'/L	.	8A-'/L	.	8a-'/L	.	8aa-'\L	.
8FF'/J	.	8F'/J	.	8f'/J	.	8ff'\J	.
=478	=478	=478	=478	=478	=478	=478	=478
8DD'/L	.	8D'/L	.	8d'/L	.	8dd'\L	.
8BB-'/	.	8B-'/	.	8b-'/	.	8bb-'\	.
8EE-'/	.	8E-'/	.	8e-'/	.	8ee-'\	.
8BB-'/J	.	8B-'/J	.	8b-'/J	.	8bb-'\J	.
=479	=479	=479	=479	=479	=479	=479	=479
8EE-'/L	.	8E-'/L	.	8e-'/L	.	8ee-'\L	.
8BB-'/	.	8B-'/	.	8b-'/	.	8bb-'\	.
8EEn'/	.	8En'/	.	8en'/	.	8een'\	.
8BB-'/J	.	8B-'/J	.	8b-'/J	.	8bb-'\J	.
=480	=480	=480	=480	=480	=480	=480	=480
8EEn/L	.	8En/L	.	8en/L	.	8een\L	.
8BB-/	.	8B-/	.	8b-/	.	8bb-\	.
8FF/	.	8F/	.	8f/	.	8ff\	.
8BB-/J	.	8B-/J	.	8b-/J	.	8bb-\J	.
=481	=481	=481	=481	=481	=481	=481	=481
8FF/L	.	8F/L	.	8f/L	.	8ff\L	.
8D/	.	8d/	.	8dd/	.	8ddd\	.
8FF/	.	8F/	.	8f/	.	8ff\	.
8F/J	.	8f/J	.	8ff/J	.	8fff\J	.
=482	=482	=482	=482	=482	=482	=482	=482
(8BB-/L	ff	(8B-\L	ff	8r	ff	8r	ff
16C/L	.	16c\L	.	(16b-/LL	.	(16bb-\LL	.
16D/JJ)	.	16d\JJ)	.	16a/JJ	.	16aa\JJ	.
8E-'/L	.	8e-'\L	.	8g'/L)	.	8gg'\L)	.
8C'/J	.	8c'\J	.	(16a/L	.	(16aa\L	.
.	.	.	.	16b-/JJ	.	16bb-\JJ	.
=483	=483	=483	=483	=483	=483	=483	=483
(8AA/L	.	(8A/L	.	8cc/L)	.	8ccc'\L)	.
16BB-/L	.	16B-/L	.	(16a/L	.	(16aa\L	.
16C/JJ)	.	16c/JJ)	.	16g/JJ	.	16gg\JJ	.
8D'/L	.	8d'/L	.	8f'/L)	.	8ff'\L)	.
8BB-'/J	.	8B-'/J	.	(16g/L	.	(16gg\L	.
.	.	.	.	16a/JJ	.	16aa\JJ	.
=484	=484	=484	=484	=484	=484	=484	=484
8GG/L	f	8G'/L	f	8b-'/L)	f	8bb-'\L)	f
(16AA/L	.	(16A/L	.	(16g/L	.	(16gg\L	.
16BB-/JJ	.	16B-/JJ	.	16f/JJ	.	16ff\JJ	.
8C'/L)	.	8c'/L)	.	8e-'/L)	.	8ee-'\L)	.
(16AA-'/L	.	(16A-'/L	.	(16f/L	.	(16ff\L	.
16GG'/JJ	.	16G'/JJ	.	16g/JJ	.	16gg\JJ	.
=485	=485	=485	=485	=485	=485	=485	=485
8FF'/L)	f	8F'/L)	f	8a-'/L)	f	8aa-'\L)	f
(16GG/L	.	(16G/L	.	(16f/L	.	(16ff\L	.
16AA-/JJ	.	16A-/JJ	.	16e-/JJ	.	16ee-\JJ	.
8BB-'/L)	.	8B-'/L)	.	8d'/L)	.	8dd'\L)	.
(16GG/L	.	(16G/L	.	(16e-/L	.	(16ee-\L	.
16FF/JJ	.	16F/JJ	.	16f/JJ	.	16ff\JJ	.
=486	=486	=486	=486	=486	=486	=486	=486
8EE-'/L)	f	8E-'/L)	f	8g'/L)	f	8gg'\L)	f
(16FF/L	.	(16F/L	.	(16e-/L	.	(16ee-\L	.
16GG/JJ	.	16G/JJ	.	16d/JJ	.	16dd\JJ	.
8AA-'/L)	.	8A-'/L)	.	8c'/L)	.	8cc'\L)	.
(16FF/L	.	(16F/L	.	(16d/L	.	(16dd\L	.
16EE-/JJ	.	16E-/JJ	.	16e-/JJ	.	16ee-\JJ	.
=487	=487	=487	=487	=487	=487	=487	=487
8DD'/L)	.	8D'/L)	.	8f'/L)	.	8ff'\L)	.
8BB-'/	.	8B-'/	.	(16d/L	.	(16dd\L	.
.	.	.	.	16c/JJ)	.	16cc\JJ)	.
8EE-'/	.	8E-'/	.	(16c/LL	.	(16cc\LL	.
.	.	.	.	16B-/J	.	16b-\J	.
8BB-'/J	.	8B-'/J	.	8g/J)	.	8gg\J)	.
=488	=488	=488	=488	=488	=488	=488	=488
8EE-/L	.	8E-/L	.	8g'/L	.	8gg'\L	.
8BB-/	.	8B-/	.	(16e-/L	.	(16ee-\L	.
.	.	.	.	16d/JJ)	.	16dd\JJ)	.
8EEn/	.	8En/	.	(16d/LL	.	(16dd\LL	.
.	.	.	.	16c/J	.	16cc\J	.
8BB-/J	.	8B-/J	.	8g/J)	.	8gg\J)	.
=489	=489	=489	=489	=489	=489	=489	=489
8EEn/L	.	8En/L	.	8g'/L	.	8gg'\L	.
8BB-/	.	8B-/	.	8d/J 8f/	.	(16gg\L	.
.	.	.	.	.	.	16ff\JJ)	.
8FF/	.	8F/	.	8d/L 8f/	.	(16ddd\LL	.
.	.	.	.	.	.	16eee-\J	.
8BB-/J	.	8B-/J	.	8d/J 8f/	.	8fff\J)	.
=490	=490	=490	=490	=490	=490	=490	=490
8FF/L	.	8F/L	.	8d/L 8f/	.	(16fff\LL	.
.	.	.	.	.	.	16ggg\	.
8D/	.	8d/	.	8f/J 8b-/	.	16aaa\	.
.	.	.	.	.	.	16bbb-\JJ)	.
8FF/	.	8F/	.	8e-/L 8cc/	.	8bbb-'\L	.
8F/J	.	8f/J	.	8c/J 8e-/	.	8aaa'\J	.
=491	=491	=491	=491	=491	=491	=491	=491
8BB-'\L	ff	8F'/L	ff	8d'/L	ff	16bbb-\LL	ff
.	.	.	.	.	.	16dd\	.
8B-'\J	.	8d'/J	.	8f'/J	.	16cc\	.
.	.	.	.	.	.	16b-\JJ	.
4c\	.	4e-\	.	4f/	.	16b-/LL	.
.	.	.	.	.	.	16a/	.
.	.	.	.	.	.	16g/	.
.	.	.	.	.	.	16f/JJ	.
=492	=492	=492	=492	=492	=492	=492	=492
8BB-'\L	.	8d'/L	.	8f'/L	.	16f/LL	.
.	.	.	.	.	.	16bb-\	.
8d'\J	.	8B-'/J	.	8f'/J	.	16aa\	.
.	.	.	.	.	.	16gg\JJ	.
4f\	.	4c/	.	4a/	.	16ff\LL	.
.	.	.	.	.	.	16ee-\	.
.	.	.	.	.	.	16dd\	.
.	.	.	.	.	.	16cc\JJ	.
=493	=493	=493	=493	=493	=493	=493	=493
8BB-/L	p	16f\LL	p	16d/LL	p	8b-'\L	p
.	.	16d\	.	16dd/	.	.	.
8BB-/J	.	16d\	.	16cc/	.	8bb-'\J	.
.	.	16d\JJ	.	16b-/JJ	.	.	.
8FF/L	.	16e-\LL	.	16b-/LL	.	4ccc\	.
.	.	16e-\	.	16a/	.	.	.
8FF/J	.	16e-\	.	16g/	.	.	.
.	.	16e-\JJ	.	16f/JJ	.	.	.
=494	=494	=494	=494	=494	=494	=494	=494
8BB-/L	p	16d/LL	p	16f/LL	p	8b-'\L	p
.	.	16B-/	.	16bb-\	.	.	.
8BB-/J	.	16B-/	.	16aa\	.	8ddd'\J	.
.	.	16B-/JJ	.	16gg\JJ	.	.	.
8FF/L	.	16A/LL	.	16ff\LL	.	4fff\	.
.	.	16A/	.	16ee-\	.	.	.
8FF/J	.	16A/	.	16dd\	.	.	.
.	.	16A/JJ	.	16cc\JJ	.	.	.
=495	=495	=495	=495	=495	=495	=495	=495
8BB-/L	pp	16B-/LL	pp	16b-/LL	pp	(16b-\LL	pp
.	.	16d/	.	16f/	.	16bb-\	.
8BB-/J	.	16c/	.	16e-/	.	16aa\	.
.	.	16B-/JJ	.	16d/JJ	.	16bb-\JJ)	.
8FF/L	.	16B-/LL	.	16e-\LL	.	(16a\LL	.
.	.	16A/	.	16ee-\	.	16ccc\	.
8FF/J	.	16A/	.	16ee-\	.	16bbn\	.
.	.	16A/JJ	.	16ee-\JJ	.	16ccc\JJ)	.
=496	=496	=496	=496	=496	=496	=496	=496
8BB-/L	.	16B-\LL	.	16dd\LL	.	(16b-\LL	.
.	.	16b-\	.	16dd\	.	16ddd\	.
8BB-/J	.	16b-\	.	16dd\	.	16ccc#\	.
.	.	16b-\JJ	.	16dd\JJ	.	16ddd\JJ)	.
8FF/L	.	16cc\LL	.	16ee-\LL	.	(16a\LL	.
.	.	16a\	.	16cc\	.	16fff\	.
8FF;/J	.	16b-\	.	16dd-\	.	16eeen\	.
.	.	16a;\JJ	.	16cc;\JJ	.	16fff;\JJ)	.
=497	=497	=497	=497	=497	=497	=497	=497
8FF/	ff	8F/	ff	8c/ 8e-/ 8a/	ff	8fff\	ff
8r	.	8r	.	8r	.	8r	.
8F\	.	8c\ 8f\ 8a\	.	8f\ 8cc\ 8aa\	.	8f\ 8cc\ 8aa\	.
8r	.	8r	.	8r	.	8r	.
=498	=498	=498	=498	=498	=498	=498	=498
8BB-/	.	8B-\ 8f\ 8b-\	.	8B-/ 8f/ 8dd/ 8bb-/	.	8B-/ 8f/ 8dd/ 8bb-/	.
8r	.	8r	.	8r	.	8r	.
4r;	.	4r;	.	4r;	.	4r;	.
==	==	==	==	==	==	==	==
*-	*-	*-	*-	*-	*-	*-	*-
!!!ENC: Craig Stuart Sapp
!!!END: 2004/09/10/
